DMackRus/acrobot/diffDyn.csv
Joint 0 dyn,Joint 0 lin,Joint 0 diff,Joint 1 dyn,Joint 1 lin,Joint 1 diff,Joint 2 dyn,Joint 2 lin,Joint 2 diff,Joint 3 dyn,Joint 3 lin,Joint 3 diff,Joint 4 dyn,Joint 4 lin,Joint 4 diff,Joint 5 dyn,Joint 5 lin,Joint 5 diff,Joint 6 dyn,Joint 6 lin,Joint 6 diff,Cube X dyn,Cube X lin,Cube X diff,Cube Y dyn,Cube Y lin,Cube Y diff,Cube rot dyn,Cube rot lin,Cube rot diff,Joint 0 vel dyn,Joint 0 vel lin,Joint 0 vel diff,Joint 1 vel dyn,Joint 1 vel lin,Joint 1 vel diff,Joint 2 vel dyn,Joint 2 vel lin,Joint 2 vel diff,Joint 3 vel dyn,Joint 3 vel lin,Joint 3 vel diff,Joint 4 vel dyn,Joint 4 vel lin,Joint 4 vel diff,Joint 5 vel dyn,Joint 5 vel lin,Joint 5 vel diff,Joint 6 vel dyn,Joint 6 vel lin,Joint 6 vel diff,Cube X  vel dyn,Cube X vel lin,Cube X vel diff,Cube Y vel dyn,Cube Y vel lin,Cube Y vel diff,Cube rot vel dyn,Cube rot vel lin,Cube rot vel diff
-0.12001,-0.12001,0,-0.14645,-0.14645,0,0.060009,0.060009,0,-3.00037,-3.00037,0,-7.79136e-05,-7.79136e-05,0,1.3398,1.3398,0,-4.35431e-06,-4.35431e-06,0,0.4,0.4,0,6.66134e-21,6.66134e-21,0,0,0,0,-0.00111779,-0.00111779,0,0.0806972,0.0806972,0,0.00109806,0.00109806,0,-0.0558053,-0.0558053,0,-0.0131658,-0.0131658,0,-0.0503331,-0.0503331,0,-0.000320677,-0.000320677,0,-2.77556e-19,-2.77556e-19,0,9.71445e-19,9.71445e-19,0,-2.81307e-17,-2.81307e-17,0,
-0.12001,-0.12001,0,-0.146312,-0.146312,0,0.0600114,0.0600114,0,-3.00041,-3.00041,0,-0.000156533,-0.000156533,0,1.33955,1.33955,0,4.47703e-06,4.47703e-06,0,0.4,0.4,0,8.60423e-21,8.60423e-21,0,0,0,0,-3.16824e-05,-3.16824e-05,0,0.0694326,0.0694326,0,0.00121691,0.00121691,0,-0.020745,-0.020745,0,-0.0393099,-0.0393099,0,-0.125763,-0.125763,0,0.00441567,0.00441567,0,-9.71445e-19,-9.71445e-19,0,9.71445e-19,9.71445e-19,0,7.03266e-18,7.03266e-18,0,
-0.120007,-0.120012,-5.47944e-06,-0.14619,-0.14615,4.02832e-05,0.0600163,0.0600136,-2.71414e-06,-3.00041,-3.00052,-0.000115081,-0.000239875,-0.000183127,5.67486e-05,1.33925,1.33944,0.000193115,8.85297e-06,3.87228e-06,-4.98068e-06,0.4,0.4,0,1.38778e-21,1.0551e-20,9.16323e-21,0,-5.61207e-20,-5.61207e-20,0.00162404,-0.00408516,-0.0057092,0.0606719,0.0530922,-0.00757976,0.0024578,-0.0041225,-0.0065803,0.0017638,0.0426203,0.0408565,-0.0416709,-0.162695,-0.121024,-0.147293,-0.332776,-0.185483,0.00218797,0.126548,0.12436,6.93889e-19,-9.10315e-19,-1.6042e-18,-3.60822e-18,1.05832e-18,4.66655e-18,-9.84573e-17,1.66188e-17,1.15076e-16,
-0.120001,-0.120007,-6.07235e-06,-0.146084,-0.146051,3.24612e-05,0.0600236,0.0600188,-4.829e-06,-3.00037,-3.00045,-7.70714e-05,-0.00031707,-0.000318671,-1.60102e-06,1.33896,1.339,4.1074e-05,1.10214e-05,1.76842e-05,6.66273e-06,0.4,0.4,0,-3.88578e-21,3.29792e-21,7.1837e-21,0,1.36434e-20,1.36434e-20,0.00301105,0.00272716,-0.00028389,0.0533059,0.0493836,-0.0039223,0.0036388,0.00257171,-0.00106709,0.0178393,0.036906,0.0190667,-0.0385974,-0.0677748,-0.0291774,-0.146637,-0.222593,-0.0759551,0.00108423,0.0069025,0.00581827,5.55111e-19,1.00692e-18,4.51813e-19,-2.63678e-18,-3.55219e-18,-9.15408e-19,-7.03266e-17,-1.01915e-16,-3.15886e-17,
-0.119993,-0.119998,-4.78952e-06,-0.14599,-0.145962,2.78324e-05,0.0600327,0.0600285,-4.12525e-06,-3.00031,-3.00037,-5.67536e-05,-0.000387042,-0.000400554,-1.35124e-05,1.33868,1.33866,-2.05129e-05,1.24029e-05,1.53973e-05,2.9944e-06,0.4,0.4,0,-7.21645e-21,-1.11089e-20,-3.89244e-21,0,-1.96802e-19,-1.96802e-19,0.0040276,0.00467564,0.000648048,0.0468476,0.0445421,-0.00230556,0.00453006,0.00487551,0.000345444,0.0302084,0.0403662,0.0101577,-0.0349858,-0.0409177,-0.00593191,-0.137329,-0.168063,-0.0307344,0.000690728,-0.00117115,-0.00186188,4.16334e-19,5.54026e-19,1.37693e-19,-1.66533e-18,-1.42287e-18,2.42465e-19,-7.03266e-17,-4.33385e-17,2.69881e-17,
-0.119983,-0.119987,-3.43253e-06,-0.145908,-0.145883,2.46137e-05,0.060043,0.06004,-3.00079e-06,-3.00023,-3.00028,-4.45381e-05,-0.000450934,-0.000464362,-1.34285e-05,1.33843,1.33839,-4.33566e-05,1.34903e-05,1.45725e-05,1.08218e-06,0.4,0.4,0,-9.71445e-21,-1.24928e-20,-2.77833e-21,0,-1.40653e-19,-1.40653e-19,0.00473741,0.00542124,0.000683835,0.0410798,0.0394835,-0.00159633,0.00515004,0.00570761,0.000557572,0.0401935,0.0462857,0.00609224,-0.0319459,-0.0318723,7.36257e-05,-0.125215,-0.136579,-0.0113635,0.000543732,-0.000443691,-0.000987423,4.16334e-19,4.84907e-19,6.85729e-20,-1.249e-18,-7.46249e-19,5.02751e-19,-4.92286e-17,-5.38952e-17,-4.66655e-18,
-0.119973,-0.119975,-2.36988e-06,-0.145836,-0.145814,2.20409e-05,0.0600541,0.060052,-2.04559e-06,-3.00013,-3.00017,-3.63711e-05,-0.000510037,-0.000521021,-1.09836e-05,1.33821,1.33816,-4.95133e-05,1.44227e-05,1.48734e-05,4.50641e-07,0.4,0.4,0,-1.16573e-20,-1.30485e-20,-1.39111e-21,0,-1.40569e-19,-1.40569e-19,0.00522343,0.0057581,0.000534671,0.0358978,0.0346241,-0.00127366,0.0055644,0.00603943,0.000475028,0.0484944,0.0525608,0.00406647,-0.0295518,-0.0282957,0.00125605,-0.112798,-0.115821,-0.00302252,0.000466201,0.000118358,-0.000347843,1.38778e-19,3.53348e-20,-1.03443e-19,-9.71445e-19,-9.60175e-19,1.127e-20,-1.2326e-32,-3.75555e-17,-3.75555e-17,
-0.119962,-0.119963,-1.6265e-06,-0.145773,-0.145754,1.98019e-05,0.0600658,0.0600644,-1.36055e-06,-3.00002,-3.00005,-3.04289e-05,-0.000565461,-0.000574038,-8.57702e-06,1.33801,1.33796,-4.86452e-05,1.52527e-05,1.55118e-05,2.59044e-07,0.4,0.4,0,-1.36002e-20,-1.41581e-20,-5.57887e-22,0,-9.82604e-20,-9.82604e-20,0.00556207,0.00593682,0.000374744,0.0312403,0.0301321,-0.0011082,0.00584227,0.0061832,0.00034093,0.0555215,0.0584773,0.00295575,-0.0277117,-0.0264748,0.0012369,-0.101093,-0.100609,0.000484614,0.000414987,0.00028774,-0.000127247,-1.38778e-19,5.28348e-20,1.91613e-19,-9.71445e-19,-1.01275e-18,-4.13006e-20,1.40653e-17,1.27417e-17,-1.32358e-18,
-0.11995,-0.119951,-1.11291e-06,-0.145719,-0.145702,1.77723e-05,0.0600778,0.0600769,-8.85543e-07,-2.9999,-2.99993,-2.58252e-05,-0.000617869,-0.000624668,-6.79884e-06,1.33782,1.33778,-4.50177e-05,1.59692e-05,1.61866e-05,2.17385e-07,0.4,0.4,0,-1.55431e-20,-1.5547e-20,-3.88578e-24,0,5.62613e-23,5.62613e-23,0.00579169,0.00605709,0.000265398,0.0270648,0.0260591,-0.00100565,0.00601941,0.00626375,0.000244345,0.0615321,0.0638293,0.00229717,-0.0262041,-0.0254161,0.000787994,-0.0904681,-0.0886174,0.00185073,0.000358236,0.000453729,9.54926e-05,-9.71445e-19,-1.11889e-19,8.59556e-19,-9.71445e-19,-9.77873e-19,-6.42818e-21,5.62613e-17,1.19817e-17,-4.42796e-17,
-0.119938,-0.119939,-7.4049e-07,-0.145673,-0.145657,1.59059e-05,0.0600901,0.0600895,-5.4326e-07,-2.99977,-2.99979,-2.21043e-05,-0.00066774,-0.000673391,-5.65067e-06,1.33766,1.33762,-4.05057e-05,1.65804e-05,1.68004e-05,2.19962e-07,0.4,0.4,0,-1.58207e-20,-1.74899e-20,-1.66922e-21,0,2.82994e-20,2.82994e-20,0.00594436,0.00613351,0.000189151,0.0233332,0.0224084,-0.000924771,0.00612629,0.00629761,0.000171317,0.0667088,0.0685586,0.00184985,-0.0249358,-0.0243401,0.000595709,-0.0810001,-0.0787066,0.00229354,0.000305609,0.0002886,-1.7009e-05,-6.93889e-19,-1.32214e-18,-6.2825e-19,-1.38778e-19,-9.44599e-19,-8.05821e-19,5.62613e-17,4.59671e-17,-1.02942e-17,
-0.119926,-0.119927,-4.77086e-07,-0.145633,-0.145618,1.41901e-05,0.0601024,0.0601021,-3.04729e-07,-2.99962,-2.99964,-1.90231e-05,-0.000715428,-0.000720243,-4.81529e-06,1.33752,1.33748,-3.59376e-05,1.70976e-05,1.72979e-05,2.00296e-07,0.4,0.4,0,-1.66533e-20,-1.77608e-20,-1.10745e-21,0,1.12523e-19,1.12523e-19,0.00604243,0.0061767,0.000134269,0.020009,0.0191585,-0.000850487,0.00618424,0.0063039,0.000119659,0.0711874,0.0727188,0.00153143,-0.0238438,-0.0234027,0.000441077,-0.0726424,-0.0703276,0.0023148,0.000258594,0.000228204,-3.03899e-05,-1.38778e-19,-2.56615e-19,-1.17837e-19,-4.16334e-19,8.21382e-19,1.23772e-18,4.2196e-17,4.2263e-17,6.70663e-20,
-0.119914,-0.119914,-2.89743e-07,-0.145599,-0.145586,1.26202e-05,0.0601148,0.0601147,-1.3873e-07,-2.99947,-2.99949,-1.64274e-05,-0.000761203,-0.000765391,-4.1872e-06,1.33739,1.33736,-3.16554e-05,1.75327e-05,1.77097e-05,1.76942e-07,0.4,0.4,0,-1.58207e-20,-1.69337e-20,-1.113e-21,0,1.12466e-19,1.12466e-19,0.00610151,0.00619742,9.59061e-05,0.0170564,0.0162781,-0.000778347,0.00620814,0.00629168,8.35356e-05,0.0750738,0.0763637,0.00128987,-0.0228877,-0.0225488,0.000338869,-0.065301,-0.0631357,0.00216529,0.000217562,0.000183412,-3.41495e-05,-1.38778e-19,-2.725e-19,-1.33723e-19,4.16334e-19,-4.98656e-19,-9.1499e-19,3.51633e-17,2.8079e-17,-7.08436e-18,
-0.119902,-0.119902,-1.559e-07,-0.14557,-0.145558,1.11926e-05,0.0601273,0.0601272,-2.35449e-08,-2.99932,-2.99933,-1.42163e-05,-0.000805287,-0.000808979,-3.69204e-06,1.33727,1.33724,-2.77788e-05,1.78974e-05,1.80506e-05,1.53212e-07,0.4,0.4,0,-1.60982e-20,-1.66483e-20,-5.50115e-22,0,8.43638e-20,8.43638e-20,0.0061327,0.00620157,6.88658e-05,0.0144409,0.013733,-0.000707842,0.00620848,0.00626669,5.82175e-05,0.0784535,0.079552,0.00109856,-0.0220416,-0.021768,0.000273585,-0.0588689,-0.0569124,0.00195651,0.000182341,0.000146369,-3.59725e-05,1.38778e-19,9.49376e-20,-4.38403e-20,-1.38778e-19,7.30291e-19,8.69069e-19,1.40653e-17,2.59153e-17,1.185e-17,
-0.119889,-0.119889,-6.02316e-08,-0.145545,-0.145535,9.90214e-06,0.0601396,0.0601397,5.57058e-08,-2.99915,-2.99917,-1.23186e-05,-0.000847863,-0.000851147,-3.28407e-06,1.33716,1.33714,-2.43289e-05,1.82023e-05,1.83331e-05,1.30839e-07,0.4,0.4,0,-1.69309e-20,-1.52683e-20,1.66256e-21,0,7.02422e-20,7.02422e-20,0.00614396,0.00619349,4.95292e-05,0.012129,0.0114893,-0.000639741,0.00619271,0.00623301,4.03024e-05,0.0813968,0.0823394,0.000942576,-0.0212881,-0.0210571,0.000230969,-0.0532414,-0.0515037,0.00173771,0.000152436,0.000115745,-3.66914e-05,4.16334e-19,3.0442e-19,-1.11914e-19,-4.16334e-19,-2.71024e-19,1.4531e-19,-7.03266e-18,2.95889e-18,9.99155e-18,
-0.119877,-0.119877,7.82514e-09,-0.145525,-0.145516,8.74194e-06,0.060152,0.0601521,1.09292e-07,-2.99899,-2.999,-1.06815e-05,-0.000889092,-0.000892028,-2.9364e-06,1.33707,1.33704,-2.1285e-05,1.84567e-05,1.85674e-05,1.10753e-07,0.4,0.4,0,-1.66533e-20,-1.72112e-20,-5.57887e-22,0,2.80463e-20,2.80463e-20,0.0061411,0.00617661,3.55092e-05,0.0100895,0.00951454,-0.000575001,0.00616618,0.00619368,2.74953e-05,0.0839629,0.0847758,0.000812892,-0.0206145,-0.0204129,0.000201628,-0.0483216,-0.0467919,0.00152971,0.00012721,9.04678e-05,-3.67418e-05,1.38778e-19,4.65853e-19,3.27075e-19,1.38778e-19,-5.23388e-19,-6.62166e-19,2.1098e-17,-1.09451e-17,-3.20431e-17,
-0.119865,-0.119865,5.56958e-08,-0.145509,-0.145501,7.70357e-06,0.0601642,0.0601644,1.44412e-07,-2.99881,-2.99882,-9.26398e-06,-0.000929114,-0.000931748,-2.63333e-06,1.33698,1.33696,-1.86112e-05,1.86687e-05,1.8762e-05,9.32769e-08,0.4,0.4,0,-1.47105e-20,-1.74832e-20,-2.77278e-21,0,-1.39528e-20,-1.39528e-20,0.00612839,0.00615362,2.52336e-05,0.00829334,0.00777896,-0.000514372,0.00613278,0.00615105,1.82692e-05,0.0862018,0.0869055,0.00070362,-0.0200113,-0.0198313,0.000179998,-0.0440226,-0.0426823,0.00134028,0.000106002,6.95442e-05,-3.64576e-05,4.16334e-19,3.22372e-19,-9.39614e-20,9.71445e-19,4.72976e-19,-4.98469e-19,-1.2326e-32,2.26534e-17,2.26534e-17,
-0.119853,-0.119853,8.87082e-08,-0.145495,-0.145488,6.77775e-06,0.0601764,0.0601766,1.66201e-07,-2.99864,-2.99865,-8.03316e-06,-0.000968055,-0.000970421,-2.36546e-06,1.3369,1.33688,-1.62675e-05,1.88451e-05,1.89235e-05,7.83624e-08,0.4,0.4,0,-1.44329e-20,-1.44257e-20,7.21645e-24,0,4.21116e-20,4.21116e-20,0.00610897,0.00612662,1.76492e-05,0.00671366,0.00625535,-0.000458318,0.00609528,0.00610688,1.15972e-05,0.0881564,0.088767,0.00061068,-0.0194706,-0.0193076,0.000162951,-0.0402673,-0.039096,0.00117134,8.8198e-05,5.21482e-05,-3.60498e-05,4.16334e-19,5.12076e-19,9.57425e-20,1.38778e-19,1.48068e-18,1.3419e-18,-7.03266e-18,-7.14359e-18,-1.10928e-19,
-0.11984,-0.11984,1.10752e-07,-0.145485,-0.145479,5.95483e-06,0.0601886,0.0601887,1.78375e-07,-2.99846,-2.99846,-6.96219e-06,-0.00100603,-0.00100815,-2.12687e-06,1.33682,1.33681,-1.42149e-05,1.89916e-05,1.90574e-05,6.57783e-08,0.4,0.4,0,-1.36002e-20,-1.24928e-20,1.10745e-21,0,-2.81307e-23,-2.81307e-23,0.00608519,0.00609722,1.20328e-05,0.00532619,0.00491916,-0.000407033,0.00605571,0.00606248,6.7753e-06,0.0898632,0.0903942,0.000531092,-0.0189857,-0.0188369,0.000148769,-0.0369882,-0.0359659,0.00102225,7.32535e-05,3.76223e-05,-3.56312e-05,4.16334e-19,5.89293e-19,1.72959e-19,4.16334e-19,-3.41147e-19,-7.57481e-19,-4.2196e-17,-5.99784e-18,3.61981e-17,
-0.119828,-0.119828,1.24706e-07,-0.145476,-0.145471,5.22522e-06,0.0602006,0.0602008,1.83658e-07,-2.99828,-2.99828,-6.02878e-06,-0.00104313,-0.00104504,-1.91353e-06,1.33675,1.33674,-1.24179e-05,1.9113e-05,1.91682e-05,5.52277e-08,0.4,0.4,0,-1.27676e-20,-1.33199e-20,-5.52336e-22,0,-1.4206e-20,-1.4206e-20,0.00605874,0.00606662,7.87527e-06,0.00410893,0.00374843,-0.000360504,0.00601549,0.0060188,3.30966e-06,0.0913539,0.0918165,0.000462593,-0.0185508,-0.0184143,0.000136521,-0.0341258,-0.0332345,0.000891362,6.07007e-05,2.54475e-05,-3.52533e-05,1.38778e-19,4.20827e-19,2.82049e-19,4.16334e-19,3.01257e-19,-1.15077e-19,-3.51633e-17,-3.79209e-17,-2.75758e-18,
-0.119816,-0.119816,1.3272e-07,-0.14547,-0.145466,4.57966e-06,0.0602125,0.0602127,1.84061e-07,-2.99809,-2.99809,-5.2142e-06,-0.00107945,-0.00108117,-1.72247e-06,1.33669,1.33668,-1.08447e-05,1.92133e-05,1.92597e-05,4.64095e-08,0.4,0.4,0,-1.19349e-20,-1.19332e-20,1.66533e-24,0,-8.43638e-20,-8.43638e-20,0.00603089,0.0060357,4.80952e-06,0.00304214,0.00272357,-0.000318574,0.00597563,0.00597647,8.46238e-07,0.0926559,0.0930594,0.00040341,-0.0181607,-0.018035,0.000125693,-0.0316284,-0.0308516,0.000776741,5.0145e-05,1.52116e-05,-3.49335e-05,-4.16334e-19,-1.20438e-19,2.95896e-19,4.16334e-19,5.43171e-19,1.26838e-19,-2.1098e-17,-2.71496e-17,-6.05157e-18,
-0.119804,-0.119804,1.36411e-07,-0.145466,-0.145462,4.00941e-06,0.0602244,0.0602246,1.81073e-07,-2.9979,-2.99791,-4.50259e-06,-0.00111507,-0.00111662,-1.55131e-06,1.33663,1.33662,-9.46726e-06,1.92958e-05,1.93348e-05,3.90474e-08,0.4,0.4,0,-1.11022e-20,-1.11006e-20,1.66533e-24,0,-7.02704e-20,-7.02704e-20,0.00600254,0.00600511,2.56585e-06,0.00210818,0.00182719,-0.00028099,0.00593682,0.00593595,-8.73261e-07,0.0937931,0.0941452,0.000352121,-0.0178107,-0.0176947,0.000115996,-0.0294504,-0.028774,0.000676473,4.12562e-05,6.58367e-06,-3.46725e-05,-6.93889e-19,-5.65847e-19,1.28043e-19,4.16334e-19,3.27257e-19,-8.90768e-20,-1.2326e-32,-1.59815e-17,-1.59815e-17,
-0.119792,-0.119792,1.36996e-07,-0.145463,-0.14546,3.50635e-06,0.0602362,0.0602364,1.75803e-07,-2.99771,-2.99772,-3.8804e-06,-0.00115006,-0.00115146,-1.39806e-06,1.33658,1.33657,-8.26095e-06,1.93633e-05,1.93962e-05,3.29002e-08,0.4,0.4,0,-9.71445e-21,-1.02679e-20,-5.53446e-22,0,-4.21116e-20,-4.21116e-20,0.00597434,0.00597529,9.43126e-07,0.00129132,0.00104387,-0.000247444,0.00589952,0.00589748,-2.03997e-06,0.094786,0.0950936,0.000307569,-0.0174966,-0.0173893,0.000107254,-0.0275524,-0.0269636,0.000588788,3.37597e-05,-7.04569e-07,-3.44642e-05,-6.93889e-19,-9.58889e-19,-2.65e-19,6.93889e-19,3.27255e-19,-3.66634e-19,3.51633e-17,1.83031e-18,-3.3333e-17,
-0.11978,-0.11978,1.35393e-07,-0.145462,-0.145459,3.06305e-06,0.0602479,0.0602481,1.69068e-07,-2.99752,-2.99752,-3.33605e-06,-0.00118449,-0.00118575,-1.26096e-06,1.33653,1.33652,-7.20429e-06,1.94182e-05,1.94459e-05,2.7763e-08,0.4,0.4,0,-9.4369e-21,-8.8779e-21,5.58997e-22,0,1.40653e-22,1.40653e-22,0.00594674,0.00594653,-2.10303e-07,0.000577603,0.000359997,-0.000217606,0.00586401,0.00586121,-2.79673e-06,0.0956527,0.0959215,0.000268794,-0.0172146,-0.0171152,9.9352e-05,-0.0258996,-0.0253875,0.000512102,2.74273e-05,-6.87259e-06,-3.42999e-05,-1.38778e-19,-6.63734e-19,-5.24956e-19,1.38778e-19,5.41638e-19,4.0286e-19,2.81307e-17,3.46736e-17,6.54298e-18,
-0.119769,-0.119768,1.32295e-07,-0.145462,-0.14546,2.67274e-06,0.0602596,0.0602598,1.61471e-07,-2.99733,-2.99733,-2.85952e-06,-0.00121842,-0.00121955,-1.13844e-06,1.33648,1.33647,-6.27854e-06,1.94623e-05,1.94858e-05,2.34642e-08,0.4,0.4,0,-8.04912e-21,-8.05078e-21,-1.66533e-24,0,7.02985e-20,7.02985e-20,0.00592003,0.00591903,-1.00961e-06,-4.53254e-05,-0.000236462,-0.000191137,0.00583044,0.00582719,-3.25099e-06,0.0964088,0.0966438,0.000234994,-0.0169612,-0.016869,9.22065e-05,-0.0244616,-0.0240166,0.00044502,2.20698e-05,-1.21011e-05,-3.41709e-05,-1.38778e-19,4.90976e-20,1.87875e-19,6.93889e-19,1.35751e-19,-5.58138e-19,2.81307e-17,1.94298e-17,-8.70085e-18,
-0.119757,-0.119757,1.28219e-07,-0.145464,-0.145461,2.32933e-06,0.0602712,0.0602713,1.53454e-07,-2.99713,-2.99714,-2.44219e-06,-0.00125188,-0.00125291,-1.02905e-06,1.33643,1.33643,-5.46733e-06,1.94974e-05,1.95172e-05,1.98614e-08,0.4,0.4,0,-8.32667e-21,-7.76657e-21,5.60107e-22,0,5.62613e-20,5.62613e-20,0.00589442,0.00589288,-1.5427e-06,-0.000588398,-0.000756106,-0.000167707,0.00579888,0.00579539,-3.48394e-06,0.0970681,0.0972736,0.000205496,-0.0167335,-0.0166477,8.57493e-05,-0.023212,-0.0228257,0.000386321,1.753e-05,-1.65397e-05,-3.40696e-05,1.38778e-19,2.39391e-21,-1.36384e-19,-1.38778e-19,6.10437e-19,7.49214e-19,2.81307e-17,2.12006e-17,-6.93002e-18,
-0.119745,-0.119745,1.34286e-07,-0.145466,-0.145464,2.01469e-06,0.0602827,0.0602829,1.55636e-07,-2.99694,-2.99694,-2.07365e-06,-0.00128488,-0.00128587,-9.93718e-07,1.33639,1.33638,-4.68583e-06,1.95134e-05,1.95416e-05,2.8178e-08,0.4,0.4,0,-8.04912e-21,-6.94278e-21,1.10634e-21,0,5.62613e-20,5.62613e-20,0.00586463,0.00586811,3.48019e-06,-0.00105493,-0.00120826,-0.000153323,0.00576416,0.00576574,1.58466e-06,0.0976411,0.0978223,0.000181179,-0.0164974,-0.0164485,4.88789e-05,-0.0221627,-0.0217925,0.00037015,8.00673e-06,-2.03239e-05,-2.83307e-05,1.38778e-19,1.84651e-19,4.5873e-20,1.38778e-19,-5.28663e-19,-6.6744e-19,3.51633e-17,1.9282e-17,-1.58813e-17,
-0.119733,-0.119733,1.37792e-07,-0.145469,-0.145467,1.73714e-06,0.0602942,0.0602943,1.55887e-07,-2.99674,-2.99674,-1.74891e-06,-0.00131748,-0.00131841,-9.34555e-07,1.33634,1.33634,-4.01445e-06,1.95263e-05,1.95484e-05,2.21115e-08,0.4,0.4,0,-7.21645e-21,-8.32501e-21,-1.10856e-21,0,5.62894e-20,5.62894e-20,0.00583719,0.00583523,-1.95646e-06,-0.00146001,-0.00158847,-0.000128464,0.00573239,0.00572871,-3.68271e-06,0.098139,0.0982982,0.000159228,-0.0162987,-0.0161704,0.000128296,-0.021247,-0.0209895,0.000257505,6.47118e-06,-0.000108373,-0.000114844,1.38778e-19,2.96181e-19,1.57403e-19,4.16334e-19,1.74322e-19,-2.42011e-19,2.81307e-17,2.72753e-17,-8.55316e-19,
-0.119722,-0.119722,1.27792e-07,-0.145472,-0.145471,1.5053e-06,0.0603056,0.0603057,1.43535e-07,-2.99655,-2.99655,-1.46593e-06,-0.00134973,-0.00135053,-8.05557e-07,1.3363,1.3363,-3.50318e-06,1.95371e-05,1.95424e-05,5.29098e-09,0.4,0.4,0,-5.82867e-21,-6.93612e-21,-1.10745e-21,0,7.02985e-20,7.02985e-20,0.00581235,0.00580816,-4.19637e-06,-0.00181131,-0.00192292,-0.00011161,0.00570379,0.0056987,-5.09633e-06,0.0985713,0.0987109,0.000139537,-0.0161268,-0.0160421,8.46973e-05,-0.0204517,-0.0202234,0.000228368,5.37111e-06,-2.40803e-05,-2.94514e-05,-1.38778e-19,1.20457e-19,2.59235e-19,6.93889e-19,3.88113e-19,-3.05776e-19,2.81307e-17,1.91699e-17,-8.96077e-18,
-0.11971,-0.11971,1.17463e-07,-0.145476,-0.145475,1.30231e-06,0.0603169,0.0603171,1.31041e-07,-2.99635,-2.99635,-1.21877e-06,-0.00138168,-0.00138239,-7.08924e-07,1.33626,1.33626,-3.04476e-06,1.95455e-05,1.955e-05,4.52293e-09,0.4,0.4,0,-4.44089e-21,-4.99212e-21,-5.51226e-22,0,5.62613e-20,5.62613e-20,0.00579003,0.00578566,-4.37592e-06,-0.00211549,-0.00221268,-9.71879e-05,0.00567822,0.00567305,-5.17172e-06,0.0989464,0.0990681,0.000121689,-0.0159762,-0.0159079,6.8281e-05,-0.0197639,-0.0195628,0.000201091,4.21826e-06,-1.70262e-05,-2.12445e-05,-1.38778e-19,-2.04147e-19,-6.53696e-20,6.93889e-19,5.2666e-19,-1.6723e-19,-1.2326e-32,1.96877e-17,1.96877e-17,
-0.119699,-0.119699,1.07679e-07,-0.145481,-0.14548,1.12433e-06,0.0603283,0.0603284,1.19322e-07,-2.99615,-2.99615,-1.0027e-06,-0.00141337,-0.001414,-6.30537e-07,1.33622,1.33622,-2.63711e-06,1.95517e-05,1.95563e-05,4.5703e-09,0.4,0.4,0,-3.88578e-21,-3.05034e-21,8.35443e-22,0,5.61488e-20,5.61488e-20,0.00577005,0.00576593,-4.11578e-06,-0.00237832,-0.002463,-8.46818e-05,0.00565544,0.00565065,-4.78766e-06,0.0992713,0.0993775,0.0001062,-0.0158432,-0.0157842,5.89586e-05,-0.0191713,-0.0189964,0.000174973,3.09209e-06,-1.75996e-05,-2.06917e-05,-2.40741e-35,-1.43526e-19,-1.43526e-19,2.77556e-19,6.05561e-19,3.28005e-19,-2.1098e-17,-6.11769e-18,1.49803e-17,
-0.119687,-0.119687,9.87184e-08,-0.145486,-0.145485,9.68181e-07,0.0603395,0.0603396,1.08655e-07,-2.99595,-2.99595,-8.13604e-07,-0.00144482,-0.00144538,-5.64579e-07,1.33619,1.33619,-2.27663e-06,1.95558e-05,1.95601e-05,4.34252e-09,0.4,0.4,0,-4.16334e-21,-2.49856e-21,1.66478e-21,0,-8.4392e-23,-8.4392e-23,0.00575218,0.00574846,-3.71487e-06,-0.00260486,-0.00267863,-7.37707e-05,0.00563516,0.0056309,-4.2657e-06,0.0995524,0.0996451,9.27666e-05,-0.0157253,-0.0156727,5.25726e-05,-0.0186628,-0.018512,0.000150753,2.05093e-06,-1.86533e-05,-2.07043e-05,-1.38778e-19,9.42303e-20,2.33008e-19,-1.38778e-19,2.82806e-20,1.67059e-19,-2.1098e-17,-2.29891e-17,-1.8911e-18,
-0.119676,-0.119676,9.06465e-08,-0.145492,-0.145491,8.31132e-07,0.0603508,0.0603509,9.90818e-08,-2.99575,-2.99575,-6.47969e-07,-0.00147606,-0.00147657,-5.0799e-07,1.33615,1.33615,-1.95895e-06,1.9558e-05,1.9562e-05,3.95776e-09,0.4,0.4,0,-3.88578e-21,-3.61045e-21,2.75335e-22,0,-4.2196e-20,-4.2196e-20,0.00573619,0.00573291,-3.27956e-06,-0.00279955,-0.00286377,-6.422e-05,0.00561713,0.0056134,-3.72164e-06,0.099795,0.099876,8.10762e-05,-0.0156204,-0.0155727,4.7739e-05,-0.0182282,-0.0180994,0.000128806,1.11523e-06,-1.95589e-05,-2.06741e-05,-4.16334e-19,-2.06396e-19,2.09938e-19,1.38778e-19,-6.15466e-19,-7.54244e-19,7.03266e-18,-1.64664e-17,-2.3499e-17,
-0.119664,-0.119664,8.37055e-08,-0.145498,-0.145497,7.27534e-07,0.060362,0.0603621,9.08656e-08,-2.99555,-2.99555,-5.02053e-07,-0.00150711,-0.00150757,-4.60037e-07,1.33612,1.33611,-1.77425e-06,1.95595e-05,1.95621e-05,2.6466e-09,0.4,0.4,0,-3.60822e-21,-4.16167e-21,-5.53446e-22,0,-4.20835e-20,-4.20835e-20,0.00572176,0.00571904,-2.72205e-06,-0.00297462,-0.00302213,-4.75107e-05,0.00560093,0.00559788,-3.04694e-06,0.100003,0.100075,7.12501e-05,-0.0155263,-0.015483,4.32925e-05,-0.0178112,-0.0177493,6.19406e-05,7.27989e-07,-2.0314e-05,-2.1042e-05,-4.16334e-19,-5.23464e-19,-1.0713e-19,1.38778e-19,1.69847e-19,3.1069e-20,7.03266e-18,9.78477e-18,2.75211e-18,
-0.119653,-0.119653,7.92266e-08,-0.145504,-0.145504,6.37315e-07,0.0603731,0.0603732,8.52204e-08,-2.99535,-2.99535,-3.78905e-07,-0.00153799,-0.00153841,-4.23254e-07,1.33608,1.33608,-1.58696e-06,1.95584e-05,1.95617e-05,3.28001e-09,0.4,0.4,0,-3.88578e-21,-3.33011e-21,5.55667e-22,0,1.40653e-20,1.40653e-20,0.005708,0.00570764,-3.53661e-07,-0.0031245,-0.00317406,-4.95609e-05,0.00558569,0.00558371,-1.97438e-06,0.100185,0.100238,5.2759e-05,-0.0154397,-0.0153879,5.1727e-05,-0.0174695,-0.0173168,0.000152703,-5.24091e-07,-2.82127e-05,-2.76887e-05,-4.16334e-19,-3.94801e-19,2.15331e-20,-1.38778e-19,2.59675e-19,3.98453e-19,-1.2326e-32,4.81446e-18,4.81446e-18,
-0.119641,-0.119641,7.58039e-08,-0.145511,-0.14551,5.41738e-07,0.0603843,0.0603844,8.1055e-08,-2.99515,-2.99515,-2.74174e-07,-0.00156871,-0.00156911,-3.96111e-07,1.33605,1.33604,-1.31724e-06,1.9555e-05,1.95599e-05,4.87023e-09,0.4,0.4,0,-3.60822e-21,-3.60989e-21,-1.66533e-24,0,1.40372e-20,1.40372e-20,0.00569525,0.00569382,-1.42787e-06,-0.00325203,-0.00329586,-4.38262e-05,0.00557154,0.00556984,-1.70458e-06,0.100341,0.100391,4.96309e-05,-0.015359,-0.015314,4.49332e-05,-0.0171869,-0.0170784,0.00010844,-1.71068e-06,-3.41928e-05,-3.24821e-05,-1.38778e-19,-3.21938e-19,-1.8316e-19,1.38778e-19,-3.50017e-19,-4.88795e-19,-2.1098e-17,-2.19051e-18,1.89075e-17,
-0.11963,-0.11963,7.29716e-08,-0.145517,-0.145517,4.57276e-07,0.0603954,0.0603955,7.73146e-08,-2.99495,-2.99495,-1.78919e-07,-0.00159928,-0.00159965,-3.73002e-07,1.33601,1.33601,-1.10063e-06,1.95494e-05,1.9554e-05,4.59578e-09,0.4,0.4,0,-2.77556e-21,-3.88412e-21,-1.10856e-21,0,-8.4392e-23,-8.4392e-23,0.00568287,0.00568339,5.10153e-07,-0.0033599,-0.00339811,-3.82123e-05,0.00555814,0.00555583,-2.3097e-06,0.100475,0.10052,4.49387e-05,-0.0152837,-0.0152405,4.32528e-05,-0.016953,-0.0168714,8.1571e-05,-2.82778e-06,-3.57498e-05,-3.2922e-05,-2.40741e-35,1.49217e-20,1.49217e-20,4.16334e-19,3.3375e-19,-8.25833e-20,-4.2196e-17,-2.08669e-17,2.13291e-17,
-0.119619,-0.119619,7.13485e-08,-0.145524,-0.145524,3.83039e-07,0.0604065,0.0604066,7.45352e-08,-2.99475,-2.99475,-9.36974e-08,-0.0016297,-0.00163006,-3.51879e-07,1.33598,1.33598,-9.19927e-07,1.95418e-05,1.95459e-05,4.13113e-09,0.4,0.4,0,-2.22045e-21,-2.49523e-21,-2.7478e-22,0,-4.22804e-20,-4.22804e-20,0.00567092,0.00567021,-7.0228e-07,-0.00345049,-0.00348365,-3.31604e-05,0.00554536,0.00554441,-9.48376e-07,0.100589,0.100629,3.9904e-05,-0.0152134,-0.0151716,4.18872e-05,-0.0167603,-0.016697,6.33623e-05,-3.78413e-06,-3.74041e-05,-3.362e-05,-2.77556e-19,-7.54111e-22,2.76802e-19,2.77556e-19,4.25843e-19,1.48287e-19,7.03266e-18,-3.55965e-17,-4.26292e-17,
-0.119607,-0.119607,6.96829e-08,-0.145531,-0.145531,3.17863e-07,0.0604176,0.0604176,7.21321e-08,-2.99455,-2.99455,-1.81699e-08,-0.00166,-0.00166033,-3.32492e-07,1.33595,1.33594,-7.65728e-07,1.95326e-05,1.95361e-05,3.4992e-09,0.4,0.4,0,-2.498e-21,-1.38722e-21,1.11078e-21,0,-8.4195e-20,-8.4195e-20,0.00565935,0.00565864,-7.08647e-07,-0.00352591,-0.00355454,-2.86276e-05,0.00553314,0.00553237,-7.76518e-07,0.100686,0.100721,3.5068e-05,-0.0151478,-0.0151067,4.1015e-05,-0.0166032,-0.0165533,4.98946e-05,-4.58686e-06,-3.82998e-05,-3.3713e-05,-4.81482e-35,-5.23931e-19,-5.23931e-19,-1.38778e-19,2.8526e-19,4.24038e-19,-2.1098e-17,1.57534e-17,3.68514e-17,
-0.119596,-0.119596,6.81156e-08,-0.145539,-0.145538,2.6071e-07,0.0604286,0.0604287,6.9932e-08,-2.99434,-2.99434,4.84735e-08,-0.00169017,-0.00169049,-3.147e-07,1.33591,1.33591,-6.3252e-07,1.95221e-05,1.9525e-05,2.92945e-09,0.4,0.4,0,-2.498e-21,-1.94511e-21,5.52891e-22,0,1.39528e-20,1.39528e-20,0.00564815,0.00564751,-6.46306e-07,-0.00358805,-0.00361266,-2.46151e-05,0.00552144,0.00552075,-6.89556e-07,0.100767,0.100797,3.06346e-05,-0.0150863,-0.015046,4.02093e-05,-0.016477,-0.0164377,3.92202e-05,-5.25964e-06,-3.89446e-05,-3.36849e-05,-1.38778e-19,4.99044e-20,1.88682e-19,2.64815e-34,-3.59788e-19,-3.59788e-19,-7.03266e-18,-2.23262e-17,-1.52935e-17,
-0.119585,-0.119585,6.66438e-08,-0.145546,-0.145546,2.10616e-07,0.0604396,0.0604397,6.79055e-08,-2.99414,-2.99414,1.07141e-07,-0.00172023,-0.00172053,-2.98498e-07,1.33588,1.33588,-5.16678e-07,1.95104e-05,1.95129e-05,2.45316e-09,0.4,0.4,0,-3.05311e-21,-2.775e-21,2.78111e-22,0,-4.21397e-20,-4.21397e-20,0.0056373,0.00563672,-5.86915e-07,-0.00363852,-0.00365961,-2.10833e-05,0.00551021,0.00550959,-6.15624e-07,0.100834,0.100861,2.66535e-05,-0.0150286,-0.0149891,3.94027e-05,-0.0163776,-0.0163472,3.03895e-05,-5.8253e-06,-3.94612e-05,-3.36359e-05,-2.77556e-19,-2.44061e-19,3.34945e-20,-2.77556e-19,1.49562e-19,4.27118e-19,1.40653e-17,-1.28336e-18,-1.53487e-17,
-0.119574,-0.119573,6.52615e-08,-0.145553,-0.145553,1.6672e-07,0.0604506,0.0604507,6.60374e-08,-2.99394,-2.99394,1.5872e-07,-0.00175018,-0.00175046,-2.83856e-07,1.33585,1.33585,-4.15577e-07,1.94978e-05,1.94999e-05,2.06061e-09,0.4,0.4,0,-3.33067e-21,-3.05533e-21,2.75335e-22,0,-1.39809e-20,-1.39809e-20,0.00562678,0.00562624,-5.31835e-07,-0.00367878,-0.00369677,-1.79833e-05,0.00549942,0.00549887,-5.47808e-07,0.100889,0.100912,2.31145e-05,-0.0149743,-0.0149357,3.86085e-05,-0.0163017,-0.0162788,2.28978e-05,-6.30272e-06,-3.989e-05,-3.35873e-05,-1.38778e-19,-3.71092e-19,-2.32314e-19,-1.38778e-19,-5.36701e-19,-3.97923e-19,-1.40653e-17,1.43576e-17,2.84229e-17,
-0.119562,-0.119562,6.39664e-08,-0.145561,-0.14556,1.28256e-07,0.0604616,0.0604617,6.4317e-08,-2.99374,-2.99374,2.04033e-07,-0.00178002,-0.00178029,-2.70697e-07,1.33581,1.33581,-3.27176e-07,1.94844e-05,1.94862e-05,1.73614e-09,0.4,0.4,0,-3.60822e-21,-3.88578e-21,-2.77556e-22,0,2.80181e-20,2.80181e-20,0.00561655,0.00561607,-4.79187e-07,-0.00371009,-0.00372535,-1.52656e-05,0.00548903,0.00548854,-4.83971e-07,0.100934,0.100954,1.9985e-05,-0.014923,-0.0148852,3.78489e-05,-0.0162465,-0.01623,1.6451e-05,-6.70693e-06,-4.02496e-05,-3.35426e-05,-4.81482e-35,-1.0602e-20,-1.0602e-20,-1.38778e-19,-2.20153e-20,1.16763e-19,-3.51633e-17,-1.62056e-17,1.89577e-17,
-0.119551,-0.119551,6.27576e-08,-0.145568,-0.145568,9.45524e-08,0.0604726,0.0604726,6.2736e-08,-2.99354,-2.99354,2.43822e-07,-0.00180977,-0.00181003,-2.58919e-07,1.33578,1.33578,-2.49804e-07,1.94703e-05,1.94718e-05,1.46604e-09,0.4,0.4,0,-2.77556e-21,-3.88634e-21,-1.11078e-21,0,-2.8215e-20,-2.8215e-20,0.00560661,0.00560618,-4.28071e-07,-0.00373354,-0.00374643,-1.28843e-05,0.00547901,0.00547858,-4.23177e-07,0.100969,0.100986,1.72254e-05,-0.0148746,-0.0148374,3.71392e-05,-0.0162092,-0.0161984,1.08596e-05,-7.04996e-06,-4.05515e-05,-3.35015e-05,-2.77556e-19,8.00078e-20,3.57564e-19,4.16334e-19,-2.40536e-19,-6.56869e-19,-1.2326e-32,-3.0506e-17,-3.0506e-17,
-0.11954,-0.11954,6.16339e-08,-0.145576,-0.145575,6.50189e-08,0.0604835,0.0604835,6.12869e-08,-2.99334,-2.99333,2.78747e-07,-0.00183943,-0.00183968,-2.48404e-07,1.33575,1.33575,-1.82056e-07,1.94556e-05,1.94569e-05,1.23962e-09,0.4,0.4,0,-3.05311e-21,-3.04923e-21,3.88578e-24,0,-7.0186e-20,-7.0186e-20,0.00559693,0.00559655,-3.78348e-07,-0.00375011,-0.00376091,-1.07979e-05,0.00546932,0.00546896,-3.6516e-07,0.100996,0.101011,1.47956e-05,-0.0148285,-0.014792,3.64863e-05,-0.0161878,-0.0161818,5.98944e-06,-7.34153e-06,-4.08044e-05,-3.34629e-05,-1.38778e-19,-4.47039e-19,-3.08261e-19,-1.38778e-19,7.96909e-19,9.35687e-19,-1.2326e-32,6.49144e-18,6.49144e-18,
-0.119529,-0.119529,6.05938e-08,-0.145583,-0.145583,3.91393e-08,0.0604944,0.0604945,5.99622e-08,-2.99313,-2.99313,3.09397e-07,-0.001869,-0.00186924,-2.39032e-07,1.33572,1.33572,-1.22726e-07,1.94405e-05,1.94415e-05,1.04875e-09,0.4,0.4,0,-2.22045e-21,-2.22322e-21,-2.77556e-24,0,-2.46519e-35,-2.46519e-35,0.00558749,0.00558716,-3.30239e-07,-0.00376065,-0.00376962,-8.96997e-06,0.00545994,0.00545963,-3.0999e-07,0.101017,0.101029,1.26583e-05,-0.0147846,-0.0147487,3.58916e-05,-0.0161802,-0.0161784,1.73804e-06,-7.5896e-06,-4.10155e-05,-3.34259e-05,-1.38778e-19,7.80135e-20,2.16791e-19,4.16334e-19,-5.97575e-19,-1.01391e-18,-7.03266e-18,1.41942e-18,8.45209e-18,
-0.119518,-0.119518,5.96347e-08,-0.145591,-0.145591,1.64615e-08,0.0605053,0.0605054,5.87542e-08,-2.99293,-2.99293,3.36289e-07,-0.00189848,-0.00189871,-2.30688e-07,1.33569,1.33569,-7.07702e-08,1.94249e-05,1.94257e-05,8.87134e-10,0.4,0.4,0,-1.66533e-21,-2.49412e-21,-8.28782e-22,0,-2.81307e-23,-2.81307e-23,0.00557827,0.00557798,-2.84076e-07,-0.00376589,-0.00377325,-7.36809e-06,0.00545085,0.00545059,-2.57851e-07,0.10103,0.101041,1.07791e-05,-0.0147426,-0.0147073,3.53534e-05,-0.0161847,-0.0161867,-1.97731e-06,-7.80077e-06,-4.11906e-05,-3.33898e-05,-1.38778e-19,-2.25067e-20,1.16271e-19,2.77556e-19,7.89812e-19,5.12256e-19,2.1098e-17,-6.39978e-18,-2.74978e-17,
-0.119506,-0.119506,5.87534e-08,-0.145598,-0.145598,-3.40997e-09,0.0605162,0.0605163,5.76551e-08,-2.99273,-2.99273,3.59879e-07,-0.00192789,-0.00192811,-2.23264e-07,1.33565,1.33565,-2.52782e-08,1.94089e-05,1.94097e-05,7.49848e-10,0.4,0.4,0,-1.11022e-21,-8.32112e-22,2.78111e-22,0,-1.39528e-20,-1.39528e-20,0.00556925,0.00556901,-2.40173e-07,-0.00376648,-0.00377245,-5.96407e-06,0.005442,0.00544179,-2.08922e-07,0.101039,0.101048,9.12744e-06,-0.0147024,-0.0146675,3.48681e-05,-0.0161999,-0.0162051,-5.22561e-06,-7.98055e-06,-4.1335e-05,-3.33544e-05,-2.77556e-19,-2.1475e-19,6.28057e-20,2.77556e-19,3.38362e-19,6.08062e-20,2.81307e-17,2.17615e-17,-6.3692e-18,
-0.119495,-0.119495,5.79458e-08,-0.145606,-0.145606,-2.08214e-08,0.0605271,0.0605271,5.66572e-08,-2.99253,-2.99253,3.80569e-07,-0.00195722,-0.00195743,-2.1666e-07,1.33562,1.33562,1.45447e-08,1.93926e-05,1.93933e-05,6.32931e-10,0.4,0.4,0,2.25695e-35,-5.54001e-22,-5.54001e-22,0,4.22241e-20,4.22241e-20,0.00556042,0.00556022,-1.98772e-07,-0.00376301,-0.00376774,-4.73326e-06,0.00543338,0.00543322,-1.63323e-07,0.101042,0.10105,7.67601e-06,-0.0146636,-0.0146292,3.44316e-05,-0.0162244,-0.0162325,-8.06562e-06,-8.13356e-06,-4.1453e-05,-3.33194e-05,-2.77556e-19,-2.24652e-19,5.29034e-20,5.55111e-19,1.94242e-19,-3.60869e-19,1.40653e-17,2.06967e-17,6.63136e-18,
-0.119484,-0.119484,5.72075e-08,-0.145613,-0.145613,-3.60758e-08,0.0605379,0.060538,5.57525e-08,-2.99232,-2.99232,3.98712e-07,-0.00198647,-0.00198668,-2.10786e-07,1.33559,1.33559,4.93944e-08,1.93761e-05,1.93766e-05,5.33165e-10,0.4,0.4,0,1.38778e-21,5.58442e-22,-8.29337e-22,0,5.6205e-20,5.6205e-20,0.00555175,0.00555159,-1.6002e-07,-0.00375596,-0.00375962,-3.65409e-06,0.00542497,0.00542485,-1.21101e-07,0.101041,0.101048,6.40067e-06,-0.0146262,-0.0145922,3.40393e-05,-0.0162571,-0.0162677,-1.05483e-05,-8.2637e-06,-4.15483e-05,-3.32846e-05,-4.16334e-19,-1.85775e-19,2.30559e-19,6.93889e-19,7.30769e-19,3.688e-20,7.03266e-18,6.87952e-18,-1.53145e-19,
-0.119473,-0.119473,5.6534e-08,-0.145621,-0.145621,-4.94387e-08,0.0605487,0.0605488,5.49335e-08,-2.99212,-2.99212,4.14619e-07,-0.00201565,-0.00201585,-2.05561e-07,1.33556,1.33556,7.98807e-08,1.93594e-05,1.93598e-05,4.47895e-10,0.4,0.4,0,2.77556e-21,2.50133e-21,-2.74225e-22,0,2.81025e-20,2.81025e-20,0.00554323,0.00554311,-1.23987e-07,-0.00374579,-0.00374849,-2.70773e-06,0.00541675,0.00541667,-8.22324e-08,0.101037,0.101042,5.28009e-06,-0.01459,-0.0145563,3.3687e-05,-0.016297,-0.0163097,-1.27177e-05,-8.37429e-06,-4.16242e-05,-3.32499e-05,-2.77556e-19,-3.25622e-19,-4.80665e-20,6.93889e-19,8.9883e-19,2.04941e-19,2.81307e-17,4.28666e-18,-2.3844e-17,
-0.119462,-0.119462,5.59203e-08,-0.145628,-0.145628,-6.11427e-08,0.0605596,0.0605596,5.41927e-08,-2.99192,-2.99192,4.28562e-07,-0.00204476,-0.00204496,-2.00911e-07,1.33552,1.33552,1.06539e-07,1.93424e-05,1.93428e-05,3.74907e-10,0.4,0.4,0,3.33067e-21,4.16611e-21,8.35443e-22,0,1.41497e-20,1.41497e-20,0.00553486,0.00553477,-9.06714e-08,-0.00373286,-0.00373474,-1.87772e-06,0.00540869,0.00540865,-4.66406e-08,0.101029,0.101033,4.2955e-06,-0.0145549,-0.0145215,3.33707e-05,-0.0163431,-0.0163577,-1.46125e-05,-8.46813e-06,-4.16834e-05,-3.32153e-05,-2.77556e-19,-2.64671e-19,1.28847e-20,2.77556e-19,8.10992e-19,5.33437e-19,2.1098e-17,2.51704e-17,4.07244e-18,
-0.119451,-0.119451,5.53618e-08,-0.145636,-0.145636,-7.13916e-08,0.0605704,0.0605704,5.35233e-08,-2.99172,-2.99172,4.40781e-07,-0.0020738,-0.002074,-1.96772e-07,1.33549,1.33549,1.29837e-07,1.93253e-05,1.93256e-05,3.1235e-10,0.4,0.4,0,3.05311e-21,4.71789e-21,1.66478e-21,0,5.62332e-20,5.62332e-20,0.00552661,0.00552655,-6.00142e-08,-0.00371753,-0.00371868,-1.14964e-06,0.00540079,0.00540078,-1.41973e-08,0.101019,0.101022,3.43036e-06,-0.0145207,-0.0144876,3.30865e-05,-0.0163947,-0.0164109,-1.62664e-05,-8.54759e-06,-4.17283e-05,-3.31807e-05,-4.81482e-35,-2.06103e-19,-2.06103e-19,-1.38778e-19,1.69617e-19,3.08395e-19,-1.2326e-32,1.30554e-17,1.30554e-17,
-0.11944,-0.11944,5.48539e-08,-0.145643,-0.145643,-8.03638e-08,0.0605812,0.0605812,5.29185e-08,-2.99152,-2.99152,4.51486e-07,-0.00210277,-0.00210297,-1.93084e-07,1.33546,1.33546,1.50187e-07,1.93081e-05,1.93084e-05,2.58667e-10,0.4,0.4,0,3.60822e-21,3.606e-21,-2.22045e-24,0,4.21116e-20,4.21116e-20,0.00551847,0.00551844,-3.19241e-08,-0.00370009,-0.0037006,-5.10935e-07,0.00539302,0.00539304,1.52477e-08,0.101005,0.101008,2.67013e-06,-0.0144873,-0.0144545,3.28311e-05,-0.016451,-0.0164688,-1.7709e-05,-8.61471e-06,-4.17608e-05,-3.31461e-05,-4.81482e-35,2.48658e-19,2.48658e-19,2.77556e-19,-4.36071e-19,-7.13627e-19,1.40653e-17,-1.78322e-18,-1.58485e-17,
-0.119429,-0.119429,5.4392e-08,-0.14565,-0.14565,-8.82161e-08,0.0605919,0.060592,5.23721e-08,-2.99131,-2.99131,4.60863e-07,-0.00213168,-0.00213187,-1.89797e-07,1.33542,1.33542,1.67951e-07,1.92908e-05,1.9291e-05,2.12549e-10,0.4,0.4,0,4.16334e-21,3.33344e-21,-8.29892e-22,0,5.62613e-23,5.62613e-23,0.00551043,0.00551043,-6.26864e-09,-0.00368079,-0.00368074,4.9452e-08,0.00538537,0.00538542,4.18782e-08,0.10099,0.100992,2.00204e-06,-0.0144547,-0.0144221,3.26012e-05,-0.0165116,-0.0165306,-1.89662e-05,-8.67123e-06,-4.17827e-05,-3.31114e-05,1.38778e-19,-1.00427e-19,-2.39205e-19,2.77556e-19,7.50436e-19,4.7288e-19,-7.03266e-18,1.15132e-17,1.85459e-17,
-0.119418,-0.119418,5.39721e-08,-0.145658,-0.145658,-9.50856e-08,0.0606027,0.0606027,5.18785e-08,-2.99111,-2.99111,4.69073e-07,-0.00216053,-0.00216072,-1.86863e-07,1.33539,1.33539,1.83444e-07,1.92733e-05,1.92735e-05,1.72888e-10,0.4,0.4,0,4.16334e-21,4.71956e-21,5.56222e-22,0,2.80463e-20,2.80463e-20,0.00550249,0.0055025,1.70883e-08,-0.00365987,-0.00365933,5.41137e-07,0.00537784,0.0053779,6.58753e-08,0.100973,0.100974,1.41484e-06,-0.0144227,-0.0143903,3.23942e-05,-0.0165759,-0.016596,-2.00606e-05,-8.71861e-06,-4.17954e-05,-3.30768e-05,1.38778e-19,1.20699e-19,-1.80786e-20,3.37038e-34,2.56751e-19,2.56751e-19,2.1098e-17,-1.01427e-17,-3.12407e-17,
-0.119407,-0.119407,5.35901e-08,-0.145665,-0.145665,-1.01093e-07,0.0606134,0.0606135,5.14324e-08,-2.99091,-2.99091,4.7626e-07,-0.00218931,-0.0021895,-1.84241e-07,1.33536,1.33536,1.96945e-07,1.92558e-05,1.92559e-05,1.38744e-10,0.4,0.4,0,3.60822e-21,4.71734e-21,1.10911e-21,0,-1.39528e-20,-1.39528e-20,0.00549463,0.00549466,3.83089e-08,-0.00363752,-0.00363655,9.726e-07,0.0053704,0.00537049,8.74395e-08,0.100954,0.100955,8.98687e-07,-0.0143913,-0.0143591,3.22075e-05,-0.0166434,-0.0166644,-2.10124e-05,-8.75813e-06,-4.18002e-05,-3.30421e-05,-4.81482e-35,1.27406e-19,1.27406e-19,-2.77556e-19,-1.52071e-19,1.25484e-19,2.81307e-17,2.2802e-17,-5.32867e-18,
-0.119396,-0.119396,5.32423e-08,-0.145672,-0.145672,-1.06343e-07,0.0606241,0.0606242,5.10288e-08,-2.99071,-2.99071,4.82547e-07,-0.00221803,-0.00221821,-1.81896e-07,1.33532,1.33532,2.08698e-07,1.92382e-05,1.92383e-05,1.09322e-10,0.4,0.4,0,3.05311e-21,3.606e-21,5.52891e-22,0,4.22241e-20,4.22241e-20,0.00548684,0.0054869,5.75446e-08,-0.00361393,-0.00361257,1.35123e-06,0.00536305,0.00536316,1.06757e-07,0.100933,0.100934,4.44886e-07,-0.0143605,-0.0143285,3.20387e-05,-0.0167137,-0.0167355,-2.18389e-05,-8.79087e-06,-4.17982e-05,-3.30074e-05,-4.81485e-35,-3.20895e-20,-3.20895e-20,-2.77556e-19,-4.2419e-19,-1.46634e-19,1.40653e-17,2.38411e-17,9.77575e-18,
-0.119385,-0.119385,5.29254e-08,-0.145679,-0.145679,-1.10929e-07,0.0606349,0.0606349,5.06634e-08,-2.99051,-2.99051,4.88045e-07,-0.00224669,-0.00224687,-1.79795e-07,1.33529,1.33529,2.18916e-07,1.92206e-05,1.92207e-05,8.39394e-11,0.4,0.4,0,2.77556e-21,2.49689e-21,-2.78666e-22,0,5.6205e-20,5.6205e-20,0.00547912,0.0054792,7.49552e-08,-0.00358924,-0.00358755,1.68351e-06,0.00535578,0.0053559,1.24019e-07,0.100912,0.100912,4.58411e-08,-0.0143301,-0.0142982,3.18859e-05,-0.0167864,-0.016809,-2.25556e-05,-8.81775e-06,-4.17903e-05,-3.29726e-05,-4.81485e-35,5.45815e-20,5.45815e-20,-1.38778e-19,-2.358e-19,-9.7022e-20,4.2196e-17,4.9944e-18,-3.72016e-17,
-0.119374,-0.119374,5.26362e-08,-0.145686,-0.145687,-1.14933e-07,0.0606456,0.0606456,5.03321e-08,-2.99031,-2.9903,4.9285e-07,-0.00227529,-0.00227547,-1.77909e-07,1.33526,1.33526,2.27788e-07,1.92029e-05,1.9203e-05,6.20257e-11,0.4,0.4,0,3.05311e-21,2.22045e-21,-8.32667e-22,0,2.82432e-20,2.82432e-20,0.00547146,0.00547155,9.06938e-08,-0.00356359,-0.00356161,1.97514e-06,0.00534858,0.00534872,1.39403e-07,0.100889,0.100889,-3.05136e-07,-0.0143001,-0.0142684,3.17473e-05,-0.0168613,-0.0168845,-2.31758e-05,-8.83957e-06,-4.17773e-05,-3.29378e-05,-4.8149e-35,-4.00438e-22,-4.00438e-22,1.38778e-19,2.08618e-20,-1.17916e-19,4.92286e-17,3.55445e-17,-1.36841e-17,
-0.119363,-0.119363,5.23719e-08,-0.145694,-0.145694,-1.18425e-07,0.0606562,0.0606563,5.00313e-08,-2.9901,-2.9901,4.97047e-07,-0.00230383,-0.00230401,-1.76213e-07,1.33522,1.33522,2.35479e-07,1.91852e-05,1.91852e-05,4.30929e-11,0.4,0.4,0,3.88578e-21,2.77722e-21,-1.10856e-21,0,8.44201e-20,8.44201e-20,0.00546386,0.00546397,1.04912e-07,-0.0035371,-0.00353487,2.2311e-06,0.00534145,0.0053416,1.53086e-07,0.100865,0.100864,-6.13914e-07,-0.0142705,-0.0142389,3.16212e-05,-0.016938,-0.0169617,-2.37114e-05,-8.85702e-06,-4.17599e-05,-3.29029e-05,-4.81494e-35,-2.80327e-20,-2.80327e-20,4.16334e-19,3.91011e-19,-2.53229e-20,5.62613e-17,3.72924e-17,-1.89689e-17,
-0.119352,-0.119352,5.21298e-08,-0.145701,-0.145701,-1.21467e-07,0.0606669,0.060667,4.97577e-08,-2.9899,-2.9899,5.0071e-07,-0.00233232,-0.00233249,-1.74684e-07,1.33519,1.33519,2.42132e-07,1.91674e-05,1.91675e-05,2.67214e-11,0.4,0.4,0,4.44089e-21,4.16611e-21,-2.7478e-22,0,9.84854e-20,9.84854e-20,0.00545631,0.00545643,1.17747e-07,-0.00350988,-0.00350742,2.45576e-06,0.00533437,0.00533454,1.65223e-07,0.10084,0.100839,-8.85652e-07,-0.0142413,-0.0142098,3.15062e-05,-0.0170164,-0.0170406,-2.41728e-05,-8.87068e-06,-4.17387e-05,-3.2868e-05,2.77556e-19,1.20499e-19,-1.57056e-19,2.77556e-19,6.44423e-19,3.66867e-19,-1.2326e-32,4.31879e-17,4.31879e-17,
-0.119341,-0.119341,5.19075e-08,-0.145708,-0.145708,-1.24116e-07,0.0606776,0.0606776,4.95083e-08,-2.9897,-2.9897,5.03905e-07,-0.00236074,-0.00236091,-1.73303e-07,1.33515,1.33515,2.47875e-07,1.91497e-05,1.91497e-05,1.25498e-11,0.4,0.4,0,4.996e-21,5.27411e-21,2.78111e-22,0,1.12298e-19,1.12298e-19,0.00544881,0.00544894,1.29331e-07,-0.00348201,-0.00347935,2.65296e-06,0.00532735,0.00532752,1.75966e-07,0.100815,0.100813,-1.12487e-06,-0.0142123,-0.0141809,3.1401e-05,-0.0170962,-0.0171207,-2.45691e-05,-8.88106e-06,-4.17141e-05,-3.28331e-05,2.77556e-19,4.10782e-19,1.33226e-19,2.77556e-19,4.22222e-20,-2.35334e-19,-1.2326e-32,-1.38056e-17,-1.38056e-17,
-0.11933,-0.11933,5.17029e-08,-0.145714,-0.145715,-1.26419e-07,0.0606882,0.0606882,4.92803e-08,-2.9895,-2.9895,5.06688e-07,-0.00238911,-0.00238928,-1.72052e-07,1.33512,1.33512,2.5282e-07,1.91319e-05,1.91319e-05,2.74406e-13,0.4,0.4,0,5.27356e-21,5.55223e-21,2.78666e-22,0,-2.46519e-35,-2.46519e-35,0.00544134,0.00544148,1.39785e-07,-0.00345357,-0.00345075,2.82605e-06,0.00532037,0.00532056,1.85452e-07,0.100788,0.100787,-1.33553e-06,-0.0141836,-0.0141523,3.13045e-05,-0.0171772,-0.0172021,-2.49082e-05,-8.8886e-06,-4.16867e-05,-3.27981e-05,1.38778e-19,2.53826e-19,1.15048e-19,1.38778e-19,1.03552e-19,-3.52261e-20,7.03266e-18,3.95104e-19,-6.63756e-18,
-0.11932,-0.11932,5.15142e-08,-0.145721,-0.145721,-1.28417e-07,0.0606988,0.0606989,4.90715e-08,-2.9893,-2.9893,5.0911e-07,-0.00241742,-0.00241759,-1.70916e-07,1.33509,1.33509,2.57063e-07,1.91141e-05,1.91141e-05,-1.03631e-11,0.4,0.4,0,4.71845e-21,5.82867e-21,1.11022e-21,0,2.81307e-23,2.81307e-23,0.00543392,0.00543407,1.49226e-07,-0.00342465,-0.00342167,2.978e-06,0.00531344,0.00531363,1.93812e-07,0.100762,0.10076,-1.52114e-06,-0.0141552,-0.014124,3.12156e-05,-0.0172592,-0.0172844,-2.51971e-05,-8.89367e-06,-4.16568e-05,-3.27632e-05,1.38778e-19,7.53575e-20,-6.34203e-20,-2.77556e-19,1.01078e-20,2.87664e-19,-1.40653e-17,6.51483e-18,2.05802e-17,
-0.119309,-0.119309,5.13394e-08,-0.145728,-0.145728,-1.3015e-07,0.0607094,0.0607095,4.88797e-08,-2.9891,-2.9891,5.11215e-07,-0.00244567,-0.00244584,-1.69881e-07,1.33505,1.33505,2.60692e-07,1.90963e-05,1.90963e-05,-1.95854e-11,0.4,0.4,0,4.16334e-21,4.99323e-21,8.29892e-22,0,1.39809e-20,1.39809e-20,0.00542653,0.00542668,1.57755e-07,-0.00339529,-0.00339218,3.11137e-06,0.00530654,0.00530674,2.0116e-07,0.100734,0.100733,-1.68475e-06,-0.0141269,-0.0140958,3.11336e-05,-0.0173422,-0.0173676,-2.5442e-05,-8.89661e-06,-4.16248e-05,-3.27282e-05,1.38778e-19,1.52353e-19,1.3575e-20,-2.77556e-19,-6.25539e-19,-3.47984e-19,-1.2326e-32,-1.34476e-17,-1.34476e-17,
-0.119298,-0.119298,5.11772e-08,-0.145735,-0.145735,-1.31648e-07,0.06072,0.0607201,4.8703e-08,-2.98889,-2.98889,5.13041e-07,-0.00247387,-0.00247404,-1.68935e-07,1.33502,1.33502,2.6378e-07,1.90785e-05,1.90785e-05,-2.75891e-11,0.4,0.4,0,3.60822e-21,3.60711e-21,-1.11022e-24,0,-2.80744e-20,-2.80744e-20,0.00541917,0.00541933,1.65468e-07,-0.00336556,-0.00336233,3.22846e-06,0.00529969,0.00529989,2.07602e-07,0.100706,0.100705,-1.82903e-06,-0.0140989,-0.0140678,3.10575e-05,-0.0174259,-0.0174516,-2.56484e-05,-8.89768e-06,-4.15909e-05,-3.26932e-05,-4.81482e-35,2.72605e-20,2.72605e-20,-2.77556e-19,-6.33561e-20,2.142e-19,-1.40653e-17,2.9571e-18,1.70224e-17,
-0.119287,-0.119287,5.1026e-08,-0.145741,-0.145742,-1.3294e-07,0.0607306,0.0607307,4.85396e-08,-2.98869,-2.98869,5.14624e-07,-0.00250201,-0.00250218,-1.68068e-07,1.33498,1.33498,2.66395e-07,1.90607e-05,1.90607e-05,-3.45416e-11,0.4,0.4,0,2.77556e-21,3.052e-21,2.76446e-22,0,-5.62613e-23,-5.62613e-23,0.00541184,0.00541201,1.72449e-07,-0.00333549,-0.00333216,3.33124e-06,0.00529286,0.00529307,2.13233e-07,0.100678,0.100676,-1.95637e-06,-0.014071,-0.0140401,3.09867e-05,-0.0175104,-0.0175362,-2.58208e-05,-8.89713e-06,-4.15554e-05,-3.26582e-05,-4.81483e-35,-1.32911e-19,-1.32911e-19,-4.16334e-19,-7.63988e-20,3.39935e-19,-1.2326e-32,-1.5334e-17,-1.5334e-17,
-0.119276,-0.119276,5.08847e-08,-0.145748,-0.145748,-1.34053e-07,0.0607412,0.0607412,4.83879e-08,-2.98849,-2.98849,5.15991e-07,-0.0025301,-0.00253027,-1.6727e-07,1.33495,1.33495,2.68593e-07,1.90429e-05,1.90429e-05,-4.05745e-11,0.4,0.4,0,1.38778e-21,2.21823e-21,8.30447e-22,0,-2.80744e-20,-2.80744e-20,0.00540453,0.00540471,1.78784e-07,-0.00330514,-0.00330172,3.42146e-06,0.00528606,0.00528628,2.18145e-07,0.10065,0.100648,-2.06881e-06,-0.0140433,-0.0140124,3.09205e-05,-0.0175954,-0.0176214,-2.59635e-05,-8.89519e-06,-4.15184e-05,-3.26232e-05,-4.81483e-35,-6.72534e-20,-6.72534e-20,-6.93889e-19,-5.07788e-19,1.86101e-19,7.03266e-18,2.46339e-18,-4.56927e-18,
-0.119265,-0.119265,5.07521e-08,-0.145755,-0.145755,-1.35006e-07,0.0607518,0.0607518,4.82468e-08,-2.98829,-2.98829,5.17171e-07,-0.00255813,-0.0025583,-1.66532e-07,1.33491,1.33491,2.70427e-07,1.90252e-05,1.90251e-05,-4.58172e-11,0.4,0.4,0,3.7992e-35,5.51226e-22,5.51226e-22,0,2.81307e-23,2.81307e-23,0.00539726,0.00539744,1.84536e-07,-0.00327454,-0.00327104,3.50067e-06,0.00527929,0.00527952,2.22411e-07,0.100621,0.100619,-2.16819e-06,-0.0140158,-0.0139849,3.08585e-05,-0.017681,-0.0177071,-2.60803e-05,-8.89201e-06,-4.14802e-05,-3.25882e-05,2.77556e-19,8.40821e-20,-1.93474e-19,-6.93889e-19,-8.82819e-19,-1.88929e-19,-2.81307e-17,8.97324e-18,3.71039e-17,
-0.119255,-0.119255,5.06272e-08,-0.145761,-0.145761,-1.35821e-07,0.0607623,0.0607623,4.81149e-08,-2.98809,-2.98809,5.18185e-07,-0.00258611,-0.00258627,-1.65848e-07,1.33488,1.33488,2.71941e-07,1.90074e-05,1.90073e-05,-5.03784e-11,0.4,0.4,0,-5.55111e-22,-1.39055e-21,-8.35443e-22,0,1.39247e-20,1.39247e-20,0.00539,0.00539019,1.89774e-07,-0.00324372,-0.00324015,3.5702e-06,0.00527255,0.00527278,2.26108e-07,0.100592,0.10059,-2.2561e-06,-0.0139884,-0.0139576,3.08001e-05,-0.0177669,-0.0177931,-2.6174e-05,-8.88777e-06,-4.1441e-05,-3.25532e-05,2.77556e-19,4.17568e-19,1.40012e-19,-2.77556e-19,-7.48795e-19,-4.71239e-19,-2.81307e-17,-2.85855e-17,-4.54856e-19,
-0.119244,-0.119244,5.05091e-08,-0.145768,-0.145768,-1.36514e-07,0.0607728,0.0607729,4.79912e-08,-2.98789,-2.98789,5.19054e-07,-0.00261403,-0.00261419,-1.65212e-07,1.33484,1.33484,2.73173e-07,1.89896e-05,1.89896e-05,-5.43404e-11,0.4,0.4,0,-5.55111e-22,-1.94234e-21,-1.38722e-21,0,-5.62613e-20,-5.62613e-20,0.00538277,0.00538296,1.94553e-07,-0.00321271,-0.00320908,3.63124e-06,0.00526583,0.00526606,2.29293e-07,0.100563,0.10056,-2.33394e-06,-0.0139611,-0.0139304,3.0745e-05,-0.0178533,-0.0178795,-2.62477e-05,-8.88261e-06,-4.14009e-05,-3.25182e-05,-4.81482e-35,2.25958e-19,2.25958e-19,3.37038e-34,-1.38204e-19,-1.38204e-19,-1.40653e-17,-1.89998e-17,-4.93452e-18,
-0.119233,-0.119233,5.03971e-08,-0.145774,-0.145774,-1.37099e-07,0.0607833,0.0607834,4.78747e-08,-2.98769,-2.98769,5.19795e-07,-0.0026419,-0.00264206,-1.64617e-07,1.3348,1.3348,2.74159e-07,1.89719e-05,1.89718e-05,-5.77859e-11,0.4,0.4,0,3.99668e-35,-1.10911e-21,-1.10911e-21,0,-5.6205e-20,-5.6205e-20,0.00537555,0.00537575,1.98926e-07,-0.00318153,-0.00317785,3.68482e-06,0.00525913,0.00525936,2.32029e-07,0.100533,0.100531,-2.40293e-06,-0.013934,-0.0139033,3.06926e-05,-0.0179399,-0.0179662,-2.63038e-05,-8.87664e-06,-4.13599e-05,-3.24833e-05,-4.81482e-35,-2.43196e-19,-2.43196e-19,2.77556e-19,2.45911e-19,-3.16446e-20,-1.2326e-32,-8.23476e-18,-8.23476e-18,
-0.119222,-0.119222,5.02904e-08,-0.14578,-0.14578,-1.3759e-07,0.0607939,0.0607939,4.77646e-08,-2.98749,-2.98749,5.20425e-07,-0.00266971,-0.00266988,-1.64058e-07,1.33477,1.33477,2.74928e-07,1.89541e-05,1.89541e-05,-6.078e-11,0.4,0.4,0,1.11022e-21,2.22045e-24,-1.108e-21,0,-2.80744e-20,-2.80744e-20,0.00536836,0.00536856,2.02939e-07,-0.00315021,-0.00314648,3.73185e-06,0.00525245,0.00525269,2.34363e-07,0.100503,0.100501,-2.46416e-06,-0.0139069,-0.0138763,3.06427e-05,-0.0180268,-0.0180531,-2.63444e-05,-8.86996e-06,-4.13183e-05,-3.24483e-05,-2.77556e-19,-6.43888e-20,2.13167e-19,5.55111e-19,3.78442e-19,-1.76669e-19,-2.81307e-17,3.30791e-18,3.14386e-17,
-0.119212,-0.119212,5.01885e-08,-0.145786,-0.145787,-1.37999e-07,0.0608043,0.0608044,4.76602e-08,-2.98728,-2.98728,5.20956e-07,-0.00269747,-0.00269763,-1.63532e-07,1.33473,1.33473,2.75507e-07,1.89364e-05,1.89363e-05,-6.33865e-11,0.4,0.4,0,1.11022e-21,1.66867e-21,5.58442e-22,0,-1.12523e-22,-1.12523e-22,0.00536118,0.00536139,2.0663e-07,-0.00311877,-0.003115,3.77313e-06,0.00524579,0.00524603,2.3634e-07,0.100474,0.100471,-2.51856e-06,-0.01388,-0.0138494,3.05951e-05,-0.0181139,-0.0181402,-2.63715e-05,-8.86267e-06,-4.12761e-05,-3.24134e-05,-4.16334e-19,-4.21065e-19,-4.73158e-21,2.88889e-34,3.81224e-19,3.81224e-19,-2.81307e-17,-3.07361e-17,-2.60547e-18,
-0.119201,-0.119201,5.00907e-08,-0.145793,-0.145793,-1.38335e-07,0.0608148,0.0608149,4.75607e-08,-2.98708,-2.98708,5.21401e-07,-0.00272518,-0.00272534,-1.63034e-07,1.33469,1.3347,2.7592e-07,1.89187e-05,1.89186e-05,-6.56573e-11,0.4,0.4,0,8.32667e-22,2.21823e-21,1.38556e-21,0,-5.62613e-20,-5.62613e-20,0.00535402,0.00535423,2.1004e-07,-0.00308722,-0.00308341,3.80938e-06,0.00523915,0.00523939,2.38004e-07,0.100444,0.100441,-2.56699e-06,-0.0138531,-0.0138225,3.05493e-05,-0.0182011,-0.0182275,-2.63868e-05,-8.85484e-06,-4.12333e-05,-3.23785e-05,-4.16334e-19,-3.3918e-19,7.71541e-20,-1.38778e-19,-6.29874e-19,-4.91096e-19,-1.40653e-17,-2.08368e-17,-6.77148e-18,
-0.11919,-0.11919,4.99967e-08,-0.145799,-0.145799,-1.38607e-07,0.0608253,0.0608253,4.74656e-08,-2.98688,-2.98688,5.21771e-07,-0.00275283,-0.00275299,-1.62561e-07,1.33466,1.33466,2.76187e-07,1.8901e-05,1.89009e-05,-6.76282e-11,0.4,0.4,0,8.32667e-22,8.31557e-22,-1.11022e-24,0,-5.6205e-20,-5.6205e-20,0.00534688,0.00534709,2.132e-07,-0.00305558,-0.00305174,3.84117e-06,0.00523253,0.00523276,2.39389e-07,0.100413,0.100411,-2.61015e-06,-0.0138263,-0.0137958,3.05053e-05,-0.0182885,-0.0183149,-2.63915e-05,-8.84655e-06,-4.11901e-05,-3.23435e-05,-4.16334e-19,-4.08581e-19,7.75271e-21,2.88889e-34,-5.43582e-19,-5.43582e-19,3.51633e-17,-8.48652e-18,-4.36498e-17,
-0.11918,-0.11918,4.99058e-08,-0.145805,-0.145805,-1.38823e-07,0.0608357,0.0608358,4.73744e-08,-2.98668,-2.98668,5.22074e-07,-0.00278043,-0.00278059,-1.6211e-07,1.33462,1.33462,2.76325e-07,1.88833e-05,1.88833e-05,-6.93376e-11,0.4,0.4,0,1.38778e-21,5.55667e-22,-8.32112e-22,0,-2.79337e-20,-2.79337e-20,0.00533975,0.00533996,2.16139e-07,-0.00302386,-0.00301999,3.86908e-06,0.00522592,0.00522616,2.40528e-07,0.100383,0.100381,-2.6487e-06,-0.0137996,-0.0137692,3.04628e-05,-0.0183761,-0.0184024,-2.63871e-05,-8.83785e-06,-4.11465e-05,-3.23087e-05,-2.77556e-19,-4.27198e-19,-1.49643e-19,2.77556e-19,1.70858e-19,-1.06698e-19,2.81307e-17,3.57494e-17,7.61878e-18,
-0.119169,-0.119169,4.98179e-08,-0.145811,-0.145811,-1.38991e-07,0.0608462,0.0608462,4.72866e-08,-2.98648,-2.98648,5.22318e-07,-0.00280798,-0.00280814,-1.61679e-07,1.33458,1.33458,2.76351e-07,1.88657e-05,1.88656e-05,-7.08263e-11,0.4,0.4,0,2.498e-21,1.39e-21,-1.108e-21,0,7.02985e-20,7.02985e-20,0.00533263,0.00533285,2.18884e-07,-0.00299207,-0.00298817,3.89358e-06,0.00521932,0.00521956,2.41448e-07,0.100353,0.10035,-2.68319e-06,-0.013773,-0.0137426,3.04216e-05,-0.0184636,-0.01849,-2.63748e-05,-8.82879e-06,-4.11026e-05,-3.22738e-05,-4.81482e-35,-1.29215e-19,-1.29215e-19,5.55111e-19,6.28891e-19,7.37797e-20,-1.2326e-32,1.76283e-17,1.76283e-17,
-0.119158,-0.119158,1.8751e-07,-0.145817,-0.145817,1.70621e-07,0.0608565,0.0608567,1.327e-07,-2.98628,-2.98628,1.37528e-06,-0.00283613,-0.00283563,5.03362e-07,1.33453,1.33455,1.44187e-05,1.60195e-05,1.8848e-05,2.82844e-06,0.400014,0.4,-1.39378e-05,3.45726e-07,3.05644e-21,-3.45726e-07,9.40844e-09,5.61488e-20,-9.40844e-09,0.00525664,0.00532575,6.91107e-05,-0.00311509,-0.0029563,0.000158784,0.00516999,0.00521298,4.29918e-05,0.0998963,0.10032,0.000423671,-0.0140788,-0.0137161,0.000362698,-0.0256225,-0.0185776,0.0070449,-0.00142307,-4.10469e-05,0.00138203,0.00696891,-5.71332e-08,-0.00696897,0.000172863,-1.0975e-09,-0.000172864,0.0683543,-5.59231e-07,-0.0683549,
-0.119148,-0.119148,2.36138e-07,-0.145823,-0.145823,2.5753e-08,0.0608668,0.060867,1.86678e-07,-2.98608,-2.98608,2.56724e-06,-0.00286426,-0.00286374,5.24007e-07,1.33448,1.3345,2.11152e-05,1.30272e-05,1.59905e-05,2.96329e-06,0.400039,0.400014,-2.47777e-05,7.47804e-07,3.47109e-07,-4.00695e-07,7.04714e-08,2.82845e-07,2.12373e-07,0.00522492,0.0048567,-0.000368227,-0.00301142,-0.00365688,-0.000645458,0.00513622,0.0053527,0.000216473,0.0992683,0.100055,0.000786619,-0.0140638,-0.0146426,-0.000578803,-0.0290868,-0.0390259,-0.00993913,-0.00149615,-0.012601,-0.0111048,0.0124167,0.0139153,0.00149853,0.000201039,0.000345788,0.000144749,0.118727,0.136806,0.018079,
-0.119138,-0.119137,1.31178e-07,-0.145829,-0.145829,-6.24587e-07,0.060877,0.0608772,1.34129e-07,-2.98589,-2.98588,2.85023e-06,-0.00289226,-0.00289247,-2.17029e-07,1.33441,1.33442,1.01646e-05,1.02527e-05,1.01748e-05,-7.78878e-08,0.400072,0.400053,-1.9137e-05,1.11866e-06,1.09445e-06,-2.42146e-08,2.34543e-07,0.000136981,0.000136746,0.00520144,0.00515666,-4.47786e-05,-0.00280861,-0.00307849,-0.000269876,0.00511313,0.00508905,-2.40836e-05,0.0986684,0.0987971,0.000128666,-0.0139984,-0.0143538,-0.000355382,-0.0307699,-0.0350589,-0.00428898,-0.00138727,-0.00194311,-0.000555843,0.0165731,0.0178529,0.00127979,0.000185429,0.000229356,4.39273e-05,0.154228,0.169168,0.0149395,
-0.119127,-0.119127,1.51299e-07,-0.145834,-0.145835,-8.8403e-07,0.0608872,0.0608873,1.24611e-07,-2.98569,-2.98569,2.70112e-06,-0.00292019,-0.00292044,-2.46972e-07,1.33435,1.33436,6.497e-06,7.65432e-06,7.25527e-06,-3.99046e-07,0.400114,0.400097,-1.67793e-05,1.61313e-06,1.52142e-06,-9.17062e-08,5.69799e-07,0.000237831,0.000237262,0.00515963,0.0051843,2.46642e-05,-0.00257462,-0.00265755,-8.29315e-05,0.0050841,0.0050747,-9.39327e-06,0.0981138,0.0980251,-8.87093e-05,-0.0139682,-0.0139297,3.85153e-05,-0.0324002,-0.0332352,-0.000835031,-0.00129918,-0.000614852,0.000684331,0.0208479,0.0207203,-0.000127545,0.000247232,0.000169571,-7.76604e-05,0.190763,0.189728,-0.00103477,
-0.119117,-0.119117,1.54954e-07,-0.145838,-0.145839,-9.88225e-07,0.0608973,0.0608974,1.27832e-07,-2.98549,-2.98549,2.43795e-06,-0.00294805,-0.00294825,-1.97548e-07,1.33428,1.33429,4.4939e-06,5.28756e-06,4.87493e-06,-4.12631e-07,0.400161,0.400147,-1.45521e-05,2.20078e-06,1.98522e-06,-2.15558e-07,1.11941e-06,0.000309174,0.000308054,0.0051342,0.00502721,-0.000106985,-0.00231918,-0.00237827,-5.90945e-05,0.00505933,0.00512039,6.10621e-05,0.0976446,0.0975349,-0.000109631,-0.0139275,-0.0140216,-9.41456e-05,-0.0330849,-0.034819,-0.00173407,-0.00118338,-0.000616724,0.000566652,0.0238994,0.0251177,0.00121827,0.000293826,0.00030896,1.5134e-05,0.21382,0.227349,0.0135289,
-0.119107,-0.119107,1.10954e-07,-0.145843,-0.145844,-1.00344e-06,0.0609074,0.0609075,1.07565e-07,-2.9853,-2.9853,2.07565e-06,-0.00297587,-0.00297604,-1.68762e-07,1.33422,1.33422,1.85281e-06,3.09578e-06,2.68493e-06,-4.10853e-07,0.400214,0.400203,-1.02907e-05,2.85784e-06,2.6966e-06,-1.61239e-07,1.90539e-06,0.000382738,0.000380833,0.00511437,0.00513376,1.93869e-05,-0.00207702,-0.00204312,3.39048e-05,0.00504038,0.00500876,-3.16257e-05,0.0972704,0.0970694,-0.000200953,-0.0139116,-0.0137874,0.000124183,-0.0333942,-0.0337334,-0.000339223,-0.00109589,-0.000408401,0.000687491,0.0260471,0.0269503,0.00090322,0.000328532,0.000340415,1.18834e-05,0.227383,0.23691,0.00952777,
-0.119097,-0.119096,1.20003e-07,-0.145846,-0.145847,-9.15189e-07,0.0609174,0.0609175,1.01411e-07,-2.98511,-2.9851,1.75541e-06,-0.00300377,-0.00300378,-1.60499e-08,1.33415,1.33415,1.99558e-06,9.02826e-07,7.24993e-07,-1.77833e-07,0.400269,0.400261,-8.06672e-06,3.69355e-06,3.44695e-06,-2.46604e-07,0.00242383,0.000429601,-0.00199423,0.00508439,0.00512168,3.72916e-05,-0.00186525,-0.00179478,7.04748e-05,0.00501866,0.00499792,-2.07435e-05,0.0969607,0.0967843,-0.000176399,-0.0139473,-0.0137718,0.000175444,-0.0341501,-0.0334278,0.000722377,-0.00109648,-0.000548568,0.000547909,0.0279892,0.0281952,0.000206011,0.000417855,0.000363174,-5.46801e-05,0.238641,0.240959,0.00231798,
-0.119086,-0.119086,1.15541e-07,-0.14585,-0.14585,-8.2432e-07,0.0609274,0.0609275,9.77147e-08,-2.98491,-2.98491,1.54022e-06,-0.00303167,-0.00303165,1.95565e-08,1.33408,1.33408,2.15868e-06,-1.22238e-06,-1.29335e-06,-7.09659e-08,0.400328,0.400322,-6.43345e-06,4.64962e-06,4.35264e-06,-2.96979e-07,0.00291258,0.00288349,-2.90964e-05,0.00506671,0.00500266,-6.40512e-05,-0.00166817,-0.00164134,2.68309e-05,0.00500152,0.0050299,2.83826e-05,0.0966936,0.0966229,-7.06582e-05,-0.0139493,-0.0140196,-7.03076e-05,-0.0345433,-0.0351638,-0.000620537,-0.0010626,-0.00111547,-5.28662e-05,0.0293237,0.0299322,0.000608455,0.000478036,0.000507224,2.91881e-05,0.244375,0.249913,0.00553794,
-0.119076,-0.119076,8.29692e-08,-0.145853,-0.145853,-7.45233e-07,0.0609374,0.0609375,8.03705e-08,-2.98472,-2.98472,1.3629e-06,-0.00305956,-0.00305962,-6.03983e-08,1.33401,1.33401,1.11643e-06,-3.28737e-06,-3.41945e-06,-1.32075e-07,0.400389,0.400384,-4.34379e-06,5.68124e-06,5.48749e-06,-1.93752e-07,0.00340638,0.00339086,-1.5513e-05,0.005053,0.00506446,1.14606e-05,-0.00149558,-0.00144299,5.25864e-05,0.00498845,0.00496508,-2.33687e-05,0.0964721,0.0963691,-0.000102991,-0.013945,-0.013901,4.39645e-05,-0.0347782,-0.0348961,-0.000117838,-0.0010325,-0.000869635,0.000162862,0.0302224,0.0306595,0.000437158,0.000515807,0.000538283,2.24764e-05,0.246897,0.250117,0.00321932,
-0.119066,-0.119066,6.91005e-08,-0.145855,-0.145856,-6.45171e-07,0.0609474,0.0609474,6.63794e-08,-2.98453,-2.98453,1.19025e-06,-0.00308744,-0.00308751,-6.9565e-08,1.33394,1.33394,6.54946e-07,-5.31053e-06,-5.41659e-06,-1.06057e-07,0.40045,0.400447,-2.85362e-06,6.76224e-06,6.63952e-06,-1.22714e-07,0.00390195,0.00389613,-5.82635e-06,0.00504224,0.00505584,1.35972e-05,-0.00134823,-0.00129245,5.57803e-05,0.00497828,0.00495981,-1.84674e-05,0.0962909,0.0961913,-9.9586e-05,-0.0139424,-0.0138658,7.65914e-05,-0.0349408,-0.0348849,5.59112e-05,-0.00101158,-0.000882265,0.000129314,0.0308128,0.0311221,0.000309357,0.0005405,0.000553628,1.31278e-05,0.247787,0.249422,0.00163493,
-0.119056,-0.119056,5.91705e-08,-0.145858,-0.145858,-5.48627e-07,0.0609573,0.0609574,5.64929e-08,-2.98433,-2.98433,1.04384e-06,-0.00311532,-0.00311539,-6.47624e-08,1.33387,1.33387,4.56789e-07,-7.30653e-06,-7.37949e-06,-7.29545e-08,0.400513,0.400511,-1.81761e-06,7.87333e-06,7.79611e-06,-7.72206e-08,0.00439747,0.00439674,-7.2342e-07,0.00503348,0.00504645,1.29729e-05,-0.00122367,-0.00117255,5.11209e-05,0.00497014,0.00495538,-1.47602e-05,0.0961424,0.0960576,-8.47768e-05,-0.0139405,-0.0138667,7.3772e-05,-0.0350768,-0.0349661,0.000110683,-0.000998001,-0.000927337,7.06632e-05,0.031194,0.0314039,0.000209891,0.000555548,0.000565229,9.68095e-06,0.247756,0.248677,0.000920953,
-0.119046,-0.119046,5.23002e-08,-0.14586,-0.14586,-4.64085e-07,0.0609672,0.0609673,4.96705e-08,-2.98414,-2.98414,9.27623e-07,-0.00314319,-0.00314326,-6.6687e-08,1.3338,1.3338,3.85257e-07,-9.28529e-06,-9.33363e-06,-4.83404e-08,0.400575,0.400574,-1.11938e-06,9.00026e-06,8.95662e-06,-4.36441e-08,0.00489197,0.00489403,2.05976e-06,0.00502614,0.00503674,1.06041e-05,-0.00111839,-0.00107485,4.35381e-05,0.00496337,0.00495224,-1.11318e-05,0.0960191,0.0959513,-6.78442e-05,-0.013937,-0.0138747,6.22733e-05,-0.0352039,-0.0351004,0.000103428,-0.000989378,-0.000960325,2.90525e-05,0.0314356,0.0315757,0.000140127,0.000563463,0.000570618,7.15519e-06,0.247253,0.247725,0.000472279,
-0.119036,-0.119036,4.756e-08,-0.145862,-0.145862,-3.92915e-07,0.0609771,0.0609772,4.51288e-08,-2.98395,-2.98395,8.38209e-07,-0.00317106,-0.00317113,-7.57316e-08,1.33373,1.33373,3.61536e-07,-1.12536e-05,-1.12852e-05,-3.15736e-08,0.400639,0.400638,-6.58903e-07,1.01324e-05,1.01136e-05,-1.87365e-08,0.00538503,0.00538847,3.43962e-06,0.00501974,0.00502853,8.78986e-06,-0.00102924,-0.000993067,3.61691e-05,0.00495749,0.00494906,-8.42584e-06,0.0959151,0.0958621,-5.29949e-05,-0.0139305,-0.0138781,5.23746e-05,-0.0353283,-0.0352496,7.86719e-05,-0.000984175,-0.000981264,2.91119e-06,0.0315868,0.0316775,9.0722e-05,0.000566059,0.000571391,5.3323e-06,0.24653,0.246748,0.000217721,
-0.119026,-0.119026,4.44863e-08,-0.145864,-0.145864,-3.34488e-07,0.060987,0.0609871,4.22951e-08,-2.98376,-2.98376,7.69984e-07,-0.0031989,-0.00319899,-8.83999e-08,1.33366,1.33366,3.51958e-07,-1.32152e-05,-1.32363e-05,-2.11258e-08,0.400702,0.400702,-3.61936e-07,1.12619e-05,1.12616e-05,-2.7995e-10,0.00587651,0.00588052,4.00625e-06,0.00501392,0.00502144,7.51415e-06,-0.000953021,-0.000923938,2.90828e-05,0.00495213,0.00494569,-6.44024e-06,0.0958257,0.0957842,-4.15031e-05,-0.0139206,-0.0138741,4.64815e-05,-0.0354507,-0.0353993,5.1426e-05,-0.000980773,-0.000996809,-1.6036e-05,0.03168,0.0317382,5.8151e-05,0.000564741,0.000568658,3.91775e-06,0.245741,0.245806,6.48813e-05,
-0.119016,-0.119016,4.25891e-08,-0.145866,-0.145866,-2.8847e-07,0.0609969,0.060997,4.06227e-08,-2.98357,-2.98357,7.17202e-07,-0.00322671,-0.00322681,-1.01568e-07,1.33359,1.33359,3.41477e-07,-1.51711e-05,-1.51874e-05,-1.63092e-08,0.400765,0.400765,-1.71355e-07,1.23831e-05,1.23962e-05,1.31117e-08,0.00636647,0.00637055,4.08719e-06,0.00500846,0.00501504,6.58546e-06,-0.000886755,-0.000863821,2.29343e-05,0.00494707,0.00494204,-5.02916e-06,0.0957479,0.095715,-3.29733e-05,-0.0139075,-0.0138647,4.27721e-05,-0.0355701,-0.0355417,2.84426e-05,-0.000977975,-0.00100319,-2.52159e-05,0.031736,0.0317734,3.73776e-05,0.00056063,0.00056342,2.79033e-06,0.244977,0.244951,-2.55083e-05,
-0.119006,-0.119006,4.15064e-08,-0.145867,-0.145868,-2.53159e-07,0.0610068,0.0610069,3.97265e-08,-2.98338,-2.98338,6.75584e-07,-0.0032545,-0.00325461,-1.13797e-07,1.33351,1.33351,3.26374e-07,-1.71216e-05,-1.71366e-05,-1.49387e-08,0.400829,0.400829,-4.94998e-08,1.34923e-05,1.35148e-05,2.25624e-08,0.00685502,0.00685893,3.90158e-06,0.00500317,0.00500908,5.90449e-06,-0.000828083,-0.000809847,1.8236e-05,0.00494215,0.00493812,-4.02633e-06,0.0956793,0.0956527,-2.66196e-05,-0.0138915,-0.0138514,4.01346e-05,-0.0356853,-0.0356734,1.19393e-05,-0.000975254,-0.00100177,-2.65113e-05,0.0317684,0.0317921,2.369e-05,0.000554572,0.000556512,1.94004e-06,0.244279,0.24421,-6.85525e-05,
-0.118996,-0.118996,4.09962e-08,-0.145869,-0.145869,-2.26227e-07,0.0610167,0.0610167,3.93631e-08,-2.98319,-2.98318,6.42231e-07,-0.00328224,-0.00328237,-1.24644e-07,1.33344,1.33344,3.07721e-07,-1.90663e-05,-1.90815e-05,-1.51539e-08,0.400893,0.400893,2.72683e-08,1.45866e-05,1.46157e-05,2.90719e-08,0.00734235,0.00734595,3.59912e-06,0.00499795,0.00500335,5.40054e-06,-0.000775181,-0.000760444,1.47365e-05,0.00493726,0.00493395,-3.30984e-06,0.095618,0.0955962,-2.18783e-05,-0.0138729,-0.0138345,3.8426e-05,-0.0357956,-0.0357947,8.53032e-07,-0.000972344,-0.00099716,-2.48162e-05,0.031786,0.0318008,1.47702e-05,0.000547191,0.000548505,1.31444e-06,0.243664,0.24358,-8.39303e-05,
-0.118986,-0.118986,4.0873e-08,-0.14587,-0.145871,-2.0573e-07,0.0610266,0.0610266,3.93535e-08,-2.98299,-2.98299,6.15092e-07,-0.00330995,-0.00331008,-1.34028e-07,1.33337,1.33337,2.8723e-07,-2.10046e-05,-2.10207e-05,-1.61349e-08,0.400956,0.400956,7.48118e-08,1.56645e-05,1.56979e-05,3.343e-08,0.00782862,0.00783188,3.26577e-06,0.00499272,0.00499774,5.01748e-06,-0.000726662,-0.000714482,1.21805e-05,0.00493234,0.00492953,-2.80173e-06,0.0955628,0.0955446,-1.82888e-05,-0.0138522,-0.0138149,3.72927e-05,-0.0359007,-0.0359069,-6.20045e-06,-0.000969125,-0.000990912,-2.17869e-05,0.0317946,0.0318036,9.03695e-06,0.000538937,0.000539798,8.60682e-07,0.243132,0.243048,-8.39144e-05,
-0.118976,-0.118976,4.10018e-08,-0.145872,-0.145872,-1.9011e-07,0.0610364,0.0610365,3.95691e-08,-2.9828,-2.9828,5.92729e-07,-0.0033376,-0.00333775,-1.42056e-07,1.3333,1.3333,2.6643e-07,-2.29357e-05,-2.29531e-05,-1.74223e-08,0.40102,0.40102,1.03699e-07,1.67248e-05,1.6761e-05,3.62357e-08,0.00831397,0.00831692,2.94801e-06,0.00498743,0.00499215,4.71764e-06,-0.000681482,-0.00067114,1.03425e-05,0.00492733,0.00492489,-2.44259e-06,0.0955127,0.0954972,-1.55172e-05,-0.0138296,-0.0137931,3.65096e-05,-0.0360008,-0.0360113,-1.04371e-05,-0.000965564,-0.000983848,-1.82842e-05,0.0317977,0.0318032,5.41675e-06,0.000530134,0.00053067,5.35821e-07,0.242675,0.242599,-7.60258e-05,
-0.118966,-0.118966,4.12876e-08,-0.145873,-0.145873,-1.78147e-07,0.0610463,0.0610463,3.99209e-08,-2.98261,-2.98261,5.74128e-07,-0.00336522,-0.00336536,-1.48902e-07,1.33323,1.33323,2.4645e-07,-2.48591e-05,-2.48778e-05,-1.8751e-08,0.401083,0.401083,1.20914e-07,1.77668e-05,1.78047e-05,3.79362e-08,0.00879853,0.0088012,2.66833e-06,0.00498204,0.00498652,4.47648e-06,-0.000638861,-0.000629824,9.03683e-06,0.00492222,0.00492003,-2.18835e-06,0.0954667,0.0954534,-1.33313e-05,-0.0138053,-0.0137694,3.59509e-05,-0.0360962,-0.036109,-1.28002e-05,-0.000961674,-0.000976477,-1.48036e-05,0.0317977,0.0318009,3.18516e-06,0.000521012,0.000521318,3.06406e-07,0.242282,0.242217,-6.47491e-05,
-0.118956,-0.118956,4.16655e-08,-0.145874,-0.145874,-1.68903e-07,0.0610561,0.0610561,4.03486e-08,-2.98242,-2.98242,5.58561e-07,-0.00339277,-0.00339293,-1.54732e-07,1.33315,1.33315,2.28017e-07,-2.6774e-05,-2.6794e-05,-1.99742e-08,0.401147,0.401147,1.31026e-07,1.87903e-05,1.88291e-05,3.88609e-08,0.00928241,0.00928485,2.43516e-06,0.00497655,0.00498083,4.27759e-06,-0.000598223,-0.000590106,8.11725e-06,0.00491699,0.00491498,-2.00717e-06,0.0954242,0.0954127,-1.15723e-05,-0.0137798,-0.0137442,3.55453e-05,-0.0361872,-0.0362012,-1.39757e-05,-0.000957493,-0.000969113,-1.16208e-05,0.0317958,0.0317977,1.85598e-06,0.000511728,0.000511875,1.4684e-07,0.241941,0.241888,-5.26583e-05,
-0.118946,-0.118946,4.20915e-08,-0.145875,-0.145876,-1.61668e-07,0.0610659,0.061066,4.08119e-08,-2.98223,-2.98223,5.4549e-07,-0.00342028,-0.00342044,-1.59694e-07,1.33308,1.33308,2.11528e-07,-2.86802e-05,-2.87012e-05,-2.10183e-08,0.401211,0.401211,1.36987e-07,1.9795e-05,1.98343e-05,3.92497e-08,0.0097657,0.00976795,2.24899e-06,0.00497094,0.00497505,4.10956e-06,-0.000559143,-0.000551671,7.47171e-06,0.00491164,0.00490976,-1.87659e-06,0.0953847,0.0953746,-1.01327e-05,-0.013753,-0.0137178,3.52503e-05,-0.0362745,-0.0362889,-1.444e-05,-0.000953071,-0.000961945,-8.87337e-06,0.0317928,0.0317939,1.10462e-06,0.000502392,0.000502429,3.77847e-08,0.241641,0.241599,-4.1145e-05,
-0.118936,-0.118936,5.53376e-08,-0.145876,-0.145877,-1.54404e-07,0.0610757,0.0610758,4.85161e-08,-2.98204,-2.98204,5.35749e-07,-0.00344773,-0.0034479,-1.64955e-07,1.33301,1.33301,1.99334e-07,-3.05709e-05,-3.0599e-05,-2.80303e-08,0.401274,0.401274,1.32442e-07,2.08331e-05,2.08205e-05,-1.26516e-08,0.0102485,0.0102505,2.01489e-06,0.00495881,0.00496918,1.03649e-05,-0.000522061,-0.000514292,7.76907e-06,0.00490254,0.00490438,1.8349e-06,0.0953471,0.0953387,-8.31735e-06,-0.0137247,-0.0136902,3.45132e-05,-0.0363596,-0.036373,-1.34134e-05,-0.000945375,-0.000955074,-9.69958e-06,0.0317932,0.0317898,-3.39942e-06,0.00051904,0.00049304,-2.59993e-05,0.241416,0.241339,-7.66087e-05,
-0.118926,-0.118926,6.38677e-08,-0.145877,-0.145878,-1.48623e-07,0.0610855,0.0610856,5.65227e-08,-2.98185,-2.98185,5.2755e-07,-0.00347512,-0.00347529,-1.74006e-07,1.33294,1.33294,1.88159e-07,-3.24504e-05,-3.24808e-05,-3.0386e-08,0.401338,0.401338,1.27015e-07,2.19058e-05,2.18401e-05,-6.57043e-08,0.010731,0.0107328,1.82222e-06,0.0049489,0.00492774,-2.11607e-05,-0.000485801,-0.000479862,5.9387e-06,0.00489316,0.00490998,1.68185e-05,0.0953116,0.0953042,-7.41163e-06,-0.0136934,-0.0136751,1.82592e-05,-0.0364415,-0.0364595,-1.80382e-05,-0.000939754,-0.000911441,2.83121e-05,0.0317929,0.0317935,6.50693e-07,0.000536315,0.000535712,-6.03099e-07,0.241211,0.241191,-2.04853e-05,
-0.118917,-0.118917,5.77238e-08,-0.145878,-0.145878,-1.45404e-07,0.0610953,0.0610953,5.58209e-08,-2.98166,-2.98166,5.19285e-07,-0.00350244,-0.00350262,-1.82062e-07,1.33286,1.33286,1.76478e-07,-3.43192e-05,-3.43449e-05,-2.5756e-08,0.401401,0.401401,1.29736e-07,2.30119e-05,2.29461e-05,-6.58389e-08,0.011213,0.0112147,1.75777e-06,0.00493983,0.00493889,-9.38448e-07,-0.000450258,-0.000444238,6.02086e-06,0.0048844,0.004883,-1.40216e-06,0.095278,0.0952707,-7.29094e-06,-0.013661,-0.0136311,2.99415e-05,-0.0365209,-0.036536,-1.50728e-05,-0.000934365,-0.000929873,4.49221e-06,0.0317919,0.0317926,6.90446e-07,0.000553066,0.000553616,5.50008e-07,0.241019,0.241007,-1.227e-05,
-0.118907,-0.118907,1.91856e-07,-0.145879,-0.145879,-3.20657e-08,0.061105,0.0611051,1.13486e-07,-2.98147,-2.98147,5.48396e-07,-0.00352999,-0.00352988,1.0907e-07,1.33278,1.33279,5.3915e-06,-3.62001e-05,-3.62024e-05,-2.24903e-09,0.401466,0.401465,-1.24378e-06,2.41191e-05,2.40868e-05,-3.22978e-08,0.0116748,0.0116964,2.15804e-05,0.00486283,0.00493258,6.97437e-05,-0.000470598,-0.000409396,6.1202e-05,0.00484617,0.00487365,2.74829e-05,0.0952279,0.0952393,1.14407e-05,-0.0137752,-0.0135953,0.000179912,-0.0392104,-0.0366127,0.00259769,-0.000940487,-0.000927807,1.26799e-05,0.0324784,0.0317909,-0.000687498,0.000553604,0.000569842,1.62385e-05,0.230901,0.240826,0.00992477,
-0.118897,-0.118897,2.65702e-07,-0.14588,-0.14588,-6.61508e-08,0.0611146,0.0611148,1.79538e-07,-2.98128,-2.98128,8.09496e-07,-0.00355739,-0.00355737,1.82999e-08,1.3327,1.33271,8.32611e-06,-3.80888e-05,-3.80727e-05,1.61168e-08,0.401532,0.40153,-2.40272e-06,2.52294e-05,2.52274e-05,-1.9085e-09,0.012122,0.0121577,3.56829e-05,0.00481655,0.00437705,-0.000439498,-0.000418165,-0.000629815,-0.00021165,0.00480425,0.00508437,0.000280122,0.0950636,0.0955169,0.000453364,-0.013698,-0.0148759,-0.00117797,-0.0407677,-0.044531,-0.00376324,-0.000944317,-0.00022399,0.000720326,0.0330596,0.0331666,0.000107025,0.000555129,0.000554141,-9.8816e-07,0.223616,0.220769,-0.00284757,
-0.118888,-0.118887,1.90346e-07,-0.145881,-0.145881,-2.87677e-07,0.0611241,0.0611243,1.76807e-07,-2.98109,-2.98109,1.09709e-06,-0.00358459,-0.00358499,-4.04722e-07,1.33262,1.33262,4.86467e-06,-3.99418e-05,-3.99735e-05,-3.17602e-08,0.401599,0.401597,-1.94804e-06,2.63273e-05,2.63388e-05,1.1511e-08,0.0125579,0.0125847,2.67771e-05,0.0047772,0.00469979,-7.74072e-05,-0.000327491,-0.000433314,-0.000105824,0.00476729,0.00478849,2.11972e-05,0.0948691,0.0950226,0.000153528,-0.0136001,-0.0138578,-0.000257705,-0.0417274,-0.0436035,-0.00187613,-0.000926503,-0.000833157,9.3346e-05,0.0335197,0.0336421,0.000122391,0.000548962,0.000556648,7.68608e-06,0.217942,0.21632,-0.00162184,
-0.118878,-0.118878,1.67014e-07,-0.145881,-0.145882,-3.98931e-07,0.0611336,0.0611337,1.5816e-07,-2.9809,-2.9809,1.14904e-06,-0.00361162,-0.00361204,-4.13775e-07,1.33254,1.33254,3.02134e-06,-4.17465e-05,-4.18341e-05,-8.76012e-08,0.401667,0.401666,-1.50929e-06,2.74046e-05,2.74397e-05,3.5066e-08,0.012984,0.013006,2.20568e-05,0.00474252,0.00471221,-3.03111e-05,-0.000219173,-0.000265691,-4.65176e-05,0.00473463,0.00473625,1.62274e-06,0.0946784,0.0947086,3.02067e-05,-0.0135181,-0.0135341,-1.60109e-05,-0.0423638,-0.0433206,-0.000956824,-0.000902334,-0.000807529,9.48042e-05,0.0338822,0.0339806,9.84333e-05,0.000538681,0.000542777,4.09611e-06,0.213008,0.212258,-0.000749444,
-0.118869,-0.118869,1.50022e-07,-0.145881,-0.145882,-4.46363e-07,0.061143,0.0611431,1.41716e-07,-2.98071,-2.98071,1.10785e-06,-0.00363853,-0.00363888,-3.40709e-07,1.33245,1.33245,2.02118e-06,-4.3502e-05,-4.3603e-05,-1.00994e-07,0.401735,0.401734,-1.14758e-06,2.84549e-05,2.85047e-05,4.97695e-08,0.0134012,0.0134207,1.94933e-05,0.0047116,0.00469604,-1.55618e-05,-0.000104531,-0.000118508,-1.39772e-05,0.00470584,0.00470183,-4.0056e-06,0.0945042,0.0944845,-1.96408e-05,-0.0134566,-0.0134083,4.82415e-05,-0.042824,-0.0433184,-0.000494465,-0.000877762,-0.000775317,0.000102445,0.0341619,0.0342454,8.34208e-05,0.000525134,0.000528379,3.24543e-06,0.208606,0.208066,-0.000539959,
-0.118859,-0.118859,1.34763e-07,-0.145881,-0.145882,-4.57411e-07,0.0611524,0.0611525,1.26574e-07,-2.98052,-2.98052,1.03612e-06,-0.00366536,-0.00366562,-2.68668e-07,1.33236,1.33236,1.47385e-06,-4.52158e-05,-4.53101e-05,-9.42949e-08,0.401804,0.401803,-8.57846e-07,2.94637e-05,2.95343e-05,7.06002e-08,0.0138104,0.013828,1.75718e-05,0.0046845,0.00467157,-1.29312e-05,9.55261e-06,1.38673e-05,4.31467e-06,0.0046807,0.00467632,-4.37816e-06,0.094349,0.0943138,-3.52364e-05,-0.0134105,-0.0133599,5.06279e-05,-0.0431873,-0.0434529,-0.000265619,-0.000856892,-0.000747352,0.000109541,0.03438,0.0344422,6.21774e-05,0.000504404,0.000511557,7.15277e-06,0.204624,0.204197,-0.00042712,
-0.11885,-0.11885,1.20156e-07,-0.145881,-0.145882,-4.4735e-07,0.0611617,0.0611618,1.12592e-07,-2.98033,-2.98033,9.61738e-07,-0.0036921,-0.00369232,-2.1848e-07,1.33228,1.33228,1.16826e-06,-4.68952e-05,-4.69746e-05,-7.94664e-08,0.401873,0.401873,-6.45766e-07,3.04147e-05,3.05159e-05,1.01188e-07,0.0142124,0.0142284,1.60533e-05,0.00466084,0.00465028,-1.05622e-05,0.000119391,0.000133001,1.36098e-05,0.00465885,0.00465393,-4.92032e-06,0.0942117,0.0941749,-3.67692e-05,-0.0133741,-0.0133323,4.17838e-05,-0.0434952,-0.0436518,-0.000156578,-0.000839701,-0.000748023,9.16785e-05,0.034554,0.0345984,4.43887e-05,0.000475507,0.000483634,8.12712e-06,0.200974,0.200637,-0.00033754,
-0.118841,-0.118841,1.07503e-07,-0.145881,-0.145881,-4.27387e-07,0.061171,0.0611711,1.00367e-07,-2.98014,-2.98014,8.94499e-07,-0.00371879,-0.00371898,-1.8851e-07,1.33219,1.33219,9.88213e-07,-4.8544e-05,-4.86122e-05,-6.8231e-08,0.401943,0.401942,-4.91746e-07,3.12951e-05,3.14253e-05,1.30215e-07,0.0146076,0.0146224,1.48131e-05,0.00464002,0.00463118,-8.83817e-06,0.000223705,0.000240974,1.72694e-05,0.00463979,0.00463528,-4.51122e-06,0.0940899,0.0940566,-3.326e-05,-0.013343,-0.0133101,3.28341e-05,-0.043769,-0.0438761,-0.000107056,-0.000824422,-0.000751896,7.25261e-05,0.0346953,0.0347283,3.30214e-05,0.00044019,0.000446555,6.36498e-06,0.197605,0.197318,-0.000287541,
-0.118832,-0.118831,1.50295e-07,-0.14588,-0.14588,-3.66656e-07,0.0611802,0.0611803,1.14537e-07,-2.97996,-2.97996,8.59586e-07,-0.00374543,-0.00374559,-1.61312e-07,1.3321,1.3321,2.88627e-06,-5.00073e-05,-5.02266e-05,-2.19349e-07,0.402013,0.402012,-1.31142e-06,3.21112e-05,3.22477e-05,1.36496e-07,0.0149852,0.0150103,2.51666e-05,0.00459493,0.00461323,1.82975e-05,0.000303375,0.000340577,3.72018e-05,0.00461083,0.00461976,8.93894e-06,0.0939698,0.093953,-1.67782e-05,-0.01332,-0.0132895,3.05746e-05,-0.0450264,-0.0441055,0.000920942,-0.000731645,-0.000744148,-1.25028e-05,0.0352794,0.034837,-0.000442418,0.000408069,0.000404811,-3.25765e-06,0.188771,0.19423,0.00545888,
-0.118822,-0.118822,1.70512e-07,-0.145879,-0.14588,-3.65853e-07,0.0611893,0.0611895,1.34298e-07,-2.97977,-2.97977,9.1716e-07,-0.00377191,-0.00377217,-2.56704e-07,1.33201,1.33201,3.7915e-06,-5.14198e-05,-5.16587e-05,-2.38878e-07,0.402085,0.402083,-1.98859e-06,3.28637e-05,3.29931e-05,1.29426e-07,0.0153491,0.0153811,3.20209e-05,0.00456386,0.0043877,-0.00017616,0.000407397,0.000341192,-6.62055e-05,0.0045818,0.00468728,0.000105483,0.093819,0.0939707,0.000151642,-0.0132412,-0.0136992,-0.000457968,-0.0457573,-0.0473495,-0.00159216,-0.000706261,0.000299945,0.00100621,0.0357613,0.0358648,0.000103461,0.000376229,0.000375872,-3.5747e-07,0.181945,0.179923,-0.00202234,
-0.118813,-0.118813,1.3431e-07,-0.145878,-0.145879,-4.32173e-07,0.0611985,0.0611986,1.27359e-07,-2.97958,-2.97958,9.73449e-07,-0.00379825,-0.00379861,-3.52477e-07,1.33191,1.33192,2.16903e-06,-5.27854e-05,-5.28858e-05,-1.00418e-07,0.402157,0.402156,-1.591e-06,3.35482e-05,3.36812e-05,1.32975e-07,0.0157023,0.0157273,2.50679e-05,0.00453684,0.00451375,-2.30879e-05,0.000520484,0.000500453,-2.00313e-05,0.00455625,0.004556,-2.56191e-07,0.0936704,0.0936957,2.5275e-05,-0.0131701,-0.0131966,-2.65029e-05,-0.0462039,-0.0469526,-0.000748636,-0.000682798,-0.000512806,0.000169992,0.0361474,0.0362443,9.68627e-05,0.00034227,0.000344317,2.04742e-06,0.176576,0.175109,-0.0014672,
-0.118804,-0.118804,1.16635e-07,-0.145877,-0.145877,-4.49832e-07,0.0612075,0.0612076,1.12292e-07,-2.97939,-2.97939,9.38175e-07,-0.00382449,-0.00382479,-3.01706e-07,1.33182,1.33182,1.27892e-06,-5.41109e-05,-5.42006e-05,-8.96946e-08,0.40223,0.402229,-1.19184e-06,3.41268e-05,3.43019e-05,1.75116e-07,0.0160454,0.0160668,2.14104e-05,0.00451457,0.004506,-8.56489e-06,0.000633581,0.000639039,5.45808e-06,0.00453472,0.00452757,-7.14971e-06,0.093537,0.0935145,-2.2466e-05,-0.0131165,-0.0130603,5.62444e-05,-0.0464901,-0.0468358,-0.000345758,-0.000662732,-0.000559842,0.000102891,0.0364303,0.0365341,0.000103787,0.000289288,0.000308233,1.8945e-05,0.171571,0.171199,-0.000371444,
-0.118795,-0.118795,1.0403e-07,-0.145875,-0.145876,-4.41185e-07,0.0612166,0.0612167,9.91849e-08,-2.97921,-2.97921,8.74083e-07,-0.00385064,-0.00385088,-2.41338e-07,1.33173,1.33173,8.02441e-07,-5.53944e-05,-5.5479e-05,-8.46465e-08,0.402303,0.402302,-8.69572e-07,3.4612e-05,3.48123e-05,2.00339e-07,0.0163806,0.0163992,1.86074e-05,0.00449381,0.00449721,3.3985e-06,0.00074257,0.000760732,1.81624e-05,0.00451569,0.00450449,-1.11975e-05,0.0934202,0.0933835,-3.6683e-05,-0.0130756,-0.0130082,6.7383e-05,-0.0466987,-0.0468267,-0.000128048,-0.00064176,-0.000574122,6.76382e-05,0.0366556,0.0367138,5.81761e-05,0.000242573,0.000236204,-6.36912e-06,0.167593,0.166557,-0.0010358,
-0.118786,-0.118786,9.67815e-08,-0.145874,-0.145874,-4.19898e-07,0.0612256,0.0612256,9.01366e-08,-2.97902,-2.97902,8.09319e-07,-0.00387672,-0.00387692,-2.01315e-07,1.33163,1.33164,5.60375e-07,-5.66414e-05,-5.67224e-05,-8.09715e-08,0.402377,0.402376,-6.65909e-07,3.50134e-05,3.51913e-05,1.779e-07,0.0167095,0.0167244,1.49574e-05,0.00447512,0.00447042,-4.69715e-06,0.000845233,0.000868958,2.37257e-05,0.00449864,0.00449502,-3.61756e-06,0.0933189,0.0932821,-3.67807e-05,-0.013042,-0.0129915,5.04386e-05,-0.0468641,-0.0469087,-4.46456e-05,-0.000623488,-0.000532339,9.11492e-05,0.036837,0.0368812,4.41849e-05,0.00020073,0.000195773,-4.95638e-06,0.164406,0.16361,-0.000795997,
-0.118777,-0.118777,8.86577e-08,-0.145872,-0.145872,-3.90729e-07,0.0612345,0.0612346,8.2538e-08,-2.97883,-2.97883,7.52328e-07,-0.00390275,-0.00390292,-1.77878e-07,1.33154,1.33154,4.28525e-07,-5.78617e-05,-5.79273e-05,-6.56291e-08,0.402451,0.40245,-5.26673e-07,3.53358e-05,3.54992e-05,1.63402e-07,0.0170333,0.0170453,1.20453e-05,0.0044584,0.0044537,-4.70094e-06,0.00093983,0.000966281,2.64505e-05,0.00448338,0.00448025,-3.1334e-06,0.0932305,0.093198,-3.25169e-05,-0.0130127,-0.0129713,4.13228e-05,-0.047007,-0.0470124,-5.35713e-06,-0.000610156,-0.000527291,8.28647e-05,0.036993,0.0370188,2.58116e-05,0.00016119,0.000158812,-2.37815e-06,0.161879,0.161214,-0.000665293,
-0.118769,-0.118769,8.1421e-08,-0.14587,-0.14587,-3.57793e-07,0.0612435,0.0612435,7.58353e-08,-2.97865,-2.97865,7.05376e-07,-0.00392872,-0.00392888,-1.63448e-07,1.33145,1.33145,3.59332e-07,-5.90608e-05,-5.91111e-05,-5.02894e-08,0.402525,0.402525,-4.38271e-07,3.55804e-05,3.57378e-05,1.57343e-07,0.0173529,0.0173627,9.82592e-06,0.00444329,0.00443967,-3.62075e-06,0.0010262,0.00105209,2.58882e-05,0.00446966,0.00446662,-3.04502e-06,0.0931525,0.0931247,-2.77904e-05,-0.0129862,-0.0129483,3.78519e-05,-0.047138,-0.0471308,7.22573e-06,-0.000599537,-0.000549267,5.02697e-05,0.0371305,0.0371491,1.86478e-05,0.000122301,0.000121583,-7.18604e-07,0.159797,0.159348,-0.00044865,
-0.11876,-0.11876,7.5584e-08,-0.145868,-0.145868,-3.25436e-07,0.0612524,0.0612524,7.02348e-08,-2.97846,-2.97846,6.6687e-07,-0.00395464,-0.0039548,-1.54498e-07,1.33135,1.33135,3.21485e-07,-6.02416e-05,-6.02834e-05,-4.17897e-08,0.4026,0.402599,-3.64245e-07,3.57487e-05,3.59031e-05,1.54432e-07,0.0176687,0.0176773,8.58688e-06,0.00442946,0.00442591,-3.55032e-06,0.00110477,0.00112881,2.40393e-05,0.00445717,0.00445505,-2.12849e-06,0.0930832,0.0930601,-2.31295e-05,-0.0129613,-0.0129285,3.28451e-05,-0.0472623,-0.0472554,6.86807e-06,-0.000590439,-0.000555248,3.51912e-05,0.0372496,0.0372682,1.85624e-05,8.41406e-05,8.33467e-05,-7.93865e-07,0.157885,0.157711,-0.000173985,
-0.118751,-0.118751,7.04865e-08,-0.145865,-0.145866,-2.96439e-07,0.0612613,0.0612613,6.55185e-08,-2.97828,-2.97828,6.35982e-07,-0.00398052,-0.00398067,-1.49744e-07,1.33126,1.33126,2.97085e-07,-6.14076e-05,-6.1443e-05,-3.54285e-08,0.402674,0.402674,-3.03437e-07,3.58395e-05,3.59935e-05,1.53931e-07,0.0179813,0.0179889,7.58093e-06,0.00441688,0.00441273,-4.1499e-06,0.00117678,0.00119797,2.11853e-05,0.00444579,0.00444461,-1.18116e-06,0.0930206,0.0930019,-1.86406e-05,-0.0129372,-0.0129091,2.80835e-05,-0.0473814,-0.0473808,5.26087e-07,-0.000582986,-0.000553665,2.93209e-05,0.0373569,0.037369,1.20124e-05,4.54278e-05,4.5916e-05,4.88214e-07,0.156302,0.155971,-0.000331006,
-0.118742,-0.118742,6.59499e-08,-0.145863,-0.145863,-2.71372e-07,0.0612701,0.0612702,6.14453e-08,-2.97809,-2.97809,6.11469e-07,-0.00400634,-0.00400649,-1.47565e-07,1.33116,1.33116,2.78433e-07,-6.25603e-05,-6.25908e-05,-3.05021e-08,0.402749,0.402749,-2.56131e-07,3.5852e-05,3.60079e-05,1.55832e-07,0.0182912,0.0182977,6.47912e-06,0.00440529,0.00440198,-3.31467e-06,0.00124296,0.00126199,1.90337e-05,0.00443532,0.00443422,-1.1002e-06,0.0929634,0.0929479,-1.54803e-05,-0.0129134,-0.0128868,2.66049e-05,-0.0474965,-0.0475009,-4.33517e-06,-0.000576339,-0.00055727,1.90689e-05,0.0374526,0.0374644,1.17727e-05,6.23786e-06,6.65135e-06,4.13492e-07,0.154938,0.154716,-0.000222119,
-0.118733,-0.118733,6.23676e-08,-0.14586,-0.14586,-2.49113e-07,0.061279,0.061279,5.81349e-08,-2.9779,-2.9779,5.91604e-07,-0.00403212,-0.00403227,-1.46549e-07,1.33107,1.33107,2.6487e-07,-6.37009e-05,-6.37285e-05,-2.76341e-08,0.402824,0.402824,-2.0979e-07,3.57854e-05,3.59427e-05,1.57389e-07,0.0185987,0.0186045,5.75853e-06,0.00439449,0.00439146,-3.0302e-06,0.00130396,0.00132099,1.70329e-05,0.00442557,0.00442494,-6.27817e-07,0.0929106,0.0928977,-1.28856e-05,-0.0128897,-0.0128646,2.51316e-05,-0.047609,-0.0476177,-8.66545e-06,-0.000570308,-0.000555106,1.52018e-05,0.0375369,0.0375484,1.15156e-05,-3.33326e-05,-3.30147e-05,3.17927e-07,0.153712,0.153572,-0.000139766,
-0.118725,-0.118724,8.12161e-08,-0.145857,-0.145858,-2.30578e-07,0.0612878,0.0612879,6.6925e-08,-2.97772,-2.97772,5.85589e-07,-0.00405787,-0.004058,-1.30867e-07,1.33097,1.33097,6.27465e-07,-6.484e-05,-6.48558e-05,-1.58072e-08,0.4029,0.402899,-4.96752e-07,3.58188e-05,3.57975e-05,-2.12359e-08,0.0189082,0.0189092,9.64819e-07,0.00437345,0.00438139,7.93346e-06,0.00136098,0.00137558,1.4602e-05,0.00441069,0.00441623,5.54186e-06,0.0928563,0.0928506,-5.71613e-06,-0.0128737,-0.0128421,3.16258e-05,-0.0479057,-0.0477327,0.000172951,-0.000569564,-0.000552443,1.71212e-05,0.0377762,0.0376214,-0.000154877,1.671e-05,-7.29586e-05,-8.96686e-05,0.154743,0.152484,-0.00225852,
-0.118716,-0.118716,8.68114e-08,-0.145855,-0.145855,-2.23806e-07,0.0612966,0.0612967,7.42873e-08,-2.97753,-2.97753,5.94284e-07,-0.00408355,-0.0040837,-1.4765e-07,1.33087,1.33088,7.55302e-07,-6.59681e-05,-6.59829e-05,-1.48362e-08,0.402976,0.402975,-6.94785e-07,3.59007e-05,3.57524e-05,-1.48327e-07,0.0192185,0.0192163,-2.28088e-06,0.00435978,0.00430357,-5.62157e-05,0.0014187,0.00141819,-5.0763e-07,0.00439722,0.00443143,3.42066e-05,0.092799,0.0928189,1.98282e-05,-0.0128416,-0.0129048,-6.32442e-05,-0.0480831,-0.0483978,-0.000314697,-0.000564027,-0.000539745,2.42821e-05,0.0379604,0.0380159,5.55256e-05,4.09643e-05,6.68247e-05,2.58603e-05,0.155146,0.155775,0.000629159,
-0.118707,-0.118707,6.79484e-08,-0.145852,-0.145852,-2.20408e-07,0.0613054,0.0613054,6.70835e-08,-2.97735,-2.97735,5.9384e-07,-0.00410917,-0.00410935,-1.79743e-07,1.33078,1.33078,3.99699e-07,-6.70813e-05,-6.71095e-05,-2.81228e-08,0.403052,0.403052,-4.93774e-07,3.60039e-05,3.59344e-05,-6.95114e-08,0.0195288,0.0195287,-1.89305e-07,0.00434817,0.00434795,-2.25483e-07,0.00147413,0.00148267,8.54169e-06,0.00438592,0.00437799,-7.92148e-06,0.0927448,0.0927401,-4.79456e-06,-0.0128094,-0.0127912,1.82659e-05,-0.0482021,-0.0483292,-0.000127104,-0.000556619,-0.000548553,8.06637e-06,0.0380994,0.0381447,4.52936e-05,5.15961e-05,6.52541e-05,1.3658e-05,0.15513,0.155549,0.000419367,
-0.118698,-0.118698,6.1283e-08,-0.145849,-0.145849,-2.08905e-07,0.0613141,0.0613142,5.98617e-08,-2.97716,-2.97716,5.77888e-07,-0.00413473,-0.00413491,-1.73418e-07,1.33068,1.33068,2.29568e-07,-6.81801e-05,-6.82116e-05,-3.15011e-08,0.403128,0.403128,-3.29478e-07,3.61085e-05,3.60861e-05,-2.23782e-08,0.0198385,0.0198398,1.2873e-06,0.00433782,0.00433982,2.00287e-06,0.00152621,0.00153804,1.18295e-05,0.00437604,0.00437004,-6.00345e-06,0.0926955,0.0926827,-1.2764e-05,-0.0127804,-0.0127441,3.63616e-05,-0.0482945,-0.0483375,-4.3035e-05,-0.000549375,-0.000536779,1.25961e-05,0.0382016,0.0382387,3.71003e-05,5.22779e-05,6.22437e-05,9.96581e-06,0.154793,0.155114,0.000320533,
-0.11869,-0.11869,5.70071e-08,-0.145845,-0.145846,-1.94775e-07,0.0613229,0.0613229,5.50246e-08,-2.97698,-2.97698,5.58893e-07,-0.00416024,-0.0041604,-1.61463e-07,1.33059,1.33059,1.5529e-07,-6.92659e-05,-6.92955e-05,-2.95606e-08,0.403205,0.403205,-1.97271e-07,3.61998e-05,3.62119e-05,1.20632e-08,0.0201469,0.0201493,2.40719e-06,0.00432832,0.00432972,1.39978e-06,0.00157468,0.00158724,1.2561e-05,0.00436714,0.00436325,-3.88662e-06,0.0926507,0.0926369,-1.37826e-05,-0.0127542,-0.0127175,3.66916e-05,-0.0483765,-0.0483857,-9.25351e-06,-0.000542923,-0.000530041,1.28826e-05,0.0382747,0.0383039,2.91925e-05,4.56704e-05,5.29604e-05,7.29002e-06,0.154215,0.154456,0.000240381,
-0.118681,-0.118681,5.40447e-08,-0.145842,-0.145842,-1.80518e-07,0.0613316,0.0613316,5.17112e-08,-2.97679,-2.97679,5.41922e-07,-0.0041857,-0.00418585,-1.52451e-07,1.33049,1.33049,1.28677e-07,-7.03405e-05,-7.03668e-05,-2.63092e-08,0.403282,0.403282,-9.42157e-08,3.62672e-05,3.63045e-05,3.72668e-08,0.0204539,0.0204571,3.24441e-06,0.00431943,0.00431993,5.0149e-07,0.00161971,0.00163173,1.2014e-05,0.0043589,0.00435657,-2.3258e-06,0.0926097,0.0925975,-1.22637e-05,-0.0127297,-0.0126968,3.28682e-05,-0.0484558,-0.048455,7.15507e-07,-0.000537294,-0.000526573,1.07204e-05,0.0383254,0.0383478,2.2474e-05,3.37226e-05,3.90523e-05,5.32976e-06,0.153458,0.153637,0.000178717,
-0.118673,-0.118673,5.19904e-08,-0.145839,-0.145839,-1.67384e-07,0.0613403,0.0613403,4.94444e-08,-2.97661,-2.97661,5.28394e-07,-0.00421111,-0.00421126,-1.47246e-07,1.33039,1.33039,1.24333e-07,-7.14052e-05,-7.14285e-05,-2.33039e-08,0.403358,0.403358,-1.52614e-08,3.6303e-05,3.63587e-05,5.56748e-08,0.0207591,0.0207629,3.86637e-06,0.00431095,0.00431067,-2.8191e-07,0.0016617,0.00167261,1.09103e-05,0.00435111,0.00434995,-1.16831e-06,0.0925716,0.0925615,-1.01107e-05,-0.012706,-0.012677,2.90187e-05,-0.0485357,-0.0485356,1.12257e-07,-0.000532335,-0.000524314,8.02063e-06,0.038359,0.0383761,1.71003e-05,1.78765e-05,2.17556e-05,3.87911e-06,0.152567,0.1527,0.000132391,
-0.118664,-0.118664,5.06054e-08,-0.145835,-0.145836,-1.55895e-07,0.061349,0.061349,4.79327e-08,-2.97642,-2.97642,5.18233e-07,-0.00423648,-0.00423662,-1.44813e-07,1.33029,1.33029,1.29132e-07,-7.24609e-05,-7.24819e-05,-2.095e-08,0.403435,0.403435,4.46879e-08,3.63014e-05,3.63704e-05,6.9041e-08,0.0210623,0.0210666,4.32707e-06,0.00430273,0.00430184,-8.89738e-07,0.00170107,0.00171071,9.64454e-06,0.00434362,0.00434331,-3.0881e-07,0.0925357,0.0925276,-8.08807e-06,-0.0126826,-0.0126565,2.61196e-05,-0.0486176,-0.0486221,-4.53256e-06,-0.000527873,-0.000522294,5.57915e-06,0.0383798,0.0383928,1.29385e-05,-7.93853e-07,2.005e-06,2.79885e-06,0.151577,0.151675,9.78308e-05,
-0.118655,-0.118655,4.99756e-08,-0.145832,-0.145832,-1.45763e-07,0.0613576,0.0613577,4.71051e-08,-2.97624,-2.97624,5.10627e-07,-0.0042618,-0.00426194,-1.4424e-07,1.3302,1.3302,1.40223e-07,-7.35071e-05,-7.35277e-05,-2.06237e-08,0.403512,0.403512,9.54158e-08,3.62594e-05,3.63371e-05,7.76572e-08,0.021363,0.021368,4.97894e-06,0.00429455,0.00429334,-1.20828e-06,0.00173806,0.00174668,8.62338e-06,0.00433623,0.00433662,3.88903e-07,0.0925013,0.0924948,-6.55971e-06,-0.0126592,-0.0126351,2.40558e-05,-0.0487032,-0.0487115,-8.2676e-06,-0.00052307,-0.000520145,2.92476e-06,0.0383881,0.0384006,1.24634e-05,-2.0991e-05,-1.94945e-05,1.49649e-06,0.150358,0.150586,0.000227762,
-0.118647,-0.118647,4.93938e-08,-0.145828,-0.145829,-1.37865e-07,0.0613663,0.0613663,4.65678e-08,-2.97605,-2.97605,5.05601e-07,-0.00428707,-0.00428721,-1.44402e-07,1.3301,1.3301,1.48007e-07,-7.45467e-05,-7.45649e-05,-1.82043e-08,0.403589,0.403589,1.2882e-07,3.61733e-05,3.62577e-05,8.4357e-08,0.0216616,0.0216668,5.19491e-06,0.00428661,0.00428415,-2.45478e-06,0.00177355,0.00178046,6.90629e-06,0.00432899,0.00433016,1.16423e-06,0.0924678,0.0924632,-4.63673e-06,-0.0126357,-0.0126143,2.14033e-05,-0.0487891,-0.048808,-1.88984e-05,-0.000519808,-0.000510306,9.50194e-06,0.0383922,0.0383965,4.26278e-06,-4.30547e-05,-4.12216e-05,1.83314e-06,0.149256,0.149136,-0.000119921,
-0.118638,-0.118638,4.85865e-08,-0.145825,-0.145825,-1.32192e-07,0.0613749,0.061375,4.59839e-08,-2.97587,-2.97587,5.0245e-07,-0.00431229,-0.00431244,-1.4431e-07,1.33,1.33,1.4678e-07,-7.55801e-05,-7.55949e-05,-1.47475e-08,0.403666,0.403666,1.44229e-07,3.60403e-05,3.61311e-05,9.0812e-08,0.0219581,0.0219629,4.78164e-06,0.00427881,0.00427718,-1.63062e-06,0.00180778,0.00181401,6.23421e-06,0.00432189,0.00432259,7.02886e-07,0.092435,0.0924306,-4.33218e-06,-0.0126123,-0.012589,2.32827e-05,-0.0488744,-0.0488957,-2.13783e-05,-0.000516729,-0.000520669,-3.94002e-06,0.0383928,0.0383963,3.43313e-06,-6.65272e-05,-6.51547e-05,1.37255e-06,0.148241,0.148153,-8.79476e-05,
-0.11863,-0.11863,4.76753e-08,-0.145821,-0.145821,-1.22833e-07,0.0613836,0.0613836,4.51602e-08,-2.97568,-2.97568,4.96027e-07,-0.00433747,-0.00433761,-1.45507e-07,1.3299,1.3299,1.69735e-07,-7.65937e-05,-7.66218e-05,-2.80715e-08,0.403742,0.403742,2.42734e-07,3.58326e-05,3.59538e-05,1.21165e-07,0.0222486,0.0222572,8.58836e-06,0.00427131,0.00426955,-1.76305e-06,0.00183865,0.00184663,7.9818e-06,0.00431504,0.00431566,6.2158e-07,0.0924046,0.0923986,-5.98254e-06,-0.0125881,-0.0125655,2.25941e-05,-0.0489719,-0.0489811,-9.14237e-06,-0.000506799,-0.000518992,-1.21925e-05,0.0383476,0.0383934,4.58019e-05,-0.000103817,-9.00393e-05,1.37778e-05,0.145234,0.147224,0.00199032,
-0.118621,-0.118621,4.84534e-08,-0.145817,-0.145818,-1.16218e-07,0.0613922,0.0613922,4.53238e-08,-2.9755,-2.9755,4.93337e-07,-0.0043626,-0.00436274,-1.46827e-07,1.32981,1.32981,2.05235e-07,-7.76021e-05,-7.76292e-05,-2.70524e-08,0.403819,0.403819,3.06965e-07,3.55633e-05,3.5699e-05,1.35702e-07,0.0225345,0.0225457,1.11535e-05,0.00426312,0.00426106,-2.05235e-06,0.00186962,0.00187274,3.12142e-06,0.00430784,0.00430937,1.52579e-06,0.0923731,0.0923738,7.0811e-07,-0.012564,-0.0125536,1.03451e-05,-0.0490751,-0.049109,-3.38596e-05,-0.000504197,-0.00044372,6.04762e-05,0.0383159,0.0383023,-1.36091e-05,-0.00013466,-0.000141174,-6.51344e-06,0.142925,0.142222,-0.000703618,
-0.118613,-0.118613,5.0269e-08,-0.145814,-0.145814,-1.16676e-07,0.0614008,0.0614008,4.6614e-08,-2.97531,-2.97531,4.97428e-07,-0.00438768,-0.00438782,-1.46838e-07,1.32971,1.32971,2.12481e-07,-7.86066e-05,-7.86177e-05,-1.11307e-08,0.403895,0.403896,2.5868e-07,3.5242e-05,3.5355e-05,1.13059e-07,0.0228169,0.0228255,8.66418e-06,0.00425469,0.00425028,-4.40969e-06,0.00190079,0.00190341,2.61957e-06,0.00430034,0.0043041,3.76559e-06,0.0923406,0.0923406,6.68311e-08,-0.0125398,-0.0125214,1.83858e-05,-0.0491765,-0.0492204,-4.39076e-05,-0.000502237,-0.000506485,-4.24801e-06,0.0382948,0.0382842,-1.06508e-05,-0.000160677,-0.000165558,-4.88046e-06,0.141159,0.140613,-0.000545618,
-0.118604,-0.118604,5.07997e-08,-0.14581,-0.14581,-1.17208e-07,0.0614094,0.0614094,4.74442e-08,-2.97513,-2.97513,5.00096e-07,-0.00441271,-0.00441285,-1.46936e-07,1.32961,1.32961,1.98075e-07,-7.96068e-05,-7.9617e-05,-1.02428e-08,0.403972,0.403972,2.22e-07,3.48761e-05,3.49719e-05,9.57599e-08,0.0230966,0.0231033,6.7393e-06,0.00424621,0.00424229,-3.91555e-06,0.00193209,0.00193486,2.77327e-06,0.0042927,0.00429566,2.95161e-06,0.0923076,0.0923065,-1.10493e-06,-0.0125155,-0.0124954,2.01646e-05,-0.0492727,-0.0493168,-4.41126e-05,-0.000500076,-0.000511341,-1.12651e-05,0.0382815,0.0382737,-7.77888e-06,-0.000182914,-0.000186739,-3.82517e-06,0.13981,0.13939,-0.000420313,
-0.118596,-0.118596,5.07896e-08,-0.145806,-0.145806,-1.17324e-07,0.0614179,0.061418,4.77109e-08,-2.97494,-2.97494,5.00874e-07,-0.00443769,-0.00443784,-1.46841e-07,1.32951,1.32951,1.74756e-07,-8.06021e-05,-8.06132e-05,-1.11455e-08,0.404049,0.404049,1.95851e-07,3.44718e-05,3.45539e-05,8.2146e-08,0.0233742,0.0233794,5.25932e-06,0.00423777,0.0042345,-3.27431e-06,0.00196338,0.00196655,3.17194e-06,0.00428505,0.00428725,2.19725e-06,0.0922747,0.0922722,-2.4424e-06,-0.0124913,-0.0124695,2.18223e-05,-0.0493626,-0.0494021,-3.94895e-05,-0.00049766,-0.000508893,-1.12327e-05,0.0382735,0.0382681,-5.365e-06,-0.000202161,-0.000205188,-3.02702e-06,0.138781,0.138459,-0.000322317,
-0.118587,-0.118587,5.04482e-08,-0.145802,-0.145802,-1.16794e-07,0.0614265,0.0614265,4.76079e-08,-2.97476,-2.97476,5e-07,-0.00446262,-0.00446277,-1.46446e-07,1.32941,1.32941,1.50104e-07,-8.15923e-05,-8.16042e-05,-1.18977e-08,0.404125,0.404125,1.77404e-07,3.40339e-05,3.41051e-05,7.119e-08,0.0236502,0.0236543,4.1225e-06,0.00422944,0.00422672,-2.71988e-06,0.00199448,0.00199813,3.65153e-06,0.00427745,0.00427909,1.6389e-06,0.0922421,0.0922385,-3.57866e-06,-0.0124672,-0.012444,2.31956e-05,-0.0494467,-0.0494797,-3.29957e-05,-0.000495117,-0.000505502,-1.03843e-05,0.0382693,0.0382654,-3.91264e-06,-0.000218952,-0.00022144,-2.48797e-06,0.137999,0.137751,-0.000248103,
-0.118579,-0.118579,4.99139e-08,-0.145798,-0.145798,-1.15609e-07,0.061435,0.0614351,4.72717e-08,-2.97457,-2.97457,4.97948e-07,-0.00448751,-0.00448766,-1.45755e-07,1.32931,1.32931,1.27538e-07,-8.25774e-05,-8.25896e-05,-1.2213e-08,0.404202,0.404202,1.642e-07,3.35662e-05,3.36286e-05,6.24807e-08,0.0239251,0.0239283,3.24735e-06,0.00422126,0.00421907,-2.18246e-06,0.00202524,0.00202927,4.03455e-06,0.00426996,0.00427114,1.17895e-06,0.0922101,0.0922057,-4.40568e-06,-0.0124434,-0.0124189,2.44733e-05,-0.0495255,-0.0495527,-2.71963e-05,-0.000492539,-0.000502779,-1.02397e-05,0.0382679,0.0382652,-2.73456e-06,-0.000233873,-0.00023577,-1.89777e-06,0.137407,0.137216,-0.000191005,
-0.11857,-0.11857,4.92782e-08,-0.145794,-0.145794,-1.1372e-07,0.0614436,0.0614436,4.67966e-08,-2.97439,-2.97439,4.95296e-07,-0.00451235,-0.00451249,-1.44613e-07,1.32921,1.32921,1.10176e-07,-8.3558e-05,-8.35696e-05,-1.15582e-08,0.404278,0.404278,1.51951e-07,3.30708e-05,3.31273e-05,5.64422e-08,0.0241991,0.0242016,2.55583e-06,0.00421323,0.00421142,-1.8087e-06,0.00205545,0.00205987,4.42201e-06,0.00426258,0.00426347,8.8946e-07,0.0921788,0.0921739,-4.87807e-06,-0.0124198,-0.0123944,2.53629e-05,-0.049601,-0.049622,-2.10406e-05,-0.000490318,-0.000500396,-1.00775e-05,0.0382699,0.0382664,-3.42812e-06,-0.00024767,-0.000248818,-1.14759e-06,0.136969,0.136813,-0.000155911,
-0.118562,-0.118562,4.85878e-08,-0.14579,-0.14579,-1.11396e-07,0.0614521,0.0614521,4.62404e-08,-2.97421,-2.97421,4.92439e-07,-0.00453714,-0.00453729,-1.43305e-07,1.32911,1.32911,9.62565e-08,-8.45344e-05,-8.45451e-05,-1.06951e-08,0.404355,0.404355,1.40607e-07,3.25493e-05,3.2602e-05,5.27053e-08,0.0244724,0.0244744,2.00621e-06,0.00420537,0.00420388,-1.49074e-06,0.00208511,0.00208956,4.45358e-06,0.00425535,0.00425601,6.62332e-07,0.0921482,0.0921431,-5.07947e-06,-0.0123965,-0.0123706,2.59211e-05,-0.0496729,-0.0496921,-1.91534e-05,-0.000488168,-0.000501345,-1.31769e-05,0.0382741,0.0382718,-2.28059e-06,-0.000260748,-0.000261491,-7.42417e-07,0.13665,0.136531,-0.000119775,
-0.118554,-0.118554,4.78953e-08,-0.145785,-0.145785,-1.09004e-07,0.0614606,0.0614606,4.56421e-08,-2.97402,-2.97402,4.89461e-07,-0.00456189,-0.00456203,-1.41943e-07,1.32901,1.32901,8.24945e-08,-8.55066e-05,-8.55169e-05,-1.03197e-08,0.404431,0.404431,1.32958e-07,3.20022e-05,3.20529e-05,5.06645e-08,0.0247453,0.0247469,1.58156e-06,0.00419768,0.00419642,-1.26189e-06,0.00211418,0.00211869,4.51402e-06,0.00424826,0.00424879,5.29424e-07,0.0921183,0.0921131,-5.25708e-06,-0.0123736,-0.0123473,2.62674e-05,-0.0497417,-0.0497583,-1.65577e-05,-0.00048613,-0.00049982,-1.36896e-05,0.03828,0.0382784,-1.57419e-06,-0.00027355,-0.000273847,-2.96859e-07,0.136424,0.136331,-9.3147e-05,
-0.118545,-0.118545,4.72072e-08,-0.145781,-0.145781,-1.06594e-07,0.0614691,0.0614691,4.50418e-08,-2.97384,-2.97384,4.86412e-07,-0.00458659,-0.00458673,-1.40763e-07,1.32891,1.32891,6.9321e-08,-8.64748e-05,-8.64849e-05,-1.01369e-08,0.404508,0.404508,1.2883e-07,3.143e-05,3.14796e-05,4.95928e-08,0.0250179,0.0250192,1.25873e-06,0.00419015,0.00418903,-1.12088e-06,0.00214269,0.0021472,4.50998e-06,0.00424131,0.00424178,4.69216e-07,0.0920892,0.0920838,-5.37251e-06,-0.0123508,-0.0123245,2.62783e-05,-0.0498072,-0.0498219,-1.46828e-05,-0.000484067,-0.00049864,-1.4573e-05,0.0382863,0.0382858,-5.15802e-07,-0.000286117,-0.000286373,-2.55626e-07,0.136266,0.136198,-6.86586e-05,
-0.118537,-0.118537,4.65367e-08,-0.145777,-0.145777,-1.0424e-07,0.0614775,0.0614776,4.44621e-08,-2.97365,-2.97365,4.83329e-07,-0.00461125,-0.00461139,-1.39975e-07,1.32881,1.32881,5.65727e-08,-8.74387e-05,-8.74489e-05,-1.02386e-08,0.404584,0.404585,1.28413e-07,3.0833e-05,3.08817e-05,4.86618e-08,0.0252903,0.0252913,1.0226e-06,0.00418277,0.00418185,-9.20177e-07,0.00217064,0.00217516,4.51978e-06,0.00423449,0.00423487,3.77486e-07,0.0920608,0.0920553,-5.47836e-06,-0.0123282,-0.0123018,2.64154e-05,-0.0498697,-0.0498822,-1.25017e-05,-0.000481975,-0.000496357,-1.43818e-05,0.0382923,0.0382926,2.86144e-07,-0.000298478,-0.000298704,-2.25871e-07,0.136158,0.136108,-4.96354e-05,
-0.118528,-0.118528,4.59155e-08,-0.145772,-0.145772,-1.01935e-07,0.061486,0.061486,4.3917e-08,-2.97347,-2.97347,4.80263e-07,-0.00463586,-0.004636,-1.39339e-07,1.32871,1.32871,4.4995e-08,-8.83985e-05,-8.84088e-05,-1.03151e-08,0.404661,0.404661,1.30757e-07,3.02117e-05,3.02595e-05,4.78356e-08,0.0255625,0.0255634,8.53497e-07,0.00417554,0.00417479,-7.49572e-07,0.00219805,0.00220257,4.51935e-06,0.0042278,0.00422812,3.17972e-07,0.0920331,0.0920276,-5.53548e-06,-0.0123058,-0.0122792,2.65697e-05,-0.0499296,-0.04994,-1.04466e-05,-0.00047987,-0.000494018,-1.41484e-05,0.0382975,0.0382984,8.67005e-07,-0.000310657,-0.000310859,-2.02702e-07,0.136084,0.136049,-3.50217e-05,
-0.11852,-0.11852,4.53485e-08,-0.145768,-0.145768,-9.9694e-08,0.0614944,0.0614945,4.34146e-08,-2.97329,-2.97328,4.77287e-07,-0.00466043,-0.00466056,-1.38778e-07,1.32861,1.32861,3.48133e-08,-8.9354e-05,-8.93643e-05,-1.03314e-08,0.404738,0.404738,1.35063e-07,2.95664e-05,2.96135e-05,4.70902e-08,0.0258346,0.0258354,7.35667e-07,0.00416844,0.00416782,-6.11709e-07,0.00222494,0.00222944,4.50057e-06,0.00422123,0.00422151,2.81736e-07,0.0920061,0.0920006,-5.5389e-06,-0.0122834,-0.0122567,2.66813e-05,-0.0499871,-0.0499958,-8.68312e-06,-0.000477765,-0.000491757,-1.39916e-05,0.0383014,0.0383027,1.26884e-06,-0.000322669,-0.000322854,-1.85144e-07,0.136034,0.13601,-2.39113e-05,
-0.118512,-0.118512,4.48338e-08,-0.145763,-0.145763,-9.75398e-08,0.0615028,0.0615029,4.2956e-08,-2.9731,-2.9731,4.74459e-07,-0.00468495,-0.00468509,-1.38271e-07,1.32851,1.32851,2.59985e-08,-9.03053e-05,-9.03156e-05,-1.02973e-08,0.404814,0.404814,1.40697e-07,2.88973e-05,2.89437e-05,4.64044e-08,0.0261067,0.0261073,6.56641e-07,0.00416145,0.00416095,-5.00852e-07,0.00225133,0.00225579,4.46307e-06,0.00421476,0.00421502,2.60264e-07,0.0919798,0.0919743,-5.49876e-06,-0.0122611,-0.0122344,2.67437e-05,-0.0500427,-0.0500499,-7.24134e-06,-0.000475672,-0.000489582,-1.39095e-05,0.0383038,0.0383053,1.53078e-06,-0.000334528,-0.000334701,-1.72548e-07,0.136,0.135984,-1.55583e-05,
-0.118503,-0.118503,4.43672e-08,-0.145759,-0.145759,-9.54934e-08,0.0615113,0.0615113,4.25389e-08,-2.97292,-2.97292,4.7182e-07,-0.00470943,-0.00470956,-1.37809e-07,1.32841,1.32841,1.84115e-08,-9.12525e-05,-9.12628e-05,-1.02284e-08,0.404891,0.404891,1.47165e-07,2.82048e-05,2.82506e-05,4.57602e-08,0.0263787,0.0263793,6.06631e-07,0.00415456,0.00415415,-4.10909e-07,0.00227724,0.00228165,4.41006e-06,0.00420838,0.00420862,2.4792e-07,0.0919541,0.0919487,-5.42875e-06,-0.012239,-0.0122122,2.67671e-05,-0.0500965,-0.0501026,-6.09237e-06,-0.000473598,-0.000487482,-1.3884e-05,0.0383044,0.0383061,1.68616e-06,-0.000346242,-0.000346406,-1.64169e-07,0.135974,0.135965,-9.36105e-06,
