DMackRus/acrobot/diffDyn.csv
Joint 0 dyn,Joint 0 lin,Joint 0 diff,Joint 1 dyn,Joint 1 lin,Joint 1 diff,Joint 2 dyn,Joint 2 lin,Joint 2 diff,Joint 3 dyn,Joint 3 lin,Joint 3 diff,Joint 4 dyn,Joint 4 lin,Joint 4 diff,Joint 5 dyn,Joint 5 lin,Joint 5 diff,Joint 6 dyn,Joint 6 lin,Joint 6 diff,Joint 0 vel dyn,Cube X dyn,Cube X lin,Cube X diff,Cube Y dyn,Cube Y lin,Cube Y diff,Cube rot dyn,Cube rot lin,Cube rot diff,Joint 0 vel lin,Joint 0 vel diff,Joint 1 vel dyn,Joint 1 vel lin,Joint 1 vel diff,Joint 2 vel dyn,Joint 2 vel lin,Joint 2 vel diff,Joint 3 vel dyn,Joint 3 vel lin,Joint 3 vel diff,Joint 4 vel dyn,Joint 4 vel lin,Joint 4 vel diff,Joint 5 vel dyn,Joint 5 vel lin,Joint 5 vel diff,Joint 6 vel dyn,Joint 6 vel lin,Joint 6 vel diff,Cube X  vel dyn,Cube X vel lin,Cube X vel diff,Cube Y vel dyn,Cube Y vel lin,Cube Y vel diff,Cube rot vel dyn,Cube rot vel lin,Cube rot vel diff
-0.12,-0.12,0,-0.147,-0.147,0,0.06,0.06,0,-3,-3,0,0,0,0,1.34,1.34,0,0,0,0,0.4,0.4,0,0,0,0,0,0,0,0,0,0,0,0,0,0,0,0,0,0,0,0,0,0,0,0,0,0,0,0,0,0,0,0,0,0,0,0,0,
-0.12001,-0.12,9.97075e-06,-0.14645,-0.147,-0.000549624,0.060009,0.06,-8.96967e-06,-3.00037,-3,0.00036928,-7.79136e-05,0,7.79136e-05,1.3398,1.34,0.000202277,-4.35431e-06,0,4.35431e-06,0.4,0.4,0,6.66134e-21,0,-6.66134e-21,0,0,0,-0.00111779,0.00106061,0.00217839,0.0806972,-0.0200406,-0.100738,0.00109806,-2.69234e-06,-0.00110075,-0.0558053,0.0424675,0.0982727,-0.0131658,-0.0242951,-0.0111294,-0.0503331,-0.060721,-0.0103879,-0.000320677,0.00469952,0.0050202,-2.77556e-19,2.2601e-17,2.28785e-17,9.71445e-19,-1.76096e-16,-1.77067e-16,-2.81307e-17,3.90275e-15,3.93089e-15,
-0.12001,-0.120012,-2.17221e-06,-0.146312,-0.146289,2.25292e-05,0.0600114,0.0600112,-2.37696e-07,-3.00041,-3.00048,-7.01206e-05,-0.000156533,-0.000104245,5.22882e-05,1.33955,1.3397,0.000150859,4.47703e-06,-4.99567e-06,-9.4727e-06,0.4,0.4,0,8.60423e-21,8.60423e-21,0,0,-5.62613e-20,-5.62613e-20,-3.16824e-05,0.000787927,0.00081961,0.0694326,0.0396727,-0.0297599,0.00121691,0.000573778,-0.000643127,-0.020745,-0.00291242,0.0178325,-0.0393099,-0.0371969,0.00211302,-0.125763,-0.116818,0.00894518,0.00441567,0.00527251,0.00085684,-9.71445e-19,-1.81419e-17,-1.71704e-17,9.71445e-19,4.2988e-17,4.20165e-17,7.03266e-18,3.95174e-16,3.88141e-16,
-0.120007,-0.12001,-3.31145e-06,-0.14619,-0.146173,1.75214e-05,0.0600163,0.0600138,-2.48179e-06,-3.00041,-3.00045,-4.50175e-05,-0.000239875,-0.000235153,4.72213e-06,1.33925,1.33929,4.30607e-05,8.85297e-06,1.33084e-05,4.45541e-06,0.4,0.4,0,1.38778e-21,1.05471e-20,9.15934e-21,0,1.40653e-20,1.40653e-20,0.00162404,0.00250327,0.000879233,0.0606719,0.0295822,-0.0310897,0.0024578,0.00180352,-0.000654279,0.0017638,0.0271157,0.0253519,-0.0416709,-0.038382,0.0032889,-0.147293,-0.138995,0.00829819,0.00218797,0.00262087,0.000432903,6.93889e-19,2.0975e-17,2.02811e-17,-3.60822e-18,7.37236e-17,7.73319e-17,-9.84573e-17,-1.67477e-15,-1.57632e-15,
-0.120001,-0.120004,-2.77402e-06,-0.146084,-0.146069,1.47321e-05,0.0600236,0.0600212,-2.362e-06,-3.00037,-3.0004,-3.2151e-05,-0.00031707,-0.000323217,-6.14702e-06,1.33896,1.33896,-1.3114e-06,1.10214e-05,1.32289e-05,2.20749e-06,0.4,0.4,0,-3.88578e-21,-5.82867e-21,-1.94289e-21,0,-1.96915e-19,-1.96915e-19,0.00301105,0.003588,0.000576945,0.0533059,0.0231989,-0.0301069,0.0036388,0.00268337,-0.000955434,0.0178393,0.0431995,0.0253602,-0.0385974,-0.0353475,0.00324998,-0.146637,-0.142299,0.00433822,0.00108423,0.00145907,0.000374847,5.55111e-19,-1.27293e-18,-1.82805e-18,-2.63678e-18,-7.37504e-18,-4.73826e-18,-7.03266e-17,6.83519e-15,6.90552e-15,
-0.119993,-0.119995,-2.03309e-06,-0.14599,-0.145977,1.29165e-05,0.0600327,0.0600309,-1.78252e-06,-3.00031,-3.00034,-2.47383e-05,-0.000387042,-0.000394265,-7.22331e-06,1.33868,1.33867,-1.86175e-05,1.24029e-05,1.31899e-05,7.86995e-07,0.4,0.4,0,-7.21645e-21,-9.15934e-21,-1.94289e-21,0,-1.40653e-19,-1.40653e-19,0.0040276,0.00430992,0.00028232,0.0468476,0.0181952,-0.0286525,0.00453006,0.0032955,-0.00123456,0.0302084,0.0540234,0.0238149,-0.0349858,-0.0322029,0.00278288,-0.137329,-0.137123,0.000205607,0.000690728,0.00103157,0.000340845,4.16334e-19,-2.999e-17,-3.04063e-17,-1.66533e-18,-9.72988e-18,-8.06454e-18,-7.03266e-17,-1.84089e-15,-1.77056e-15,
-0.119983,-0.119985,-1.41962e-06,-0.145908,-0.145896,1.15356e-05,0.060043,0.0600417,-1.23995e-06,-3.00023,-3.00025,-1.99701e-05,-0.000450934,-0.000457013,-6.07966e-06,1.33843,1.33841,-2.4227e-05,1.34903e-05,1.37843e-05,2.93992e-07,0.4,0.4,0,-9.71445e-21,-1.05471e-20,-8.32667e-22,0,-1.40653e-19,-1.40653e-19,0.00473741,0.00481324,7.58338e-05,0.0410798,0.0138064,-0.0272734,0.00515004,0.00372552,-0.00142452,0.0401935,0.0623849,0.0221914,-0.0319459,-0.0296458,0.00230016,-0.125215,-0.128477,-0.00326187,0.000543732,0.000862175,0.000318443,4.16334e-19,-1.28103e-17,-1.32266e-17,-1.249e-18,7.23045e-17,7.35535e-17,-4.92286e-17,-1.86724e-15,-1.81802e-15,
-0.119973,-0.119974,-9.72053e-07,-0.145836,-0.145826,1.03641e-05,0.0600541,0.0600533,-8.2872e-07,-3.00013,-3.00015,-1.66017e-05,-0.000510037,-0.000514825,-4.78834e-06,1.33821,1.33818,-2.48339e-05,1.44227e-05,1.45778e-05,1.55062e-07,0.4,0.4,0,-1.16573e-20,-1.22125e-20,-5.55111e-22,0,-9.84573e-20,-9.84573e-20,0.00522343,0.00518136,-4.20735e-05,0.0358978,0.00979345,-0.0261043,0.0055644,0.00403624,-0.00152816,0.0484944,0.0692992,0.0208048,-0.0295518,-0.0277197,0.00183211,-0.112798,-0.118807,-0.00600895,0.000466201,0.000782659,0.000316458,1.38778e-19,-4.23657e-17,-4.25045e-17,-9.71445e-19,1.29399e-16,1.30371e-16,-1.2326e-32,-1.37523e-15,-1.37523e-15,
-0.119962,-0.119962,-6.77283e-07,-0.145773,-0.145764,9.31492e-06,0.0600658,0.0600652,-5.55743e-07,-3.00002,-3.00004,-1.40544e-05,-0.000565461,-0.000569141,-3.68005e-06,1.33801,1.33798,-2.34098e-05,1.52527e-05,1.53551e-05,1.02427e-07,0.4,0.4,0,-1.36002e-20,-1.36002e-20,0,0,-2.46519e-35,-2.46519e-35,0.00556207,0.00543264,-0.000129436,0.0312403,0.00609184,-0.0251485,0.00584227,0.00423933,-0.00160294,0.0555215,0.0751894,0.0196679,-0.0277117,-0.0261609,0.00155086,-0.101093,-0.109285,-0.00819162,0.000414987,0.000718316,0.000303328,-1.38778e-19,3.18773e-17,3.20161e-17,-9.71445e-19,1.29543e-17,1.39257e-17,1.40653e-17,-4.76442e-15,-4.77848e-15,
-0.11995,-0.119951,-4.59234e-07,-0.145719,-0.145711,8.35107e-06,0.0600778,0.0600775,-3.5428e-07,-2.9999,-2.99991,-1.20211e-05,-0.000617869,-0.000620884,-3.01531e-06,1.33782,1.3378,-2.12503e-05,1.59692e-05,1.60827e-05,1.13502e-07,0.4,0.4,0,-1.55431e-20,-1.55431e-20,0,0,2.81307e-20,2.81307e-20,0.00579169,0.00561558,-0.000176115,0.0270648,0.00268146,-0.0243833,0.00601941,0.00437971,-0.0016397,0.0615321,0.0802848,0.0187527,-0.0262041,-0.0249262,0.00127789,-0.0904681,-0.100402,-0.00993342,0.000358236,0.000660214,0.000301978,-9.71445e-19,-1.09319e-17,-9.96044e-18,-9.71445e-19,-8.83252e-17,-8.73538e-17,5.62613e-17,-2.30859e-15,-2.36485e-15,
-0.119938,-0.119938,-3.05341e-07,-0.145673,-0.145665,7.46326e-06,0.0600901,0.0600898,-2.13766e-07,-2.99977,-2.99978,-1.03534e-05,-0.00066774,-0.000670277,-2.53658e-06,1.33766,1.33764,-1.8936e-05,1.65804e-05,1.66857e-05,1.05254e-07,0.4,0.4,0,-1.58207e-20,-1.7486e-20,-1.66533e-21,0,1.12523e-19,1.12523e-19,0.00594436,0.0057435,-0.00020086,0.0233332,-0.000441812,-0.023775,0.00612629,0.00446977,-0.00165652,0.0667088,0.0847202,0.0180114,-0.0249358,-0.0238885,0.00104728,-0.0810001,-0.0923478,-0.0113477,0.000305609,0.000607017,0.000301408,-6.93889e-19,1.03633e-17,1.10572e-17,-1.38778e-19,-1.25989e-16,-1.2585e-16,5.62613e-17,9.82022e-17,4.19409e-17,
-0.119926,-0.119926,-1.96133e-07,-0.145633,-0.145626,6.64842e-06,0.0601024,0.0601023,-1.15896e-07,-2.99962,-2.99963,-8.95725e-06,-0.000715428,-0.000717612,-2.18404e-06,1.33752,1.3375,-1.67154e-05,1.70976e-05,1.71916e-05,9.40306e-08,0.4,0.4,0,-1.66533e-20,-1.60982e-20,5.55111e-22,0,1.12523e-19,1.12523e-19,0.00604243,0.00583082,-0.000211605,0.020009,-0.00328435,-0.0232933,0.00618424,0.00452325,-0.00166099,0.0711874,0.0885946,0.0174072,-0.0238438,-0.0229936,0.000850231,-0.0726424,-0.0851537,-0.0125113,0.000258594,0.000559353,0.000300759,-1.38778e-19,-4.67397e-17,-4.66009e-17,-4.16334e-19,-2.19507e-16,-2.19091e-16,4.2196e-17,-1.64316e-15,-1.68535e-15,
-0.119914,-0.119914,-1.18172e-07,-0.145599,-0.145593,5.90503e-06,0.0601148,0.0601148,-4.7802e-08,-2.99947,-2.99948,-7.77284e-06,-0.000761203,-0.000763115,-1.91215e-06,1.33739,1.33737,-1.46829e-05,1.75327e-05,1.76148e-05,8.20649e-08,0.4,0.4,0,-1.58207e-20,-1.7486e-20,-1.66533e-21,0,8.4392e-20,8.4392e-20,0.00610151,0.00588805,-0.000213468,0.0170564,-0.00585627,-0.0229127,0.00620814,0.00455024,-0.0016579,0.0750738,0.0919853,0.0169114,-0.0228877,-0.0222069,0.000680766,-0.065301,-0.07878,-0.013479,0.000217562,0.000517345,0.000299783,-1.38778e-19,-8.01264e-17,-7.99876e-17,4.16334e-19,-4.12533e-17,-4.16697e-17,3.51633e-17,-2.79422e-15,-2.82938e-15,
-0.119902,-0.119902,-6.23708e-08,-0.14557,-0.145564,5.23112e-06,0.0601273,0.0601273,-6.71055e-10,-2.99932,-2.99932,-6.75926e-06,-0.000805287,-0.000806979,-1.69217e-06,1.33727,1.33726,-1.28641e-05,1.78974e-05,1.79678e-05,7.04411e-08,0.4,0.4,0,-1.60982e-20,-1.4988e-20,1.11022e-21,0,7.03266e-20,7.03266e-20,0.0061327,0.00592293,-0.000209774,0.0144409,-0.00817132,-0.0226122,0.00620848,0.00455817,-0.0016503,0.0784535,0.0949554,0.0165019,-0.0220416,-0.0215071,0.000534502,-0.0588689,-0.0731595,-0.0142906,0.000182341,0.000480819,0.000298478,1.38778e-19,7.98943e-17,7.97556e-17,-1.38778e-19,3.17301e-17,3.18689e-17,1.40653e-17,-2.38981e-15,-2.40387e-15,
-0.119889,-0.119889,-2.25164e-08,-0.145545,-0.145541,4.62371e-06,0.0601396,0.0601397,3.15416e-08,-2.99915,-2.99916,-5.88666e-06,-0.000847863,-0.00084937,-1.50712e-06,1.33716,1.33715,-1.1255e-05,1.82023e-05,1.82621e-05,5.98093e-08,0.4,0.4,0,-1.69309e-20,-1.63758e-20,5.55111e-22,0,2.81307e-20,2.81307e-20,0.00614396,0.00594125,-0.000202706,0.012129,-0.0102458,-0.0223748,0.00619271,0.00455255,-0.00164016,0.0813968,0.0975585,0.0161618,-0.0212881,-0.0208801,0.000408001,-0.0532414,-0.0682172,-0.0149758,0.000152436,0.000449354,0.000296917,4.16334e-19,4.48371e-18,4.06738e-18,-4.16334e-19,9.19052e-17,9.23216e-17,-7.03266e-18,-1.21729e-16,-1.14696e-16,
-0.119877,-0.119877,5.72068e-09,-0.145525,-0.145521,4.07896e-06,0.060152,0.060152,5.30425e-08,-2.99899,-2.99899,-5.13221e-06,-0.000889092,-0.000890439,-1.34714e-06,1.33707,1.33706,-9.83958e-06,1.84567e-05,1.85071e-05,5.04535e-08,0.4,0.4,0,-1.66533e-20,-1.77636e-20,-1.11022e-21,0,-1.40653e-20,-1.40653e-20,0.0061411,0.00594739,-0.000193704,0.0100895,-0.0120977,-0.0221872,0.00616618,0.00453745,-0.00162873,0.0839629,0.0998406,0.0158777,-0.0206145,-0.0203161,0.000298445,-0.0483216,-0.0638791,-0.0155575,0.00012721,0.000422396,0.000295186,1.38778e-19,-2.35548e-17,-2.36936e-17,1.38778e-19,8.52475e-17,8.51088e-17,2.1098e-17,2.40203e-15,2.38093e-15,
-0.119865,-0.119865,2.54222e-08,-0.145509,-0.145505,3.59241e-06,0.0601642,0.0601643,6.68111e-08,-2.99881,-2.99882,-4.47789e-06,-0.000929114,-0.000930321,-1.20642e-06,1.33698,1.33697,-8.59806e-06,1.86687e-05,1.87111e-05,4.24154e-08,0.4,0.4,0,-1.47105e-20,-1.63758e-20,-1.66533e-21,0,4.2196e-20,4.2196e-20,0.00612839,0.00594467,-0.000183718,0.00829334,-0.0137453,-0.0220386,0.00613278,0.00451594,-0.00161684,0.0862018,0.101841,0.0156395,-0.0200113,-0.0198078,0.00020347,-0.0440226,-0.060076,-0.0160534,0.000106002,0.00039936,0.000293358,4.16334e-19,-2.0535e-18,-2.46984e-18,9.71445e-19,-9.17541e-17,-9.27255e-17,-1.2326e-32,1.96718e-16,1.96718e-16,
-0.119853,-0.119853,3.88234e-08,-0.145495,-0.145492,3.15935e-06,0.0601764,0.0601765,7.49924e-08,-2.99864,-2.99864,-3.90904e-06,-0.000968055,-0.000969137,-1.0814e-06,1.3369,1.33689,-7.51051e-06,1.88451e-05,1.88807e-05,3.56077e-08,0.4,0.4,0,-1.44329e-20,-1.27676e-20,1.66533e-21,0,-2.46519e-35,-2.46519e-35,0.00610897,0.0059356,-0.000173372,0.00671366,-0.0152071,-0.0219208,0.00609528,0.00449029,-0.00160499,0.0881564,0.103595,0.015439,-0.0194706,-0.0193495,0.00012107,-0.0402673,-0.0567452,-0.0164779,8.8198e-05,0.000379686,0.000291488,4.16334e-19,8.40467e-17,8.36303e-17,1.38778e-19,4.24052e-17,4.22664e-17,-7.03266e-18,-1.14792e-15,-1.14089e-15,
-0.11984,-0.11984,4.75706e-08,-0.145485,-0.145482,2.77495e-06,0.0601886,0.0601886,7.91517e-08,-2.99846,-2.99846,-3.4136e-06,-0.00100603,-0.001007,-9.69745e-07,1.33682,1.33682,-6.55833e-06,1.89916e-05,1.90215e-05,2.9889e-08,0.4,0.4,0,-1.36002e-20,-1.41553e-20,-5.55111e-22,0,-1.40653e-20,-1.40653e-20,0.00608519,0.00592212,-0.000163073,0.00532619,-0.0165009,-0.021827,0.00605571,0.0044622,-0.0015935,0.0898632,0.105133,0.0152698,-0.0189857,-0.0189362,4.95333e-05,-0.0369882,-0.0538304,-0.0168422,7.32535e-05,0.000362867,0.000289614,4.16334e-19,5.25557e-19,1.09223e-19,4.16334e-19,1.93507e-16,1.93091e-16,-4.2196e-17,-4.99563e-16,-4.57367e-16,
-0.119828,-0.119828,5.28899e-08,-0.145476,-0.145474,2.43452e-06,0.0602006,0.0602007,8.0442e-08,-2.99828,-2.99828,-2.98146e-06,-0.00104313,-0.001044,-8.6978e-07,1.33675,1.33675,-5.72474e-06,1.9113e-05,1.91381e-05,2.51055e-08,0.4,0.4,0,-1.27676e-20,-1.27676e-20,0,0,-8.4392e-20,-8.4392e-20,0.00605874,0.00590567,-0.000153076,0.00410893,-0.0176434,-0.0217523,0.00601549,0.00443291,-0.00158258,0.0913539,0.10648,0.0151265,-0.0185508,-0.0185634,-1.26045e-05,-0.0341258,-0.0512815,-0.0171557,6.07007e-05,0.000348462,0.000287762,1.38778e-19,5.88634e-18,5.74756e-18,4.16334e-19,-4.01357e-17,-4.0552e-17,-3.51633e-17,2.80139e-15,2.83655e-15,
-0.119816,-0.119816,5.57012e-08,-0.14547,-0.145468,2.13357e-06,0.0602125,0.0602126,7.97176e-08,-2.99809,-2.99809,-2.60411e-06,-0.00107945,-0.00108023,-7.80222e-07,1.33669,1.33669,-4.99492e-06,1.92133e-05,1.92344e-05,2.11114e-08,0.4,0.4,0,-1.19349e-20,-1.19349e-20,0,0,-7.03266e-20,-7.03266e-20,0.00603089,0.00588736,-0.000143534,0.00304214,-0.0186504,-0.0216925,0.00597563,0.00440332,-0.00157231,0.0926559,0.107661,0.015005,-0.0181607,-0.0182273,-6.65992e-05,-0.0316284,-0.0490546,-0.0174262,5.0145e-05,0.000336094,0.000285949,-4.16334e-19,-2.67315e-17,-2.63151e-17,4.16334e-19,-2.3013e-16,-2.30547e-16,-2.1098e-17,-3.39687e-15,-3.37577e-15,
-0.119804,-0.119804,5.66974e-08,-0.145466,-0.145464,1.86793e-06,0.0602244,0.0602245,7.76127e-08,-2.9979,-2.9979,-2.2743e-06,-0.00111507,-0.00111577,-7.00007e-07,1.33663,1.33663,-4.35582e-06,1.92958e-05,1.93136e-05,1.77776e-08,0.4,0.4,0,-1.11022e-20,-1.11022e-20,0,0,-4.2196e-20,-4.2196e-20,0.00600254,0.00586801,-0.000134533,0.00210818,-0.0195364,-0.0216446,0.00593682,0.00437408,-0.00156274,0.0937931,0.108695,0.0149019,-0.0178107,-0.0179242,-0.000113529,-0.0294504,-0.0471105,-0.01766,4.12562e-05,0.00032544,0.000284184,-6.93889e-19,3.99297e-18,4.68686e-18,4.16334e-19,9.60343e-18,9.1871e-18,-1.2326e-32,-1.19347e-16,-1.19347e-16,
-0.119792,-0.119792,5.64015e-08,-0.145463,-0.145462,1.63372e-06,0.0602362,0.0602363,7.45979e-08,-2.99771,-2.99771,-1.98582e-06,-0.00115006,-0.00115069,-6.28214e-07,1.33658,1.33657,-3.79604e-06,1.93633e-05,1.93783e-05,1.49931e-08,0.4,0.4,0,-9.71445e-21,-1.02696e-20,-5.55111e-22,0,-2.46519e-35,-2.46519e-35,0.00597434,0.00584823,-0.000126112,0.00129132,-0.0203147,-0.021606,0.00589952,0.00434565,-0.00155387,0.094786,0.1096,0.0148142,-0.0174966,-0.0176509,-0.00015432,-0.0275524,-0.0454149,-0.0178625,3.37597e-05,0.000316233,0.000282473,-6.93889e-19,4.94365e-17,5.01304e-17,6.93889e-19,3.01215e-17,2.94276e-17,3.51633e-17,-1.43073e-15,-1.4659e-15,
-0.11978,-0.11978,5.52074e-08,-0.145462,-0.145461,1.42743e-06,0.0602479,0.060248,7.10208e-08,-2.99752,-2.99752,-1.73334e-06,-0.00118449,-0.00118506,-5.64021e-07,1.33653,1.33652,-3.30563e-06,1.94182e-05,1.94308e-05,1.26648e-08,0.4,0.4,0,-9.4369e-21,-8.32667e-21,1.11022e-21,0,7.03266e-20,7.03266e-20,0.00594674,0.00582846,-0.00011828,0.000577603,-0.0209972,-0.0215748,0.00586401,0.00431831,-0.0015457,0.0956527,0.110392,0.0147397,-0.0172146,-0.0174044,-0.000189771,-0.0258996,-0.0439377,-0.018038,2.74273e-05,0.000308245,0.000280817,-1.38778e-19,-3.72101e-18,-3.58223e-18,1.38778e-19,-1.77148e-17,-1.78536e-17,2.81307e-17,6.89991e-17,4.08685e-17,
-0.119769,-0.119769,5.34113e-08,-0.145462,-0.145461,1.24586e-06,0.0602596,0.0602597,6.71364e-08,-2.99733,-2.99733,-1.51226e-06,-0.00121842,-0.00121892,-5.06686e-07,1.33648,1.33647,-2.87592e-06,1.94623e-05,1.9473e-05,1.0715e-08,0.4,0.4,0,-8.04912e-21,-9.15934e-21,-1.11022e-21,0,5.62613e-20,5.62613e-20,0.00592003,0.00580901,-0.000111025,-4.53254e-05,-0.0215949,-0.0215496,0.00583044,0.00429226,-0.00153819,0.0964088,0.111085,0.0146763,-0.0169612,-0.0171818,-0.00022057,-0.0244616,-0.0426521,-0.0181905,2.20698e-05,0.000301287,0.000279217,-1.38778e-19,2.38074e-18,2.51952e-18,6.93889e-19,-7.34903e-17,-7.41841e-17,2.81307e-17,5.53653e-16,5.25523e-16,
-0.119757,-0.119757,5.12343e-08,-0.145464,-0.145462,1.08615e-06,0.0602712,0.0602713,6.31298e-08,-2.99713,-2.99714,-1.31859e-06,-0.00125188,-0.00125234,-4.55535e-07,1.33643,1.33643,-2.49932e-06,1.94974e-05,1.95065e-05,9.07958e-09,0.4,0.4,0,-8.32667e-21,-6.66134e-21,1.66533e-21,0,5.62613e-20,5.62613e-20,0.00589442,0.00578635,-0.000108066,-0.000588398,-0.0221132,-0.0215248,0.00579888,0.00426401,-0.00153487,0.0970681,0.11169,0.0146215,-0.0167335,-0.0169572,-0.000223738,-0.023212,-0.0415606,-0.0183486,1.753e-05,0.000289058,0.000271529,1.38778e-19,-2.16537e-17,-2.17924e-17,-1.38778e-19,2.75473e-17,2.76861e-17,2.81307e-17,6.55703e-16,6.27573e-16,
-0.119745,-0.119745,5.95761e-08,-0.145466,-0.145465,9.33072e-07,0.0602827,0.0602828,6.94368e-08,-2.99694,-2.99694,-1.14597e-06,-0.00128488,-0.00128535,-4.7216e-07,1.33639,1.33638,-2.09866e-06,1.95134e-05,1.95324e-05,1.90465e-08,0.4,0.4,0,-8.04912e-21,-8.60423e-21,-5.55111e-22,0,5.62613e-20,5.62613e-20,0.00586463,0.00576842,-9.62088e-05,-0.00105493,-0.0225689,-0.0215139,0.00576416,0.00424106,-0.0015231,0.0976411,0.112219,0.0145775,-0.0164974,-0.0167763,-0.00027889,-0.0221627,-0.0405961,-0.0184334,8.00673e-06,0.000284528,0.000276521,1.38778e-19,-6.81385e-17,-6.82773e-17,1.38778e-19,-1.18167e-16,-1.18306e-16,3.51633e-17,3.85734e-15,3.82217e-15,
-0.119733,-0.119733,5.48767e-08,-0.145469,-0.145468,8.10149e-07,0.0602942,0.0602942,6.35321e-08,-2.99674,-2.99674,-9.95799e-07,-0.00131748,-0.00131787,-3.9735e-07,1.33634,1.33634,-1.83134e-06,1.95263e-05,1.95294e-05,3.07109e-09,0.4,0.4,0,-7.21645e-21,-7.77156e-21,-5.55111e-22,0,7.03266e-20,7.03266e-20,0.00583719,0.00574741,-8.97861e-05,-0.00146001,-0.0229606,-0.0215006,0.00573239,0.00421581,-0.00151658,0.098139,0.112678,0.0145395,-0.0162987,-0.0165975,-0.000298777,-0.021247,-0.0397812,-0.0185343,6.47118e-06,0.000281555,0.000275084,1.38778e-19,-2.8898e-17,-2.90368e-17,4.16334e-19,8.36915e-17,8.32752e-17,2.81307e-17,-3.11766e-15,-3.14579e-15,
-0.119722,-0.119722,4.96761e-08,-0.145472,-0.145471,7.02607e-07,0.0603056,0.0603056,5.72003e-08,-2.99655,-2.99655,-8.64674e-07,-0.00134973,-0.00135007,-3.43808e-07,1.3363,1.3363,-1.59051e-06,1.95371e-05,1.95393e-05,2.20014e-09,0.4,0.4,0,-5.82867e-21,-6.38378e-21,-5.55111e-22,0,5.62613e-20,5.62613e-20,0.00581235,0.00572824,-8.41179e-05,-0.00181131,-0.0233009,-0.0214896,0.00570379,0.00419293,-0.00151086,0.0985713,0.113079,0.0145075,-0.0161268,-0.016443,-0.000316183,-0.0204517,-0.0390734,-0.0186216,5.37111e-06,0.000279068,0.000273697,-1.38778e-19,1.68532e-17,1.6992e-17,6.93889e-19,-6.46635e-17,-6.53574e-17,2.81307e-17,-1.60994e-15,-1.63807e-15,
-0.11971,-0.11971,4.46364e-08,-0.145476,-0.145476,6.0835e-07,0.0603169,0.060317,5.11396e-08,-2.99635,-2.99635,-7.50109e-07,-0.00138168,-0.00138198,-3.01297e-07,1.33626,1.33626,-1.37562e-06,1.95455e-05,1.95478e-05,2.30571e-09,0.4,0.4,0,-4.44089e-21,-4.44089e-21,0,0,5.62613e-20,5.62613e-20,0.00579003,0.00571093,-7.91081e-05,-0.00211549,-0.0235961,-0.0214806,0.00567822,0.0041724,-0.00150582,0.0989464,0.113427,0.0144807,-0.0159762,-0.0163073,-0.000331117,-0.0197639,-0.0384615,-0.0186976,4.21826e-06,0.000276577,0.000272359,-1.38778e-19,1.95372e-17,1.9676e-17,6.93889e-19,-7.9808e-17,-8.05019e-17,-1.2326e-32,-3.16703e-16,-3.16703e-16,
-0.119699,-0.119699,3.99716e-08,-0.145481,-0.145481,5.2566e-07,0.0603283,0.0603283,4.55718e-08,-2.99615,-2.99615,-6.49881e-07,-0.00141337,-0.00141363,-2.65939e-07,1.33622,1.33622,-1.18519e-06,1.95517e-05,1.95539e-05,2.25233e-09,0.4,0.4,0,-3.88578e-21,-3.05311e-21,8.32667e-22,0,-2.46519e-35,-2.46519e-35,0.00577005,0.00569538,-7.46734e-05,-0.00237832,-0.0238515,-0.0214732,0.00565544,0.00415406,-0.00150138,0.0992713,0.11373,0.0144584,-0.0158432,-0.016187,-0.000343796,-0.0191713,-0.0379349,-0.0187636,3.09209e-06,0.000274162,0.00027107,-2.40741e-35,2.08329e-17,2.08329e-17,2.77556e-19,-5.33886e-17,-5.36661e-17,-2.1098e-17,-3.576e-17,-1.4662e-17,
-0.119687,-0.119687,3.57465e-08,-0.145486,-0.145486,4.53085e-07,0.0603395,0.0603396,4.05521e-08,-2.99595,-2.99595,-5.62109e-07,-0.00144482,-0.00144505,-2.358e-07,1.33619,1.33619,-1.01713e-06,1.95558e-05,1.95579e-05,2.08232e-09,0.4,0.4,0,-4.16334e-21,-3.33067e-21,8.32667e-22,0,-4.2196e-20,-4.2196e-20,0.00575218,0.00568099,-7.11889e-05,-0.00260486,-0.024072,-0.0214671,0.00563516,0.00413744,-0.00149772,0.0995524,0.113992,0.0144399,-0.0157253,-0.0160797,-0.000354368,-0.0186628,-0.0374839,-0.0188212,2.05093e-06,0.000271775,0.000269724,-1.38778e-19,2.48073e-17,2.49461e-17,-1.38778e-19,-7.15354e-17,-7.13966e-17,-2.1098e-17,-2.22191e-15,-2.20081e-15,
-0.119676,-0.119676,3.19628e-08,-0.145492,-0.145492,3.89372e-07,0.0603508,0.0603508,3.60702e-08,-2.99575,-2.99575,-4.85194e-07,-0.00147606,-0.00147627,-2.09761e-07,1.33615,1.33615,-8.69203e-07,1.9558e-05,1.95599e-05,1.87139e-09,0.4,0.4,0,-3.88578e-21,-4.44089e-21,-5.55111e-22,0,-4.2196e-20,-4.2196e-20,0.00573619,0.00566831,-6.78803e-05,-0.00279955,-0.0242671,-0.0214676,0.00561713,0.00412271,-0.00149441,0.099795,0.114218,0.0144233,-0.0156204,-0.0159823,-0.000361924,-0.0182282,-0.0370649,-0.0188367,1.11523e-06,0.000269952,0.000268836,-4.16334e-19,-4.95628e-18,-4.53995e-18,1.38778e-19,8.20516e-17,8.19128e-17,7.03266e-18,4.37027e-15,4.36324e-15,
-0.119664,-0.119664,2.88619e-08,-0.145498,-0.145498,3.50138e-07,0.060362,0.060362,3.2399e-08,-2.99555,-2.99555,-4.1701e-07,-0.00150711,-0.0015073,-1.88214e-07,1.33612,1.33611,-8.33871e-07,1.95595e-05,1.95603e-05,7.7449e-10,0.4,0.4,0,-3.60822e-21,-3.60822e-21,0,0,1.40653e-20,1.40653e-20,0.00572176,0.00565656,-6.52035e-05,-0.00297462,-0.0244304,-0.0214558,0.00560093,0.00410919,-0.00149173,0.100003,0.114415,0.0144119,-0.0155263,-0.0158923,-0.00036601,-0.0178112,-0.0367326,-0.0189214,7.27989e-07,0.000267175,0.000266447,-4.16334e-19,1.02363e-18,1.43996e-18,1.38778e-19,1.31358e-16,1.31219e-16,7.03266e-18,-2.75365e-15,-2.76068e-15,
-0.119653,-0.119653,2.75354e-08,-0.145504,-0.145504,2.99775e-07,0.0603731,0.0603732,3.04825e-08,-2.99535,-2.99535,-3.62743e-07,-0.00153799,-0.00153816,-1.73311e-07,1.33608,1.33608,-6.83512e-07,1.95584e-05,1.95609e-05,2.50416e-09,0.4,0.4,0,-3.88578e-21,-3.33067e-21,5.55111e-22,0,1.40653e-20,1.40653e-20,0.005708,0.00564572,-6.22758e-05,-0.0031245,-0.0245768,-0.0214523,0.00558569,0.00409674,-0.00148895,0.100185,0.114586,0.0144016,-0.0154397,-0.0158121,-0.00037243,-0.0174695,-0.0364278,-0.0189584,-5.24091e-07,0.000264851,0.000265375,-4.16334e-19,2.0025e-17,2.04413e-17,-1.38778e-19,-5.04451e-17,-5.03063e-17,-1.2326e-32,-1.18786e-15,-1.18786e-15,
-0.119641,-0.119641,2.54916e-08,-0.145511,-0.14551,2.5506e-07,0.0603843,0.0603843,2.82906e-08,-2.99515,-2.99515,-3.12896e-07,-0.00156871,-0.00156887,-1.61388e-07,1.33605,1.33605,-5.65216e-07,1.9555e-05,1.95574e-05,2.37317e-09,0.4,0.4,0,-3.60822e-21,-4.16334e-21,-5.55111e-22,0,-2.46519e-35,-2.46519e-35,0.00569525,0.00563544,-5.981e-05,-0.00325203,-0.0247015,-0.0214495,0.00557154,0.00408516,-0.00148638,0.100341,0.114735,0.0143936,-0.015359,-0.015737,-0.000377995,-0.0171869,-0.0361785,-0.0189916,-1.71068e-06,0.00026245,0.00026416,-1.38778e-19,-1.03813e-17,-1.02425e-17,1.38778e-19,-8.22685e-17,-8.24073e-17,-2.1098e-17,2.75414e-15,2.77524e-15,
-0.11963,-0.11963,2.475e-08,-0.145517,-0.145517,2.15734e-07,0.0603954,0.0603954,2.67944e-08,-2.99495,-2.99495,-2.68014e-07,-0.00159928,-0.00159943,-1.50501e-07,1.33601,1.33601,-4.67799e-07,1.95494e-05,1.95516e-05,2.2342e-09,0.4,0.4,0,-2.77556e-21,-3.33067e-21,-5.55111e-22,0,-4.2196e-20,-4.2196e-20,0.00568287,0.00562576,-5.71126e-05,-0.0033599,-0.0248072,-0.0214473,0.00555814,0.00407437,-0.00148378,0.100475,0.114863,0.0143877,-0.0152837,-0.0156664,-0.00038268,-0.016953,-0.0359741,-0.0190211,-2.82778e-06,0.000260218,0.000263046,-2.40741e-35,3.48791e-17,3.48791e-17,4.16334e-19,-4.23456e-17,-4.27619e-17,-4.2196e-17,1.60477e-16,2.02673e-16,
-0.119619,-0.119619,2.39165e-08,-0.145524,-0.145524,1.81175e-07,0.0604065,0.0604065,2.55619e-08,-2.99475,-2.99475,-2.28121e-07,-0.0016297,-0.00162984,-1.40544e-07,1.33598,1.33598,-3.85252e-07,1.95418e-05,1.95437e-05,1.91271e-09,0.4,0.4,0,-2.22045e-21,-1.94289e-21,2.77556e-22,0,-8.4392e-20,-8.4392e-20,0.00567092,0.00561637,-5.45497e-05,-0.00345049,-0.024896,-0.0214455,0.00554536,0.00406406,-0.0014813,0.100589,0.114973,0.0143835,-0.0152134,-0.0156,-0.00038657,-0.0167603,-0.0358074,-0.0190471,-3.78413e-06,0.000258154,0.000261938,-2.77556e-19,4.01454e-19,6.7901e-19,2.77556e-19,5.72077e-19,2.94521e-19,7.03266e-18,7.34122e-17,6.63795e-17,
-0.119607,-0.119607,2.31306e-08,-0.145531,-0.145531,1.50852e-07,0.0604176,0.0604176,2.44399e-08,-2.99455,-2.99455,-1.92863e-07,-0.00166,-0.00166013,-1.31376e-07,1.33595,1.33595,-3.14205e-07,1.95326e-05,1.95342e-05,1.60545e-09,0.4,0.4,0,-2.498e-21,-1.66533e-21,8.32667e-22,0,1.40653e-20,1.40653e-20,0.00565935,0.00560724,-5.21101e-05,-0.00352591,-0.02497,-0.0214441,0.00553314,0.00405418,-0.00147896,0.100686,0.115067,0.0143809,-0.0151478,-0.0155375,-0.000389759,-0.0166032,-0.0356731,-0.0190699,-4.58686e-06,0.000256253,0.00026084,-4.81482e-35,-1.0926e-17,-1.0926e-17,-1.38778e-19,-3.9288e-17,-3.91493e-17,-2.1098e-17,1.00002e-15,1.02111e-15,
-0.119596,-0.119596,2.23938e-08,-0.145539,-0.145538,1.24263e-07,0.0604286,0.0604286,2.34084e-08,-2.99434,-2.99434,-1.61793e-07,-0.00169017,-0.00169029,-1.22996e-07,1.33591,1.33591,-2.52531e-07,1.95221e-05,1.95234e-05,1.34555e-09,0.4,0.4,0,-2.498e-21,-2.77556e-21,-2.77556e-22,0,-4.2196e-20,-4.2196e-20,0.00564815,0.00559837,-4.97841e-05,-0.00358805,-0.025031,-0.021443,0.00552144,0.00404471,-0.00147673,0.100767,0.115146,0.0143795,-0.0150863,-0.0154786,-0.00039233,-0.016477,-0.0355668,-0.0190898,-5.25964e-06,0.000254492,0.000259752,-1.38778e-19,-1.98926e-17,-1.97538e-17,2.64815e-34,5.68907e-17,5.68907e-17,-7.03266e-18,6.3358e-16,6.40613e-16,
-0.119585,-0.119585,2.17021e-08,-0.145546,-0.145546,1.00954e-07,0.0604396,0.0604396,2.24582e-08,-2.99414,-2.99414,-1.34457e-07,-0.00172023,-0.00172034,-1.15403e-07,1.33588,1.33588,-1.98744e-07,1.95104e-05,1.95116e-05,1.13134e-09,0.4,0.4,0,-3.05311e-21,-2.498e-21,5.55111e-22,0,-1.40653e-20,-1.40653e-20,0.0056373,0.00558974,-4.75621e-05,-0.00363852,-0.0250807,-0.0214422,0.00551021,0.0040356,-0.00147461,0.100834,0.115213,0.0143793,-0.0150286,-0.0154229,-0.00039436,-0.0163776,-0.0354848,-0.0191072,-5.8253e-06,0.000252849,0.000258674,-2.77556e-19,-2.5329e-17,-2.50514e-17,-2.77556e-19,4.86049e-17,4.88824e-17,1.40653e-17,3.37876e-15,3.3647e-15,
-0.119574,-0.119574,2.10536e-08,-0.145553,-0.145553,8.05219e-08,0.0604506,0.0604506,2.15833e-08,-2.99394,-2.99394,-1.10427e-07,-0.00175018,-0.00175029,-1.08569e-07,1.33585,1.33585,-1.5172e-07,1.94978e-05,1.94988e-05,9.54834e-10,0.4,0.4,0,-3.33067e-21,-3.60822e-21,-2.77556e-22,0,2.81307e-20,2.81307e-20,0.00562678,0.00558134,-4.54351e-05,-0.00367878,-0.0251204,-0.0214416,0.00549942,0.00402683,-0.00147258,0.100889,0.115269,0.0143801,-0.0149743,-0.0153702,-0.000395911,-0.0163017,-0.0354242,-0.0191224,-6.30272e-06,0.000251303,0.000257606,-1.38778e-19,-1.76666e-18,-1.62788e-18,-1.38778e-19,-4.43818e-18,-4.2994e-18,-1.40653e-17,-3.63531e-17,-2.22878e-17,
-0.119562,-0.119562,2.04478e-08,-0.145561,-0.145561,6.26104e-08,0.0604616,0.0604616,2.07792e-08,-2.99374,-2.99374,-8.93165e-08,-0.00178002,-0.00178013,-1.02448e-07,1.33581,1.33581,-1.10552e-07,1.94844e-05,1.94852e-05,8.08423e-10,0.4,0.4,0,-3.60822e-21,-3.60822e-21,0,0,-2.81307e-20,-2.81307e-20,0.00561655,0.00557316,-4.33964e-05,-0.00371009,-0.0251513,-0.0214412,0.00548903,0.00401838,-0.00147065,0.100934,0.115316,0.0143818,-0.014923,-0.0153201,-0.000397041,-0.0162465,-0.0353822,-0.0191357,-6.70693e-06,0.000249839,0.000256546,-4.81482e-35,-2.00153e-18,-2.00153e-18,-1.38778e-19,1.03495e-16,1.03634e-16,-3.51633e-17,-2.06331e-15,-2.02814e-15,
-0.119551,-0.119551,1.98844e-08,-0.145568,-0.145568,4.69075e-08,0.0604726,0.0604726,2.00423e-08,-2.99354,-2.99354,-7.07755e-08,-0.00180977,-0.00180987,-9.69838e-08,1.33578,1.33578,-7.4487e-08,1.94703e-05,1.9471e-05,6.86059e-10,0.4,0.4,0,-2.77556e-21,-3.88578e-21,-1.11022e-21,0,-7.03266e-20,-7.03266e-20,0.00560661,0.00556517,-4.14384e-05,-0.00373354,-0.0251745,-0.021441,0.00547901,0.00401022,-0.00146879,0.100969,0.115353,0.0143843,-0.0148746,-0.0152724,-0.000397799,-0.0162092,-0.0353565,-0.0191473,-7.04996e-06,0.000248443,0.000255493,-2.77556e-19,-1.12828e-17,-1.10052e-17,4.16334e-19,-5.03977e-17,-5.08141e-17,-1.2326e-32,1.22578e-15,1.22578e-15,
-0.11954,-0.11954,1.93628e-08,-0.145576,-0.145576,3.31394e-08,0.0604835,0.0604835,1.93687e-08,-2.99334,-2.99334,-5.44952e-08,-0.00183943,-0.00183952,-9.21162e-08,1.33575,1.33575,-4.28812e-08,1.94556e-05,1.94562e-05,5.83135e-10,0.4,0.4,0,-3.05311e-21,-1.94289e-21,1.11022e-21,0,-2.46519e-35,-2.46519e-35,0.00559693,0.0055574,-3.95273e-05,-0.00375011,-0.025191,-0.0214409,0.00546932,0.00400233,-0.00146699,0.100996,0.115384,0.0143874,-0.0148285,-0.0152267,-0.000398233,-0.0161878,-0.0353451,-0.0191574,-7.34153e-06,0.000247111,0.000254453,-1.38778e-19,-3.47827e-17,-3.46439e-17,-1.38778e-19,-5.41847e-17,-5.4046e-17,-1.2326e-32,-2.45515e-15,-2.45515e-15,
-0.119529,-0.119529,1.8882e-08,-0.145583,-0.145583,2.10666e-08,0.0604944,0.0604944,1.87549e-08,-2.99313,-2.99313,-4.02022e-08,-0.001869,-0.00186909,-8.77865e-08,1.33572,1.33572,-1.51798e-08,1.94405e-05,1.9441e-05,4.96143e-10,0.4,0.4,0,-2.22045e-21,-3.33067e-21,-1.11022e-21,0,-2.46519e-35,-2.46519e-35,0.00558749,0.00554981,-3.76788e-05,-0.00376065,-0.0252016,-0.021441,0.00545994,0.00399469,-0.00146526,0.101017,0.115408,0.0143911,-0.0147846,-0.015183,-0.000398377,-0.0161802,-0.0353463,-0.0191661,-7.5896e-06,0.00024583,0.00025342,-1.38778e-19,-1.25199e-17,-1.23811e-17,4.16334e-19,-8.54673e-17,-8.58836e-17,-7.03266e-18,-1.59808e-16,-1.52776e-16,
-0.119518,-0.119518,1.84405e-08,-0.145591,-0.145591,1.04796e-08,0.0605053,0.0605053,1.8197e-08,-2.99293,-2.99293,-2.76554e-08,-0.00189848,-0.00189857,-8.39391e-08,1.33569,1.33569,9.09994e-09,1.94249e-05,1.94253e-05,4.22342e-10,0.4,0.4,0,-1.66533e-21,-1.38778e-21,2.77556e-22,0,-1.40653e-20,-1.40653e-20,0.00557827,0.00554238,-3.58908e-05,-0.00376589,-0.0252071,-0.0214412,0.00545085,0.00398727,-0.00146358,0.10103,0.115426,0.0143953,-0.0147426,-0.0151409,-0.000398265,-0.0161847,-0.0353585,-0.0191738,-7.80077e-06,0.000244591,0.000252392,-1.38778e-19,2.91801e-17,2.93188e-17,2.77556e-19,-1.77412e-16,-1.7769e-16,2.1098e-17,-6.8745e-16,-7.08548e-16,
-0.119506,-0.119506,1.80366e-08,-0.145598,-0.145598,1.19493e-09,0.0605162,0.0605162,1.76911e-08,-2.99273,-2.99273,-1.66425e-08,-0.00192789,-0.00192797,-8.05224e-08,1.33565,1.33565,3.0379e-08,1.94089e-05,1.94093e-05,3.59554e-10,0.4,0.4,0,-1.11022e-21,-1.11022e-21,0,0,4.2196e-20,4.2196e-20,0.00556925,0.00553509,-3.41569e-05,-0.00376648,-0.0252079,-0.0214415,0.005442,0.00398004,-0.00146196,0.101039,0.115439,0.0144,-0.0147024,-0.0151003,-0.000397925,-0.0161999,-0.0353803,-0.0191804,-7.98055e-06,0.000243389,0.000251369,-2.77556e-19,4.04232e-18,4.31988e-18,2.77556e-19,-5.60694e-17,-5.6347e-17,2.81307e-17,7.46901e-15,7.44087e-15,
-0.119495,-0.119495,1.76682e-08,-0.145606,-0.145606,-6.94798e-09,0.0605271,0.0605271,1.72334e-08,-2.99253,-2.99253,-6.97672e-09,-0.00195722,-0.00195729,-7.74894e-08,1.33562,1.33562,4.90261e-08,1.93926e-05,1.93929e-05,3.06019e-10,0.4,0.4,0,2.25695e-35,-5.55111e-22,-5.55111e-22,0,5.62613e-20,5.62613e-20,0.00556042,0.00552794,-3.24716e-05,-0.00376301,-0.0252048,-0.0214418,0.00543338,0.003973,-0.00146038,0.101042,0.115447,0.014405,-0.0146636,-0.015061,-0.000397384,-0.0162244,-0.0354106,-0.0191862,-8.13356e-06,0.000242218,0.000250351,-2.77556e-19,-5.25594e-17,-5.22818e-17,5.55111e-19,-6.34225e-18,-6.89737e-18,1.40653e-17,-1.26962e-15,-1.28369e-15,
-0.119484,-0.119484,1.7333e-08,-0.145613,-0.145613,-1.40897e-08,0.0605379,0.0605379,1.682e-08,-2.99232,-2.99232,1.50602e-09,-0.00198647,-0.00198654,-7.47974e-08,1.33559,1.33559,6.5364e-08,1.93761e-05,1.93764e-05,2.60292e-10,0.4,0.4,0,1.38778e-21,1.11022e-21,-2.77556e-22,0,2.81307e-20,2.81307e-20,0.00555175,0.00552092,-3.08298e-05,-0.00375596,-0.0251982,-0.0214422,0.00542497,0.00396613,-0.00145885,0.101041,0.115452,0.0144105,-0.0146262,-0.0150229,-0.000396666,-0.0162571,-0.0354483,-0.0191911,-8.2637e-06,0.000241074,0.000249338,-4.16334e-19,-2.49048e-18,-2.07415e-18,6.93889e-19,1.34379e-17,1.2744e-17,7.03266e-18,1.61279e-16,1.54246e-16,
-0.119473,-0.119473,1.70286e-08,-0.145621,-0.145621,-2.03534e-08,0.0605487,0.0605488,1.64472e-08,-2.99212,-2.99212,8.95e-09,-0.00201565,-0.00201572,-7.24083e-08,1.33556,1.33556,7.96759e-08,1.93594e-05,1.93596e-05,2.21178e-10,0.4,0.4,0,2.77556e-21,2.77556e-21,0,0,1.40653e-20,1.40653e-20,0.00554323,0.00551401,-2.9227e-05,-0.00374579,-0.0251885,-0.0214427,0.00541675,0.0039594,-0.00145735,0.101037,0.115453,0.0144162,-0.01459,-0.0149858,-0.000395792,-0.016297,-0.0354924,-0.0191955,-8.37429e-06,0.000239953,0.000248328,-2.77556e-19,-4.17593e-17,-4.14817e-17,6.93889e-19,-7.87482e-18,-8.56871e-18,2.81307e-17,-7.77002e-15,-7.79815e-15,
-0.119462,-0.119462,1.67528e-08,-0.145628,-0.145628,-2.58469e-08,0.0605596,0.0605596,1.61114e-08,-2.99192,-2.99192,1.54819e-08,-0.00204476,-0.00204483,-7.02878e-08,1.33552,1.33552,9.22098e-08,1.93424e-05,1.93426e-05,1.87668e-10,0.4,0.4,0,3.33067e-21,4.16334e-21,8.32667e-22,0,5.62613e-20,5.62613e-20,0.00553486,0.0055072,-2.76591e-05,-0.00373286,-0.0251762,-0.0214433,0.00540869,0.0039528,-0.00145589,0.101029,0.115451,0.0144221,-0.0145549,-0.0149497,-0.00039478,-0.0163431,-0.0355422,-0.0191992,-8.46813e-06,0.000238853,0.000247321,-2.77556e-19,-1.46043e-17,-1.43268e-17,2.77556e-19,1.39494e-16,1.39217e-16,2.1098e-17,6.19833e-16,5.98735e-16,
-0.119451,-0.119451,1.65031e-08,-0.145636,-0.145636,-3.06649e-08,0.0605704,0.0605704,1.58093e-08,-2.99172,-2.99172,2.12132e-08,-0.0020738,-0.00207387,-6.84052e-08,1.33549,1.33549,1.03184e-07,1.93253e-05,1.93255e-05,1.5893e-10,0.4,0.4,0,3.05311e-21,3.88578e-21,8.32667e-22,0,4.2196e-20,4.2196e-20,0.00552661,0.00550048,-2.61223e-05,-0.00371753,-0.0251614,-0.0214439,0.00540079,0.00394633,-0.00145446,0.101019,0.115447,0.0144283,-0.0145207,-0.0149143,-0.000393645,-0.0163947,-0.035597,-0.0192024,-8.54759e-06,0.000237771,0.000246319,-4.81482e-35,-1.88754e-17,-1.88754e-17,-1.38778e-19,5.70727e-17,5.72115e-17,-1.2326e-32,4.8379e-15,4.8379e-15,
-0.11944,-0.11944,1.62773e-08,-0.145643,-0.145643,-3.48901e-08,0.0605812,0.0605812,1.55376e-08,-2.99152,-2.99152,2.62414e-08,-0.00210277,-0.00210284,-6.67333e-08,1.33546,1.33546,1.12789e-07,1.93081e-05,1.93082e-05,1.34246e-10,0.4,0.4,0,3.60822e-21,2.77556e-21,-8.32667e-22,0,-2.46519e-35,-2.46519e-35,0.00551847,0.00549385,-2.46135e-05,-0.00370009,-0.0251446,-0.0214445,0.00539302,0.00393997,-0.00145305,0.101005,0.11544,0.0144347,-0.0144873,-0.0148797,-0.000392402,-0.016451,-0.0356562,-0.0192052,-8.61471e-06,0.000236704,0.000245319,-4.81482e-35,9.49221e-18,9.49221e-18,2.77556e-19,1.08028e-16,1.0775e-16,1.40653e-17,-1.21282e-15,-1.22689e-15,
-0.119429,-0.119429,1.60734e-08,-0.14565,-0.14565,-3.85953e-08,0.0605919,0.0605919,1.52935e-08,-2.99131,-2.99131,3.06525e-08,-0.00213168,-0.00213175,-6.52477e-08,1.33542,1.33542,1.21192e-07,1.92908e-05,1.92909e-05,1.13031e-10,0.4,0.4,0,4.16334e-21,4.16334e-21,0,0,2.81307e-20,2.81307e-20,0.00551043,0.0054873,-2.31296e-05,-0.00368079,-0.025126,-0.0214452,0.00538537,0.0039337,-0.00145167,0.10099,0.115431,0.0144413,-0.0144547,-0.0148458,-0.000391065,-0.0165116,-0.0357192,-0.0192075,-8.67123e-06,0.000235651,0.000244322,1.38778e-19,1.76958e-17,1.7557e-17,2.77556e-19,5.98959e-17,5.96183e-17,-7.03266e-18,-5.56908e-15,-5.56205e-15,
-0.119418,-0.119418,1.58891e-08,-0.145658,-0.145658,-4.18443e-08,0.0606027,0.0606027,1.50741e-08,-2.99111,-2.99111,3.45217e-08,-0.00216053,-0.00216059,-6.39268e-08,1.33539,1.33539,1.28541e-07,1.92733e-05,1.92734e-05,9.47674e-11,0.4,0.4,0,4.16334e-21,4.71845e-21,5.55111e-22,0,-1.40653e-20,-1.40653e-20,0.00550249,0.00548082,-2.1668e-05,-0.00365987,-0.0251058,-0.0214459,0.00537784,0.00392752,-0.00145032,0.100973,0.115421,0.014448,-0.0144227,-0.0148124,-0.000389643,-0.0165759,-0.0357854,-0.0192095,-8.71861e-06,0.000234609,0.000243328,1.38778e-19,2.6144e-17,2.60052e-17,3.37038e-34,7.01949e-17,7.01949e-17,2.1098e-17,2.34642e-16,2.13544e-16,
-0.119407,-0.119407,1.57228e-08,-0.145665,-0.145665,-4.46927e-08,0.0606134,0.0606134,1.4877e-08,-2.99091,-2.99091,3.79154e-08,-0.00218931,-0.00218937,-6.27516e-08,1.33536,1.33536,1.34965e-07,1.92558e-05,1.92559e-05,7.90407e-11,0.4,0.4,0,3.60822e-21,4.16334e-21,5.55111e-22,0,4.2196e-20,4.2196e-20,0.00549463,0.0054744,-2.02265e-05,-0.00363752,-0.0250842,-0.0214466,0.0053704,0.00392142,-0.00144897,0.100954,0.115409,0.0144549,-0.0143913,-0.0147795,-0.000388147,-0.0166434,-0.0358546,-0.0192113,-8.75813e-06,0.000233578,0.000242336,-4.81482e-35,5.36326e-17,5.36326e-17,-2.77556e-19,1.28421e-16,1.28699e-16,2.81307e-17,-1.38633e-15,-1.41446e-15,
-0.119396,-0.119396,1.55725e-08,-0.145672,-0.145672,-4.71898e-08,0.0606241,0.0606242,1.46999e-08,-2.99071,-2.99071,4.08916e-08,-0.00221803,-0.00221809,-6.17048e-08,1.33532,1.33532,1.40577e-07,1.92382e-05,1.92383e-05,6.54718e-11,0.4,0.4,0,3.05311e-21,3.05311e-21,0,0,5.62613e-20,5.62613e-20,0.00548684,0.00546804,-1.88029e-05,-0.00361393,-0.0250613,-0.0214474,0.00536305,0.0039154,-0.00144765,0.100933,0.115395,0.0144619,-0.0143605,-0.0147471,-0.000386585,-0.0167137,-0.0359264,-0.0192127,-8.79087e-06,0.000232555,0.000241346,-4.81485e-35,-2.51887e-18,-2.51887e-18,-2.77556e-19,-1.49637e-17,-1.46862e-17,1.40653e-17,2.59732e-16,2.45667e-16,
-0.119385,-0.119385,1.54367e-08,-0.145679,-0.145679,-4.93784e-08,0.0606349,0.0606349,1.45407e-08,-2.99051,-2.99051,4.35012e-08,-0.00224669,-0.00224675,-6.07715e-08,1.33529,1.33529,1.45476e-07,1.92206e-05,1.92206e-05,5.37621e-11,0.4,0.4,0,2.77556e-21,2.498e-21,-2.77556e-22,0,2.81307e-20,2.81307e-20,0.00547912,0.00546173,-1.73954e-05,-0.00358924,-0.0250374,-0.0214482,0.00535578,0.00390944,-0.00144634,0.100912,0.115381,0.0144689,-0.0143301,-0.0147151,-0.000384965,-0.0167864,-0.0360004,-0.0192139,-8.81775e-06,0.000231541,0.000240359,-4.81485e-35,3.03634e-17,3.03634e-17,-1.38778e-19,1.35588e-16,1.35727e-16,4.2196e-17,-3.85659e-15,-3.89878e-15,
-0.119374,-0.119374,1.53139e-08,-0.145686,-0.145687,-5.12963e-08,0.0606456,0.0606456,1.43974e-08,-2.99031,-2.99031,4.5789e-08,-0.00227529,-0.00227535,-5.99384e-08,1.33526,1.33526,1.49749e-07,1.92029e-05,1.92029e-05,4.36422e-11,0.4,0.4,0,3.05311e-21,2.498e-21,-5.55111e-22,0,8.4392e-20,8.4392e-20,0.00547146,0.00545546,-1.60023e-05,-0.00356359,-0.0250126,-0.021449,0.00534858,0.00390353,-0.00144505,0.100889,0.115365,0.0144761,-0.0143001,-0.0146834,-0.000383293,-0.0168613,-0.0360763,-0.019215,-8.83957e-06,0.000230534,0.000239373,-4.8149e-35,2.92411e-18,2.92411e-18,1.38778e-19,-1.1529e-16,-1.15429e-16,4.92286e-17,-2.75962e-15,-2.80885e-15,
-0.119363,-0.119363,1.52027e-08,-0.145694,-0.145694,-5.29766e-08,0.0606562,0.0606562,1.42684e-08,-2.9901,-2.9901,4.77944e-08,-0.00230383,-0.00230389,-5.91936e-08,1.33522,1.33522,1.53474e-07,1.91852e-05,1.91852e-05,3.48963e-11,0.4,0.4,0,3.88578e-21,3.33067e-21,-5.55111e-22,0,9.84573e-20,9.84573e-20,0.00546386,0.00544924,-1.46223e-05,-0.0035371,-0.0249869,-0.0214498,0.00534145,0.00389768,-0.00144377,0.100865,0.115348,0.0144833,-0.0142705,-0.0146521,-0.000381577,-0.016938,-0.0361538,-0.0192158,-8.85702e-06,0.000229533,0.00023839,-4.81494e-35,-3.3051e-17,-3.3051e-17,4.16334e-19,1.19526e-16,1.1911e-16,5.62613e-17,2.01578e-15,1.95952e-15,
-0.119352,-0.119352,1.5102e-08,-0.145701,-0.145701,-5.44484e-08,0.0606669,0.0606669,1.41521e-08,-2.9899,-2.9899,4.95518e-08,-0.00233232,-0.00233237,-5.85266e-08,1.33519,1.33519,1.56717e-07,1.91674e-05,1.91675e-05,2.7323e-11,0.4,0.4,0,4.44089e-21,4.71845e-21,2.77556e-22,0,1.12523e-19,1.12523e-19,0.00545631,0.00544306,-1.32539e-05,-0.00350988,-0.0249605,-0.0214506,0.00533437,0.00389188,-0.00144249,0.10084,0.115331,0.0144907,-0.0142413,-0.0146211,-0.00037982,-0.0170164,-0.0362329,-0.0192165,-8.87068e-06,0.000228538,0.000237408,2.77556e-19,-3.0369e-17,-3.06466e-17,2.77556e-19,9.72617e-17,9.69842e-17,-1.2326e-32,3.3305e-15,3.3305e-15,
-0.119341,-0.119341,1.50105e-08,-0.145708,-0.145708,-5.57371e-08,0.0606776,0.0606776,1.4047e-08,-2.9897,-2.9897,5.10915e-08,-0.00236074,-0.0023608,-5.79283e-08,1.33515,1.33515,1.59537e-07,1.91497e-05,1.91497e-05,2.07641e-11,0.4,0.4,0,4.996e-21,4.996e-21,0,0,-2.46519e-35,-2.46519e-35,0.00544881,0.00543691,-1.18961e-05,-0.00348201,-0.0249335,-0.0214515,0.00532735,0.00388611,-0.00144123,0.100815,0.115313,0.014498,-0.0142123,-0.0145903,-0.000378027,-0.0170962,-0.0363132,-0.0192171,-8.88106e-06,0.000227547,0.000236429,2.77556e-19,-2.08977e-18,-2.36732e-18,2.77556e-19,-1.42204e-16,-1.42481e-16,-1.2326e-32,-2.39185e-15,-2.39185e-15,
-0.11933,-0.11933,1.49273e-08,-0.145714,-0.145714,-5.6865e-08,0.0606882,0.0606882,1.3952e-08,-2.9895,-2.9895,5.24402e-08,-0.00238911,-0.00238917,-5.73905e-08,1.33512,1.33512,1.61986e-07,1.91319e-05,1.91319e-05,1.50761e-11,0.4,0.4,0,5.27356e-21,5.55111e-21,2.77556e-22,0,-2.46519e-35,-2.46519e-35,0.00544134,0.00543079,-1.05479e-05,-0.00345357,-0.0249059,-0.0214523,0.00532037,0.00388039,-0.00143998,0.100788,0.115294,0.0145054,-0.0141836,-0.0145598,-0.000376203,-0.0171772,-0.0363947,-0.0192175,-8.8886e-06,0.000226562,0.00023545,1.38778e-19,-1.15082e-17,-1.1647e-17,1.38778e-19,-4.72494e-17,-4.73882e-17,7.03266e-18,-1.90177e-15,-1.9088e-15,
-0.11932,-0.11932,1.48514e-08,-0.145721,-0.145721,-5.78519e-08,0.0606988,0.0606988,1.38659e-08,-2.9893,-2.9893,5.36211e-08,-0.00241742,-0.00241748,-5.6906e-08,1.33509,1.33509,1.6411e-07,1.91141e-05,1.91141e-05,1.01454e-11,0.4,0.4,0,4.71845e-21,5.55111e-21,8.32667e-22,0,1.40653e-20,1.40653e-20,0.00543392,0.00542471,-9.20835e-06,-0.00342465,-0.0248778,-0.0214532,0.00531344,0.00387471,-0.00143873,0.100762,0.115274,0.0145129,-0.0141552,-0.0145295,-0.000374351,-0.0172592,-0.0364771,-0.0192179,-8.89367e-06,0.00022558,0.000234473,1.38778e-19,1.53858e-19,1.50803e-20,-2.77556e-19,-7.41002e-19,-4.63446e-19,-1.40653e-17,2.41376e-17,3.82029e-17,
-0.119309,-0.119309,1.47821e-08,-0.145728,-0.145728,-5.87149e-08,0.0607094,0.0607095,1.37878e-08,-2.9891,-2.9891,5.46547e-08,-0.00244567,-0.00244573,-5.64684e-08,1.33505,1.33505,1.65947e-07,1.90963e-05,1.90963e-05,5.86415e-12,0.4,0.4,0,4.16334e-21,4.16334e-21,0,0,-2.81307e-20,-2.81307e-20,0.00542653,0.00541865,-7.8767e-06,-0.00339529,-0.0248494,-0.0214541,0.00530654,0.00386905,-0.00143749,0.100734,0.115255,0.0145204,-0.0141269,-0.0144994,-0.000372474,-0.0173422,-0.0365603,-0.0192182,-8.89661e-06,0.000224602,0.000233498,1.38778e-19,1.53041e-17,1.51653e-17,-2.77556e-19,7.72749e-17,7.75524e-17,-1.2326e-32,-1.32578e-15,-1.32578e-15,
-0.119298,-0.119298,1.47186e-08,-0.145735,-0.145735,-5.94692e-08,0.06072,0.0607201,1.37166e-08,-2.98889,-2.98889,5.5559e-08,-0.00247387,-0.00247393,-5.60722e-08,1.33502,1.33502,1.67534e-07,1.90785e-05,1.90785e-05,2.14496e-12,0.4,0.4,0,3.60822e-21,3.60822e-21,0,0,-2.46519e-35,-2.46519e-35,0.00541917,0.00541261,-6.55223e-06,-0.00336556,-0.0248205,-0.021455,0.00529969,0.00386343,-0.00143626,0.100706,0.115234,0.0145279,-0.0140989,-0.0144695,-0.000370575,-0.0174259,-0.0366443,-0.0192183,-8.89768e-06,0.000223627,0.000232524,-4.81482e-35,-1.42296e-18,-1.42296e-18,-2.77556e-19,-9.54341e-17,-9.51565e-17,-1.40653e-17,5.1311e-16,5.27175e-16,
-0.119287,-0.119287,1.46602e-08,-0.145741,-0.145742,-6.01279e-08,0.0607306,0.0607306,1.36516e-08,-2.98869,-2.98869,5.63498e-08,-0.00250201,-0.00250207,-5.57124e-08,1.33498,1.33498,1.689e-07,1.90607e-05,1.90607e-05,-1.09157e-12,0.4,0.4,0,2.77556e-21,3.05311e-21,2.77556e-22,0,-2.81307e-20,-2.81307e-20,0.00541184,0.0054066,-5.23436e-06,-0.00333549,-0.0247913,-0.0214558,0.00529286,0.00385783,-0.00143503,0.100678,0.115214,0.0145355,-0.014071,-0.0144397,-0.000368656,-0.0175104,-0.0367289,-0.0192185,-8.89713e-06,0.000222655,0.000231552,-4.81483e-35,-1.76909e-18,-1.76909e-18,-4.16334e-19,6.37243e-18,6.78876e-18,-1.2326e-32,-1.10043e-16,-1.10043e-16,
-0.119276,-0.119276,1.46064e-08,-0.145748,-0.145748,-6.07029e-08,0.0607412,0.0607412,1.35922e-08,-2.98849,-2.98849,5.7041e-08,-0.0025301,-0.00253015,-5.53846e-08,1.33495,1.33495,1.70073e-07,1.90429e-05,1.90429e-05,-3.89654e-12,0.4,0.4,0,1.38778e-21,1.94289e-21,5.55111e-22,0,-2.46519e-35,-2.46519e-35,0.00540453,0.00540061,-3.92251e-06,-0.00330514,-0.0247619,-0.0214567,0.00528606,0.00385225,-0.00143381,0.10065,0.115193,0.014543,-0.0140433,-0.0144101,-0.00036672,-0.0175954,-0.036814,-0.0192186,-8.89519e-06,0.000221686,0.000230581,-4.81483e-35,-4.69492e-19,-4.69492e-19,-6.93889e-19,1.37515e-18,2.06904e-18,7.03266e-18,-5.85579e-17,-6.55905e-17,
-0.119265,-0.119265,1.45567e-08,-0.145755,-0.145755,-6.12043e-08,0.0607518,0.0607518,1.35376e-08,-2.98829,-2.98829,5.76447e-08,-0.00255813,-0.00255819,-5.50851e-08,1.33491,1.33491,1.71076e-07,1.90252e-05,1.90252e-05,-6.34773e-12,0.4,0.4,0,3.7992e-35,3.7992e-35,0,0,1.40653e-20,1.40653e-20,0.00539726,0.00539464,-2.61624e-06,-0.00327454,-0.0247322,-0.0214576,0.00527929,0.0038467,-0.00143259,0.100621,0.115172,0.0145506,-0.0140158,-0.0143806,-0.000364768,-0.017681,-0.0368996,-0.0192186,-8.89201e-06,0.000220719,0.000229611,2.77556e-19,2.34773e-18,2.07017e-18,-6.93889e-19,5.73232e-18,6.42621e-18,-2.81307e-17,-4.60921e-16,-4.3279e-16,
-0.119255,-0.119255,1.45106e-08,-0.145761,-0.145761,-6.1641e-08,0.0607623,0.0607623,1.34872e-08,-2.98809,-2.98809,5.81716e-08,-0.00258611,-0.00258616,-5.48103e-08,1.33488,1.33488,1.7193e-07,1.90074e-05,1.90074e-05,-8.47528e-12,0.4,0.4,0,-5.55111e-22,-1.38778e-21,-8.32667e-22,0,-5.62613e-20,-5.62613e-20,0.00539,0.00538868,-1.31511e-06,-0.00324372,-0.0247022,-0.0214585,0.00527255,0.00384117,-0.00143138,0.100592,0.11515,0.0145582,-0.0139884,-0.0143512,-0.000362803,-0.0177669,-0.0369855,-0.0192186,-8.88777e-06,0.000219755,0.000228642,2.77556e-19,2.50859e-18,2.23103e-18,-2.77556e-19,-2.37571e-17,-2.34795e-17,-2.81307e-17,-1.70255e-15,-1.67442e-15,
-0.119244,-0.119244,1.44676e-08,-0.145768,-0.145768,-6.2021e-08,0.0607728,0.0607728,1.34407e-08,-2.98789,-2.98789,5.8631e-08,-0.00261403,-0.00261408,-5.45575e-08,1.33484,1.33484,1.72654e-07,1.89896e-05,1.89896e-05,-1.0331e-11,0.4,0.4,0,-5.55111e-22,-1.11022e-21,-5.55111e-22,0,-5.62613e-20,-5.62613e-20,0.00538277,0.00538275,-1.87569e-08,-0.00321271,-0.0246721,-0.0214594,0.00526583,0.00383566,-0.00143017,0.100563,0.115128,0.0145659,-0.0139611,-0.0143219,-0.000360824,-0.0178533,-0.0370718,-0.0192185,-8.88261e-06,0.000218792,0.000227675,-4.81482e-35,7.93321e-19,7.93321e-19,3.37038e-34,-5.88661e-17,-5.88661e-17,-1.40653e-17,-1.58703e-15,-1.57296e-15,
-0.119233,-0.119233,1.44274e-08,-0.145774,-0.145774,-6.23512e-08,0.0607833,0.0607834,1.33976e-08,-2.98769,-2.98769,5.90312e-08,-0.0026419,-0.00264195,-5.43238e-08,1.3348,1.3348,1.73263e-07,1.89719e-05,1.89719e-05,-1.19452e-11,0.4,0.4,0,3.99668e-35,-5.55111e-22,-5.55111e-22,0,-2.81307e-20,-2.81307e-20,0.00537555,0.00537683,1.27314e-06,-0.00318153,-0.0246419,-0.0214603,0.00525913,0.00383017,-0.00142896,0.100533,0.115107,0.0145735,-0.013934,-0.0142928,-0.000358835,-0.0179399,-0.0371583,-0.0192185,-8.87664e-06,0.000217832,0.000226709,-4.81482e-35,5.78453e-18,5.78453e-18,2.77556e-19,-9.33518e-18,-9.61274e-18,-1.2326e-32,-2.65167e-16,-2.65167e-16,
-0.119222,-0.119222,1.43897e-08,-0.14578,-0.14578,-6.26376e-08,0.0607939,0.0607939,1.33573e-08,-2.98749,-2.98749,5.93795e-08,-0.00266971,-0.00266977,-5.41072e-08,1.33477,1.33477,1.73771e-07,1.89541e-05,1.89541e-05,-1.33522e-11,0.4,0.4,0,1.11022e-21,5.55111e-22,-5.55111e-22,0,-2.46519e-35,-2.46519e-35,0.00536836,0.00537092,2.56088e-06,-0.00315021,-0.0246114,-0.0214612,0.00525245,0.0038247,-0.00142776,0.100503,0.115084,0.0145811,-0.0139069,-0.0142637,-0.000356835,-0.0180268,-0.0372451,-0.0192184,-8.86996e-06,0.000216874,0.000225744,-2.77556e-19,5.88728e-19,8.66284e-19,5.55111e-19,-8.32819e-17,-8.3837e-17,-2.81307e-17,-8.26902e-16,-7.98772e-16,
-0.119212,-0.119212,1.43542e-08,-0.145786,-0.145786,-6.28856e-08,0.0608043,0.0608044,1.33197e-08,-2.98728,-2.98728,5.96821e-08,-0.00269747,-0.00269753,-5.39053e-08,1.33473,1.33473,1.74191e-07,1.89364e-05,1.89364e-05,-1.45812e-11,0.4,0.4,0,1.11022e-21,2.22045e-21,1.11022e-21,0,-5.62613e-20,-5.62613e-20,0.00536118,0.00536502,3.8447e-06,-0.00311877,-0.0245809,-0.0214621,0.00524579,0.00381924,-0.00142655,0.100474,0.115062,0.0145888,-0.01388,-0.0142348,-0.000354826,-0.0181139,-0.0373321,-0.0192182,-8.86267e-06,0.000215917,0.00022478,-4.16334e-19,-6.81594e-18,-6.3996e-18,2.88889e-34,-1.43997e-16,-1.43997e-16,-2.81307e-17,-4.72714e-15,-4.69901e-15,
-0.119201,-0.119201,1.43206e-08,-0.145793,-0.145793,-6.30999e-08,0.0608148,0.0608148,1.32844e-08,-2.98708,-2.98708,5.99446e-08,-0.00272518,-0.00272523,-5.37166e-08,1.33469,1.3347,1.74533e-07,1.89187e-05,1.89187e-05,-1.56545e-11,0.4,0.4,0,8.32667e-22,1.11022e-21,2.77556e-22,0,-5.62613e-20,-5.62613e-20,0.00535402,0.00535914,5.12483e-06,-0.00308722,-0.0245503,-0.021463,0.00523915,0.00381379,-0.00142536,0.100444,0.11504,0.0145965,-0.0138531,-0.0142059,-0.000352809,-0.0182011,-0.0374193,-0.0192181,-8.85484e-06,0.000214962,0.000223817,-4.16334e-19,-2.43989e-17,-2.39826e-17,-1.38778e-19,-1.38525e-17,-1.37137e-17,-1.40653e-17,-5.24276e-16,-5.10211e-16,
-0.11919,-0.11919,1.42887e-08,-0.145799,-0.145799,-6.32845e-08,0.0608253,0.0608253,1.32511e-08,-2.98688,-2.98688,6.01719e-08,-0.00275283,-0.00275288,-5.35395e-08,1.33466,1.33466,1.74807e-07,1.8901e-05,1.8901e-05,-1.65856e-11,0.4,0.4,0,8.32667e-22,5.55111e-22,-2.77556e-22,0,-2.81307e-20,-2.81307e-20,0.00534688,0.00533787,-9.00749e-06,-0.00305558,-0.02451,-0.0214545,0.00523253,0.00380971,-0.00142282,0.100413,0.115034,0.0146206,-0.0138263,-0.0143484,-0.000522051,-0.0182885,-0.0373323,-0.0190438,-8.84655e-06,0.000210823,0.00021967,-4.16334e-19,-0.000171667,-0.000171667,2.88889e-34,-0.000320757,-0.000320757,3.51633e-17,-0.00154888,-0.00154888,
-0.11918,-0.11918,1.42583e-08,-0.145805,-0.145805,-6.34431e-08,0.0608357,0.0608358,1.32196e-08,-2.98668,-2.98668,6.03684e-08,-0.00278043,-0.00278048,-5.33725e-08,1.33462,1.33462,1.75022e-07,1.88833e-05,1.88833e-05,-1.73989e-11,0.4,0.4,0,1.38778e-21,8.32667e-22,-5.55111e-22,0,7.03266e-20,7.03266e-20,0.00533975,0.00531291,-2.68351e-05,-0.00302386,-0.0244924,-0.0214686,0.00522592,0.00379577,-0.00143015,0.100383,0.114964,0.0145803,-0.0137996,-0.0144002,-0.000600549,-0.0183761,-0.0382469,-0.0198709,-8.83785e-06,5.09547e-05,5.97925e-05,-2.77556e-19,0.00056938,0.00056938,2.77556e-19,-0.000338992,-0.000338992,2.81307e-17,0.0060686,0.0060686,
-0.119169,-0.119169,1.42292e-08,-0.145811,-0.145811,-6.35789e-08,0.0608462,0.0608462,1.31897e-08,-2.98648,-2.98648,6.05377e-08,-0.00280798,-0.00280803,-5.32144e-08,1.33458,1.33458,1.75183e-07,1.88657e-05,1.88657e-05,-1.81108e-11,0.4,0.4,0,2.498e-21,1.94289e-21,-5.55111e-22,0,5.62613e-20,5.62613e-20,0.00533263,0.00528384,-4.87931e-05,-0.00299207,-0.0246386,-0.0216466,0.00521932,0.00377493,-0.00144439,0.100353,0.114728,0.0143752,-0.013773,-0.0145324,-0.000759397,-0.0184636,-0.0428284,-0.0243647,-8.82879e-06,-0.00124856,-0.00123973,-4.81482e-35,0.00470776,0.00470776,5.55111e-19,0.000102948,0.000102948,-1.2326e-32,0.0542758,0.0542758,
-0.119158,-0.119158,1.51978e-07,-0.145817,-0.145817,2.46041e-07,0.0608565,0.0608566,9.86598e-08,-2.98628,-2.98628,9.13447e-07,-0.00283613,-0.00283552,6.11562e-07,1.33453,1.33455,1.43177e-05,1.60195e-05,1.8848e-05,2.82849e-06,0.400014,0.4,-1.39378e-05,3.45726e-07,3.60822e-21,-3.45726e-07,9.40844e-09,-2.46519e-35,-9.40844e-09,0.00525664,0.00528308,2.6435e-05,-0.00311509,-0.0246303,-0.0215152,0.00516999,0.0037683,-0.00140169,0.0998963,0.114627,0.0147309,-0.0140788,-0.0144847,-0.000405893,-0.0256225,-0.0435866,-0.0179641,-0.00142307,-0.00125202,0.000171058,0.00696891,0.00523891,-0.00173,0.000172863,0.000246019,7.31553e-05,0.0683543,0.0612881,-0.00706626,
-0.119148,-0.119148,6.34369e-08,-0.145823,-0.145823,-2.07336e-07,0.0608668,0.0608669,6.75352e-08,-2.98608,-2.98608,1.25604e-06,-0.00286426,-0.00286429,-3.00164e-08,1.33448,1.33448,6.92863e-06,1.30272e-05,1.31734e-05,1.46149e-07,0.400039,0.400028,-1.08956e-05,7.47804e-07,6.91453e-07,-5.63512e-08,7.04714e-08,0.000136718,0.000136648,0.00522492,0.0052588,3.38708e-05,-0.00301142,-0.0246825,-0.021671,0.00513622,0.00374301,-0.00139321,0.0992683,0.114274,0.0150056,-0.0140638,-0.0144881,-0.000424263,-0.0290868,-0.0467583,-0.0176715,-0.00149615,-0.00132815,0.000168001,0.0124167,0.00965208,-0.00276465,0.000201039,0.000169115,-3.19242e-05,0.118727,0.11083,-0.0078973,
-0.119138,-0.119138,4.69679e-08,-0.145829,-0.145829,-4.0562e-07,0.060877,0.0608771,4.61836e-08,-2.98589,-2.98588,1.19963e-06,-0.00289226,-0.00289239,-1.30818e-07,1.33441,1.33442,3.36622e-06,1.02527e-05,1.00349e-05,-2.1776e-07,0.400072,0.400064,-8.31282e-06,1.11866e-06,1.14988e-06,3.12197e-08,2.34543e-07,0.000237525,0.00023729,0.00520144,0.0052608,5.93608e-05,-0.00280861,-0.0246091,-0.0218005,0.00511313,0.00373639,-0.00137674,0.0986684,0.113802,0.0151331,-0.0139984,-0.0142894,-0.000291017,-0.0307699,-0.0490325,-0.0182626,-0.00138727,-0.00122263,0.000164635,0.0165731,0.014416,-0.00215709,0.000185429,0.000488629,0.0003032,0.154228,0.164896,0.0106677,
-0.119127,-0.119127,8.36189e-08,-0.145834,-0.145834,-4.67987e-07,0.0608872,0.0608872,5.8067e-08,-2.98569,-2.98569,1.10922e-06,-0.00292019,-0.00292025,-6.04218e-08,1.33435,1.33435,3.26059e-06,7.65432e-06,7.47814e-06,-1.76173e-07,0.400114,0.400105,-8.54943e-06,1.61313e-06,1.48952e-06,-1.23605e-07,5.69799e-07,0.000308691,0.000308122,0.00515963,0.00524667,8.70353e-05,-0.00257462,-0.0244206,-0.021846,0.0050841,0.00372063,-0.00136347,0.0981138,0.113341,0.0152269,-0.0139682,-0.0141867,-0.000218553,-0.0324002,-0.050169,-0.0177688,-0.00129918,-0.00107074,0.00022844,0.0208479,0.0180419,-0.00280593,0.000247232,0.00053807,0.000290838,0.190763,0.194424,0.00366117,
-0.119117,-0.119117,5.08642e-08,-0.145838,-0.145839,-5.10876e-07,0.0608973,0.0608974,4.9545e-08,-2.98549,-2.98549,9.38496e-07,-0.00294805,-0.00294813,-8.13741e-08,1.33428,1.33428,1.36944e-06,5.28756e-06,5.05595e-06,-2.31614e-07,0.400161,0.400155,-6.10312e-06,2.20078e-06,2.10759e-06,-9.31893e-08,1.11941e-06,0.000382095,0.000380976,0.0051342,0.00524018,0.000105982,-0.00231918,-0.0241986,-0.0218795,0.00505933,0.00370535,-0.00135398,0.0976446,0.112918,0.015273,-0.0139275,-0.014054,-0.000126513,-0.0330849,-0.0503839,-0.017299,-0.00118338,-0.000866637,0.00031674,0.0238994,0.0212709,-0.00262853,0.000293826,0.000562457,0.000268631,0.21382,0.218406,0.00458562,
-0.119107,-0.119107,3.96549e-08,-0.145843,-0.145843,-4.84313e-07,0.0609074,0.0609074,3.78814e-08,-2.9853,-2.9853,7.4845e-07,-0.00297587,-0.0029759,-3.18409e-08,1.33422,1.33422,6.18444e-07,3.09578e-06,2.92081e-06,-1.74969e-07,0.400214,0.400209,-4.29539e-06,2.85784e-06,2.78843e-06,-6.94117e-08,1.90539e-06,0.000428759,0.000426854,0.00511437,0.00520843,9.40628e-05,-0.00207702,-0.0239827,-0.0219057,0.00504038,0.00368554,-0.00135484,0.0972704,0.112578,0.0153077,-0.0139116,-0.0140633,-0.000151687,-0.0333942,-0.051319,-0.0179249,-0.00109589,-0.000866468,0.000229424,0.0260471,0.0242362,-0.00181088,0.000328532,0.000646917,0.000318385,0.227383,0.243443,0.0160603,
-0.119097,-0.119097,5.99698e-08,-0.145846,-0.145847,-4.23536e-07,0.0609174,0.0609175,4.34437e-08,-2.98511,-2.98511,6.19373e-07,-0.00300377,-0.0030037,7.13737e-08,1.33415,1.33415,1.51195e-06,9.02826e-07,9.03996e-07,1.16964e-09,0.400269,0.400266,-3.8841e-06,3.69355e-06,3.51491e-06,-1.78645e-07,0.00242383,0.000456671,-0.00196716,0.00508439,0.00519633,0.000111942,-0.00186525,-0.0237525,-0.0218872,0.00501866,0.00367117,-0.0013475,0.0969607,0.112269,0.0153087,-0.0139473,-0.0140475,-0.00010019,-0.0341501,-0.0515798,-0.0174296,-0.00109648,-0.000787718,0.000308758,0.0279892,0.02629,-0.00169915,0.000417855,0.000744664,0.000326809,0.238641,0.25592,0.0172794,
-0.119086,-0.119086,3.53535e-08,-0.14585,-0.14585,-3.94169e-07,0.0609274,0.0609275,3.42833e-08,-2.98491,-2.98491,5.3424e-07,-0.00303167,-0.00303166,4.11459e-09,1.33408,1.33408,7.86355e-07,-1.22238e-06,-1.29013e-06,-6.77473e-08,0.400328,0.400325,-2.66907e-06,4.64962e-06,4.52926e-06,-1.20363e-07,0.00291258,0.00290111,-1.1469e-05,0.00506671,0.00518147,0.000114756,-0.00166817,-0.0235237,-0.0218556,0.00500152,0.00365542,-0.0013461,0.0966936,0.111993,0.0152994,-0.0139493,-0.0140365,-8.72053e-05,-0.0345433,-0.0520321,-0.0174888,-0.0010626,-0.000727382,0.000335221,0.0293237,0.0281252,-0.00119847,0.000478036,0.000853579,0.000375543,0.244375,0.263977,0.0196016,
-0.119076,-0.119076,2.74195e-08,-0.145853,-0.145853,-3.45179e-07,0.0609374,0.0609374,2.61497e-08,-2.98472,-2.98472,4.42959e-07,-0.00305956,-0.00305956,-8.7074e-09,1.33401,1.33401,4.69821e-07,-3.28737e-06,-3.34759e-06,-6.02127e-08,0.400389,0.400387,-1.79735e-06,5.68124e-06,5.6057e-06,-7.55421e-08,0.00340638,0.00340133,-5.04446e-06,0.005053,0.00517204,0.000119044,-0.00149558,-0.0233329,-0.0218373,0.00498845,0.00364388,-0.00134457,0.0964721,0.111764,0.015292,-0.013945,-0.0140117,-6.67365e-05,-0.0347782,-0.0520912,-0.017313,-0.0010325,-0.000665321,0.000367175,0.0302224,0.0293097,-0.000912647,0.000515807,0.000931344,0.000415537,0.246897,0.272445,0.0255473,
-0.119066,-0.119066,2.15238e-08,-0.145855,-0.145856,-2.947e-07,0.0609474,0.0609474,2.03282e-08,-2.98453,-2.98453,3.6229e-07,-0.00308744,-0.00308745,-5.09517e-09,1.33394,1.33394,3.25177e-07,-5.31053e-06,-5.35237e-06,-4.18348e-08,0.40045,0.400449,-1.18075e-06,6.76224e-06,6.71285e-06,-4.93858e-08,0.00390195,0.00390017,-1.7796e-06,0.00504224,0.00516279,0.000120549,-0.00134823,-0.0231598,-0.0218116,0.00497828,0.00363448,-0.0013438,0.0962909,0.11157,0.0152792,-0.0139424,-0.0140044,-6.19703e-05,-0.0349408,-0.0522321,-0.0172913,-0.00101158,-0.000634665,0.000376914,0.0308128,0.0301749,-0.000637827,0.0005405,0.00098515,0.00044465,0.247787,0.274636,0.0268486,
-0.119056,-0.119056,1.75208e-08,-0.145858,-0.145858,-2.49123e-07,0.0609573,0.0609573,1.62922e-08,-2.98433,-2.98433,2.97115e-07,-0.00311532,-0.00311533,-3.90775e-09,1.33387,1.33387,2.72025e-07,-7.30653e-06,-7.33369e-06,-2.71571e-08,0.400513,0.400512,-7.62468e-07,7.87333e-06,7.84324e-06,-3.00955e-08,0.00439747,0.00439753,6.14698e-08,0.00503348,0.00515384,0.000120365,-0.00122367,-0.0230127,-0.021789,0.00497014,0.00362621,-0.00134392,0.0961424,0.111411,0.0152685,-0.0139405,-0.0139984,-5.78846e-05,-0.0350768,-0.0523666,-0.0172898,-0.000998001,-0.000615086,0.000382915,0.031194,0.0307577,-0.000436332,0.000555548,0.00101718,0.000461636,0.247756,0.274943,0.0271867,
-0.119046,-0.119046,1.46805e-08,-0.14586,-0.14586,-2.10566e-07,0.0609672,0.0609672,1.35303e-08,-2.98414,-2.98414,2.46533e-07,-0.00314319,-0.0031432,-7.02519e-09,1.3338,1.3338,2.54083e-07,-9.28529e-06,-9.30253e-06,-1.72456e-08,0.400575,0.400575,-4.83211e-07,9.00026e-06,8.98443e-06,-1.5831e-08,0.00489197,0.00489298,1.00741e-06,0.00502614,0.00514787,0.000121737,-0.00111839,-0.0228728,-0.0217544,0.00496337,0.00362107,-0.0013423,0.0960191,0.111287,0.0152683,-0.013937,-0.0139983,-6.13466e-05,-0.0352039,-0.0524619,-0.017258,-0.000989378,-0.00058697,0.000402407,0.0314356,0.0310798,-0.000355811,0.000563463,0.00104039,0.00047693,0.247253,0.275238,0.0279855,
-0.119036,-0.119036,1.28042e-08,-0.145862,-0.145862,-1.78297e-07,0.0609771,0.0609772,1.17721e-08,-2.98395,-2.98395,2.08093e-07,-0.00317106,-0.00317107,-1.29726e-08,1.33373,1.33373,2.48777e-07,-1.12536e-05,-1.1264e-05,-1.0405e-08,0.400639,0.400638,-3.02401e-07,1.01324e-05,1.01272e-05,-5.19102e-09,0.00538503,0.00538648,1.44525e-06,0.00501974,0.00514156,0.000121821,-0.00102924,-0.0227703,-0.0217411,0.00495749,0.00361555,-0.00134193,0.0959151,0.111179,0.0152641,-0.0139305,-0.0139921,-6.16487e-05,-0.0353283,-0.0525887,-0.0172604,-0.000984175,-0.00058111,0.000403065,0.0315868,0.0313239,-0.000262925,0.000566059,0.00105232,0.000486261,0.24653,0.274631,0.0281003,
-0.119026,-0.119026,1.16288e-08,-0.145864,-0.145864,-1.52431e-07,0.060987,0.0609871,1.07166e-08,-2.98376,-2.98376,1.78647e-07,-0.0031989,-0.00319892,-1.97314e-08,1.33366,1.33366,2.44992e-07,-1.32152e-05,-1.3222e-05,-6.80495e-09,0.400702,0.400702,-1.86487e-07,1.12619e-05,1.12645e-05,2.63646e-09,0.00587651,0.00587809,1.5778e-06,0.00501392,0.00513626,0.000122341,-0.000953021,-0.0226815,-0.0217284,0.00495213,0.00361101,-0.00134112,0.0958257,0.111089,0.0152634,-0.0139206,-0.013984,-6.34296e-05,-0.0354507,-0.0527098,-0.017259,-0.000980773,-0.000575226,0.000405547,0.03168,0.0314697,-0.000210322,0.000564741,0.00105864,0.000493904,0.245741,0.274038,0.0282971,
-0.119016,-0.119016,1.09279e-08,-0.145866,-0.145866,-1.32532e-07,0.0609969,0.0609969,1.0119e-08,-2.98357,-2.98357,1.5561e-07,-0.00322671,-0.00322674,-2.61937e-08,1.33359,1.33359,2.38778e-07,-1.51711e-05,-1.51767e-05,-5.59479e-09,0.400765,0.400765,-1.11961e-07,1.23831e-05,1.23913e-05,8.22153e-09,0.00636647,0.006368,1.5296e-06,0.00500846,0.00513143,0.000122978,-0.000886755,-0.0226057,-0.0217189,0.00494707,0.00360691,-0.00134016,0.0957479,0.111012,0.0152643,-0.0139075,-0.013973,-6.55378e-05,-0.0355701,-0.0528293,-0.0172592,-0.000977975,-0.000570806,0.000407169,0.031736,0.0315588,-0.00017725,0.00056063,0.00106048,0.000499847,0.244977,0.273456,0.0284795,
-0.119006,-0.119006,1.05665e-08,-0.145867,-0.145868,-1.17346e-07,0.0610068,0.0610068,9.8395e-09,-2.98338,-2.98338,1.37294e-07,-0.0032545,-0.00325453,-3.2026e-08,1.33351,1.33351,2.30354e-07,-1.71216e-05,-1.71271e-05,-5.44323e-09,0.400829,0.400829,-6.47069e-08,1.34923e-05,1.35044e-05,1.21148e-08,0.00685502,0.00685642,1.39512e-06,0.00500317,0.00512549,0.000122313,-0.000828083,-0.0225401,-0.021712,0.00494215,0.00360321,-0.00133894,0.0956793,0.110946,0.0152669,-0.0138915,-0.0139776,-8.61363e-05,-0.0356853,-0.0529462,-0.0172609,-0.000975254,-0.000573056,0.000402198,0.0317684,0.0316569,-0.000111423,0.000554572,0.00104707,0.000492497,0.244279,0.274885,0.0306059,
-0.118996,-0.118996,1.04381e-08,-0.145869,-0.145869,-1.05804e-07,0.0610167,0.0610167,9.7747e-09,-2.98319,-2.98319,1.22495e-07,-0.00328224,-0.00328228,-3.71166e-08,1.33344,1.33344,2.2057e-07,-1.90663e-05,-1.90722e-05,-5.82057e-09,0.400893,0.400893,-3.52277e-08,1.45866e-05,1.46014e-05,1.4763e-08,0.00734235,0.00734358,1.22961e-06,0.00499795,0.00512177,0.000123819,-0.000775181,-0.0224824,-0.0217072,0.00493726,0.00359934,-0.00133792,0.095618,0.110887,0.0152693,-0.0138729,-0.0139518,-7.89116e-05,-0.0357956,-0.0530641,-0.0172685,-0.000972344,-0.000567902,0.000404442,0.031786,0.0317485,-3.74512e-05,0.000547191,0.00104214,0.000494949,0.243664,0.276712,0.0330478,
-0.118986,-0.118986,1.04639e-08,-0.14587,-0.14587,-9.70373e-08,0.0610266,0.0610266,9.84926e-09,-2.98299,-2.98299,1.1037e-07,-0.00330995,-0.00330999,-4.14934e-08,1.33337,1.33337,2.10284e-07,-2.10046e-05,-2.1011e-05,-6.43659e-09,0.400956,0.400956,-1.71749e-08,1.56645e-05,1.5681e-05,1.65077e-08,0.00782862,0.00782968,1.06384e-06,0.00499272,0.00511707,0.000124351,-0.000726662,-0.0224296,-0.0217029,0.00493234,0.00359552,-0.00133681,0.0955628,0.110837,0.0152744,-0.0138522,-0.0139341,-8.19094e-05,-0.0359007,-0.0531482,-0.0172475,-0.000969125,-0.000561432,0.000407693,0.0317946,0.0317319,-6.26275e-05,0.000538937,0.00103441,0.00049547,0.243132,0.274932,0.0318001,
-0.118976,-0.118976,1.05879e-08,-0.145872,-0.145872,-9.03602e-08,0.0610364,0.0610364,1.00102e-08,-2.9828,-2.9828,1.00328e-07,-0.0033376,-0.00333765,-4.52372e-08,1.3333,1.3333,2.00169e-07,-2.29357e-05,-2.29428e-05,-7.1221e-09,0.40102,0.40102,-6.3384e-09,1.67248e-05,1.67424e-05,1.76053e-08,0.00831397,0.00831488,9.13569e-07,0.00498743,0.00510985,0.000122424,-0.000681482,-0.0223855,-0.021704,0.00492733,0.00359019,-0.00133714,0.0955127,0.110788,0.0152757,-0.0138296,-0.0139117,-8.20931e-05,-0.0360008,-0.0533175,-0.0173167,-0.000965564,-0.000554617,0.000410947,0.0317977,0.0317847,-1.29988e-05,0.000530134,0.00103945,0.000509314,0.242675,0.274679,0.0320035,
-0.118966,-0.118966,1.07712e-08,-0.145873,-0.145873,-8.52415e-08,0.0610463,0.0610463,1.02214e-08,-2.98261,-2.98261,9.19497e-08,-0.00336522,-0.00336526,-4.84365e-08,1.33323,1.33323,1.90684e-07,-2.48591e-05,-2.48668e-05,-7.78092e-09,0.401083,0.401083,4.90157e-11,1.77668e-05,1.77851e-05,1.82456e-08,0.00879853,0.00879932,7.85603e-07,0.00498204,0.00510564,0.000123597,-0.000638861,-0.0223411,-0.0217022,0.00492222,0.00358639,-0.00133583,0.0954667,0.110747,0.0152803,-0.0138053,-0.0138885,-8.31305e-05,-0.0360962,-0.0534163,-0.0173202,-0.000961674,-0.000551171,0.000410503,0.0317977,0.0317794,-1.82787e-05,0.000521012,0.0010344,0.000513386,0.242282,0.274176,0.0318934,
-0.118956,-0.118956,1.09877e-08,-0.145874,-0.145874,-8.12765e-08,0.0610561,0.0610561,1.04587e-08,-2.98242,-2.98242,8.49284e-08,-0.00339277,-0.00339283,-5.11709e-08,1.33315,1.33315,1.82099e-07,-2.6774e-05,-2.67824e-05,-8.36216e-09,0.401147,0.401147,3.78609e-09,1.87903e-05,1.88088e-05,1.85677e-08,0.00928241,0.0092831,6.8161e-07,0.00497655,0.00510939,0.000132845,-0.000598223,-0.0222984,-0.0217001,0.00491699,0.00358706,-0.00132993,0.0954242,0.11071,0.0152858,-0.0137798,-0.0138642,-8.44017e-05,-0.0361872,-0.0535097,-0.0173225,-0.000957493,-0.000550514,0.000406978,0.0317958,0.0317672,-2.85855e-05,0.000511728,0.00100288,0.000491151,0.241941,0.273719,0.0317775,
-0.118946,-0.118946,1.12197e-08,-0.145875,-0.145875,-7.81609e-08,0.0610659,0.0610659,1.07062e-08,-2.98223,-2.98223,7.90348e-08,-0.00342028,-0.00342033,-5.35059e-08,1.33308,1.33308,1.74542e-07,-2.86802e-05,-2.8689e-05,-8.84289e-09,0.401211,0.401211,6.02487e-09,1.9795e-05,1.98137e-05,1.86722e-08,0.0097657,0.0097663,6.00475e-07,0.00497094,0.00510135,0.000130415,-0.000559143,-0.0222588,-0.0216996,0.00491164,0.00358361,-0.00132803,0.0953847,0.110675,0.0152907,-0.013753,-0.0138438,-9.07888e-05,-0.0362745,-0.0536005,-0.017326,-0.000953071,-0.000543525,0.000409547,0.0317928,0.0317589,-3.38981e-05,0.000502392,0.000992509,0.000490117,0.241641,0.273329,0.031688,
-0.118936,-0.118936,2.42566e-08,-0.145876,-0.145876,-7.41631e-08,0.0610757,0.0610757,1.81848e-08,-2.98204,-2.98204,7.53338e-08,-0.00344773,-0.00344779,-5.6544e-08,1.33301,1.33301,1.7024e-07,-3.05709e-05,-3.05863e-05,-1.53928e-08,0.401274,0.401274,-7.41756e-10,2.08331e-05,2.07998e-05,-3.3296e-08,0.0102485,0.010249,4.48432e-07,0.00495881,0.00508174,0.00012293,-0.000522061,-0.0222334,-0.0217114,0.00490254,0.00357241,-0.00133014,0.0953471,0.11064,0.0152934,-0.0137247,-0.0138506,-0.000125812,-0.0363596,-0.0544012,-0.0180415,-0.000945375,-0.000547249,0.000398126,0.0317932,0.0319275,0.000134347,0.00051904,0.000975321,0.000456282,0.241416,0.269163,0.0277473,
-0.118926,-0.118926,1.98244e-08,-0.145877,-0.145877,-7.25199e-08,0.0610855,0.0610855,1.87642e-08,-2.98185,-2.98185,7.09786e-08,-0.00347512,-0.00347518,-6.2676e-08,1.33294,1.33294,1.63699e-07,-3.24504e-05,-3.24617e-05,-1.12425e-08,0.401338,0.401338,5.82055e-10,2.19058e-05,2.18712e-05,-3.4551e-08,0.010731,0.0107314,4.08416e-07,0.0049489,0.00516303,0.000214127,-0.000485801,-0.02211,-0.0216242,0.00489316,0.00360448,-0.00128869,0.0953116,0.110652,0.0153399,-0.0136934,-0.0136134,7.99576e-05,-0.0364415,-0.0511488,-0.0147074,-0.000939754,-0.000450677,0.000489076,0.0317929,0.0306633,-0.00112962,0.000536315,0.00100985,0.000473538,0.241211,0.277056,0.0358444,
-0.118917,-0.118917,1.81435e-08,-0.145878,-0.145878,-7.10855e-08,0.0610953,0.0610953,1.75216e-08,-2.98166,-2.98166,6.72021e-08,-0.00350244,-0.0035025,-6.4738e-08,1.33286,1.33286,1.58873e-07,-3.43192e-05,-3.43299e-05,-1.0777e-08,0.401401,0.401401,1.98336e-09,2.30119e-05,2.29784e-05,-3.35022e-08,0.011213,0.0112134,3.84729e-07,0.00493983,0.00508821,0.000148384,-0.000450258,-0.0222328,-0.0217826,0.0048844,0.00360867,-0.00127573,0.095278,0.11095,0.0156715,-0.013661,-0.0140988,-0.000437796,-0.0365209,-0.0533965,-0.0168756,-0.000934365,-0.000453021,0.000481344,0.0317919,0.0307555,-0.00103638,0.000553066,0.00104422,0.000491158,0.241019,0.261359,0.02034,
-0.118907,-0.118907,1.53989e-07,-0.145879,-0.145879,4.06787e-08,0.061105,0.0611051,7.6462e-08,-2.98147,-2.98147,1.00217e-07,-0.00352999,-0.00352976,2.28323e-07,1.33278,1.33279,5.37903e-06,-3.62001e-05,-3.61879e-05,1.22439e-08,0.401466,0.401465,-1.37293e-06,2.41191e-05,2.4118e-05,-1.07483e-09,0.0116748,0.011695,2.02317e-05,0.00486283,0.00508544,0.000222611,-0.000470598,-0.022249,-0.0217784,0.00484617,0.00359992,-0.00124625,0.0952279,0.110922,0.0156941,-0.0137752,-0.0140702,-0.000295044,-0.0392104,-0.05457,-0.0153596,-0.000940487,-0.000490486,0.000450001,0.0324784,0.0310944,-0.00138396,0.000553604,0.00106258,0.000508972,0.230901,0.257793,0.0268921,
-0.118897,-0.118897,9.25688e-08,-0.14588,-0.14588,-1.04866e-07,0.0611146,0.0611147,8.38447e-08,-2.98128,-2.98128,3.28568e-07,-0.00355739,-0.00355754,-1.54465e-07,1.3327,1.33271,3.11469e-06,-3.80888e-05,-3.80811e-05,7.65932e-09,0.401532,0.401531,-1.16245e-06,2.52294e-05,2.52263e-05,-3.05023e-09,0.012122,0.0121366,1.45649e-05,0.00481655,0.00500262,0.00018607,-0.000418165,-0.0222613,-0.0218431,0.00480425,0.00354212,-0.00126213,0.0950636,0.110774,0.0157104,-0.013698,-0.0140666,-0.000368661,-0.0407677,-0.0568295,-0.0160617,-0.000944317,-0.000509322,0.000434995,0.0330596,0.0314751,-0.00158453,0.000555129,0.00110889,0.000553758,0.223616,0.258162,0.0345458,
-0.118888,-0.118888,7.86964e-08,-0.145881,-0.145881,-1.81348e-07,0.0611241,0.0611242,7.39131e-08,-2.98109,-2.98109,3.88926e-07,-0.00358459,-0.00358478,-1.95774e-07,1.33262,1.33262,1.91928e-06,-3.99418e-05,-3.99774e-05,-3.56269e-08,0.401599,0.401598,-9.20154e-07,2.63273e-05,2.63396e-05,1.23346e-08,0.0125579,0.0125693,1.13415e-05,0.0047772,0.00492836,0.000151158,-0.000327491,-0.0222162,-0.0218887,0.00476729,0.00349207,-0.00127523,0.0948691,0.110578,0.0157087,-0.0136001,-0.014069,-0.000468936,-0.0417274,-0.0581928,-0.0164654,-0.000926503,-0.000523257,0.000403246,0.0335197,0.0315928,-0.00192685,0.000548962,0.00104201,0.000493049,0.217942,0.262887,0.0449447,
-0.118878,-0.118878,6.93666e-08,-0.145881,-0.145881,-2.16635e-07,0.0611336,0.0611336,6.53257e-08,-2.9809,-2.9809,3.81413e-07,-0.00361162,-0.00361179,-1.63993e-07,1.33254,1.33254,1.27281e-06,-4.17465e-05,-4.17948e-05,-4.83395e-08,0.401667,0.401666,-7.2505e-07,2.74046e-05,2.74252e-05,2.05603e-08,0.012984,0.0129938,9.85884e-06,0.00474252,0.0049034,0.000160884,-0.000219173,-0.0221157,-0.0218965,0.00473463,0.00346389,-0.00127074,0.0946784,0.110379,0.0157006,-0.0135181,-0.01395,-0.000431882,-0.0423638,-0.0589624,-0.0165986,-0.000902334,-0.000511142,0.000391191,0.0338822,0.0321697,-0.00171253,0.000538681,0.00102688,0.0004882,0.213008,0.256824,0.0438161,
-0.118869,-0.118869,6.18245e-08,-0.145881,-0.145882,-2.29284e-07,0.061143,0.0611431,5.7582e-08,-2.98071,-2.98071,3.4849e-07,-0.00363853,-0.00363866,-1.22972e-07,1.33245,1.33245,9.20373e-07,-4.3502e-05,-4.35511e-05,-4.91422e-08,0.401735,0.401735,-5.59506e-07,2.84549e-05,2.8482e-05,2.70956e-08,0.0134012,0.01341,8.79308e-06,0.0047116,0.00486506,0.000153459,-0.000104531,-0.0220193,-0.0219147,0.00470584,0.0034305,-0.00127533,0.0945042,0.11019,0.0156857,-0.0134566,-0.0138542,-0.000397598,-0.042824,-0.0598573,-0.0170333,-0.000877762,-0.000469139,0.000408623,0.0341619,0.0327896,-0.00137236,0.000525134,0.00108082,0.000555683,0.208606,0.24825,0.0396439,
-0.118859,-0.118859,5.42155e-08,-0.145881,-0.145882,-2.28167e-07,0.0611524,0.0611524,5.02839e-08,-2.98052,-2.98052,3.10313e-07,-0.00366536,-0.00366545,-9.21151e-08,1.33236,1.33236,7.26615e-07,-4.52158e-05,-4.52575e-05,-4.17399e-08,0.401804,0.401804,-4.36107e-07,2.94637e-05,2.95052e-05,4.14582e-08,0.0138104,0.0138184,7.95138e-06,0.0046845,0.00486373,0.000179238,9.55261e-06,-0.021869,-0.0218785,0.0046807,0.00341832,-0.00126238,0.094349,0.110042,0.0156934,-0.0134105,-0.0137661,-0.000355585,-0.0431873,-0.0591612,-0.0159739,-0.000856892,-0.000440617,0.000416276,0.03438,0.0328215,-0.00155848,0.000504404,0.00106619,0.000561783,0.204624,0.246794,0.0421699,
-0.11885,-0.11885,4.73111e-08,-0.145881,-0.145881,-2.19677e-07,0.0611617,0.0611617,4.36859e-08,-2.98033,-2.98033,2.7465e-07,-0.0036921,-0.00369218,-7.2907e-08,1.33228,1.33228,6.15846e-07,-4.68952e-05,-4.69295e-05,-3.43823e-08,0.401873,0.401873,-3.48051e-07,3.04147e-05,3.04725e-05,5.7795e-08,0.0142124,0.0142197,7.28753e-06,0.00466084,0.00486557,0.000204733,0.000119391,-0.021743,-0.0218624,0.00465885,0.00340835,-0.0012505,0.0942117,0.109911,0.0156992,-0.0133741,-0.0137195,-0.000345465,-0.0434952,-0.058543,-0.0150478,-0.000839701,-0.000508358,0.000331343,0.034554,0.0326402,-0.00191381,0.000475507,0.00104736,0.000571855,0.200974,0.248744,0.0477701,
-0.118841,-0.118841,4.1643e-08,-0.145881,-0.145881,-2.08627e-07,0.061171,0.061171,3.8133e-08,-2.98014,-2.98014,2.43552e-07,-0.00371879,-0.00371885,-6.22525e-08,1.33219,1.33219,5.47579e-07,-4.8544e-05,-4.85746e-05,-3.05587e-08,0.401943,0.401942,-2.82607e-07,3.12951e-05,3.13657e-05,7.06339e-08,0.0146076,0.0146143,6.72307e-06,0.00464002,0.00482379,0.000183775,0.000223705,-0.0216768,-0.0219005,0.00463979,0.00339905,-0.00124073,0.0940899,0.109905,0.0158146,-0.013343,-0.0138444,-0.000501484,-0.043769,-0.0597432,-0.0159742,-0.000824422,-0.000333824,0.000490598,0.0346953,0.0326729,-0.00202246,0.00044019,0.00106434,0.000624151,0.197605,0.240177,0.0425715,
-0.118832,-0.118831,9.01751e-08,-0.14588,-0.14588,-1.59341e-07,0.0611802,0.0611802,5.79215e-08,-2.97996,-2.97996,2.40162e-07,-0.00374543,-0.00374548,-4.58122e-08,1.3321,1.3321,2.51487e-06,-5.00073e-05,-5.01929e-05,-1.85554e-07,0.402013,0.402012,-1.16816e-06,3.21112e-05,3.21755e-05,6.42423e-08,0.0149852,0.0150028,1.76521e-05,0.00459493,0.00480478,0.000209851,0.000303375,-0.0215897,-0.0218931,0.00461083,0.00338104,-0.00122978,0.0939698,0.109785,0.015815,-0.01332,-0.0137984,-0.000478399,-0.0450264,-0.0603893,-0.0153628,-0.000731645,-0.000326556,0.000405089,0.0352794,0.0329345,-0.0023449,0.000408069,0.0010504,0.000642331,0.188771,0.238315,0.0495439,
-0.118822,-0.118822,6.21373e-08,-0.145879,-0.145879,-2.08045e-07,0.0611893,0.0611894,5.80487e-08,-2.97977,-2.97977,3.01599e-07,-0.00377191,-0.00377207,-1.57703e-07,1.33201,1.33201,1.46177e-06,-5.14198e-05,-5.14706e-05,-5.07684e-08,0.402085,0.402084,-9.63885e-07,3.28637e-05,3.29274e-05,6.36794e-08,0.0153491,0.0153627,1.3632e-05,0.00456386,0.00477676,0.000212898,0.000407397,-0.0214972,-0.0219046,0.0045818,0.00335378,-0.00122802,0.093819,0.109632,0.0158129,-0.0132412,-0.0137055,-0.000464265,-0.0457573,-0.0613419,-0.0155846,-0.000706261,-0.000323106,0.000383155,0.0357613,0.0335354,-0.00222599,0.000376229,0.0010226,0.000646368,0.181945,0.23195,0.0500053,
-0.118813,-0.118813,5.40414e-08,-0.145878,-0.145878,-2.26174e-07,0.0611985,0.0611985,5.10996e-08,-2.97958,-2.97958,2.97178e-07,-0.00379825,-0.00379839,-1.42124e-07,1.33191,1.33192,8.93215e-07,-5.27854e-05,-5.28323e-05,-4.6926e-08,0.402157,0.402156,-7.72084e-07,3.35482e-05,3.36162e-05,6.79182e-08,0.0157023,0.015713,1.07161e-05,0.00453684,0.00473923,0.000202387,0.000520484,-0.0214124,-0.0219329,0.00455625,0.0033208,-0.00123545,0.0936704,0.109462,0.0157917,-0.0131701,-0.0136284,-0.000458271,-0.0462039,-0.0621262,-0.0159223,-0.000682798,-0.000370161,0.000312637,0.0361474,0.0343491,-0.00179829,0.00034227,0.00109742,0.000755147,0.176576,0.22848,0.0519037,
-0.118804,-0.118804,4.45542e-08,-0.145877,-0.145877,-2.26193e-07,0.0612075,0.0612076,4.30699e-08,-2.97939,-2.97939,2.6691e-07,-0.00382449,-0.00382459,-1.07186e-07,1.33182,1.33182,5.72303e-07,-5.41109e-05,-5.4151e-05,-4.01312e-08,0.40223,0.402229,-5.65894e-07,3.41268e-05,3.42328e-05,1.05964e-07,0.0160454,0.0160554,9.988e-06,0.00451457,0.00471786,0.000203299,0.000633581,-0.0212886,-0.0219222,0.00453472,0.00330103,-0.00123369,0.093537,0.109327,0.0157901,-0.0131165,-0.0135733,-0.000456767,-0.0464901,-0.062436,-0.0159459,-0.000662732,-0.000349501,0.000313231,0.0364303,0.034658,-0.00177232,0.000289288,0.0010637,0.000774408,0.171571,0.224998,0.0534275,
-0.118795,-0.118795,4.15063e-08,-0.145875,-0.145876,-2.17979e-07,0.0612166,0.0612166,3.80623e-08,-2.97921,-2.97921,2.33559e-07,-0.00385064,-0.00385072,-8.19001e-08,1.33173,1.33173,4.17243e-07,-5.53944e-05,-5.54363e-05,-4.19446e-08,0.402303,0.402303,-4.50531e-07,3.4612e-05,3.47054e-05,9.34296e-08,0.0163806,0.0163886,7.92961e-06,0.00449381,0.00469915,0.000205342,0.00074257,-0.0211637,-0.0219063,0.00451569,0.00328414,-0.00123155,0.0934202,0.109213,0.0157931,-0.0130756,-0.0135273,-0.000451716,-0.0466987,-0.0626259,-0.0159272,-0.00064176,-0.000314498,0.000327262,0.0366556,0.0348293,-0.0018263,0.000242573,0.00103891,0.000796338,0.167593,0.221285,0.0536913,
-0.118786,-0.118786,3.73829e-08,-0.145874,-0.145874,-2.05326e-07,0.0612256,0.0612256,3.40877e-08,-2.97902,-2.97902,2.02546e-07,-0.00387672,-0.00387679,-6.72759e-08,1.33163,1.33163,3.30761e-07,-5.66414e-05,-5.66779e-05,-3.65437e-08,0.402377,0.402377,-3.62901e-07,3.50134e-05,3.50971e-05,8.36874e-08,0.0167095,0.0167158,6.34798e-06,0.00447512,0.00467636,0.000201238,0.000845233,-0.0210939,-0.0219391,0.00449864,0.00326447,-0.00123417,0.0933189,0.109098,0.0157786,-0.013042,-0.0134864,-0.000444481,-0.0468641,-0.0629943,-0.0161302,-0.000623488,-0.000327569,0.000295919,0.036837,0.0352264,-0.00161065,0.00020073,0.000979598,0.000778868,0.164406,0.214329,0.0499235,
-0.118777,-0.118777,3.34491e-08,-0.145872,-0.145872,-1.89195e-07,0.0612345,0.0612345,3.05239e-08,-2.97883,-2.97883,1.76911e-07,-0.00390275,-0.0039028,-5.85685e-08,1.33154,1.33154,2.85881e-07,-5.78617e-05,-5.78884e-05,-2.66645e-08,0.402451,0.402451,-3.11846e-07,3.53358e-05,3.54149e-05,7.90791e-08,0.0170333,0.0170383,5.02554e-06,0.0044584,0.00465419,0.000195793,0.00093983,-0.0210172,-0.0219571,0.00448338,0.00324371,-0.00123967,0.0932305,0.108967,0.0157366,-0.0130127,-0.0134473,-0.000434609,-0.047007,-0.0631855,-0.0161785,-0.000610156,-0.000454882,0.000155274,0.036993,0.036311,-0.000681971,0.00016119,0.00110359,0.000942399,0.161879,0.229586,0.0677072,
-0.118769,-0.118769,3.02052e-08,-0.14587,-0.14587,-1.72735e-07,0.0612435,0.0612435,2.74389e-08,-2.97865,-2.97865,1.55897e-07,-0.00392872,-0.00392877,-5.29459e-08,1.33145,1.33145,2.62051e-07,-5.90608e-05,-5.9082e-05,-2.12376e-08,0.402525,0.402525,-2.75021e-07,3.55804e-05,3.56582e-05,7.77777e-08,0.0173529,0.017357,4.13452e-06,0.00444329,0.00463785,0.00019456,0.0010262,-0.0209279,-0.0219541,0.00446966,0.00322982,-0.00123984,0.0931525,0.108898,0.0157452,-0.0129862,-0.0134195,-0.000433259,-0.047138,-0.0633101,-0.0161721,-0.000599537,-0.000433648,0.000165889,0.0371305,0.036322,-0.00080849,0.000122301,0.00110965,0.000987347,0.159797,0.223313,0.0635159,
-0.11876,-0.11876,2.7666e-08,-0.145868,-0.145868,-1.57151e-07,0.0612524,0.0612524,2.49721e-08,-2.97846,-2.97846,1.38675e-07,-0.00395464,-0.00395469,-4.97129e-08,1.33135,1.33135,2.4851e-07,-6.02416e-05,-6.02598e-05,-1.81965e-08,0.4026,0.402599,-2.38297e-07,3.57487e-05,3.5825e-05,7.63211e-08,0.0176687,0.0176725,3.7916e-06,0.00442946,0.00462428,0.000194815,0.00110477,-0.0208422,-0.0219469,0.00445717,0.00321821,-0.00123897,0.0930832,0.108833,0.0157499,-0.0129613,-0.0133931,-0.0004318,-0.0472623,-0.0633976,-0.0161353,-0.000590439,-0.00042206,0.000168379,0.0372496,0.0364267,-0.000822913,8.41406e-05,0.00110665,0.00102251,0.157885,0.222172,0.0642871,
-0.118751,-0.118751,2.5158e-08,-0.145865,-0.145865,-1.44022e-07,0.0612613,0.0612613,2.27676e-08,-2.97828,-2.97828,1.25252e-07,-0.00398052,-0.00398056,-4.82853e-08,1.33126,1.33126,2.38121e-07,-6.14076e-05,-6.14225e-05,-1.49066e-08,0.402674,0.402674,-2.14615e-07,3.58395e-05,3.5917e-05,7.74256e-08,0.0179813,0.0179845,3.1341e-06,0.00441688,0.00460936,0.000192476,0.00117678,-0.0207654,-0.0219422,0.00444579,0.00320624,-0.00123955,0.0930206,0.108775,0.0157545,-0.0129372,-0.0133672,-0.000430022,-0.0473814,-0.0635024,-0.016121,-0.000582986,-0.0004105,0.000172485,0.0373569,0.0365337,-0.000823233,4.54278e-05,0.0011245,0.00107907,0.156302,0.221085,0.064783,
-0.118742,-0.118742,2.31747e-08,-0.145863,-0.145863,-1.32345e-07,0.0612701,0.0612702,2.094e-08,-2.97809,-2.97809,1.14385e-07,-0.00400634,-0.00400639,-4.76278e-08,1.33116,1.33116,2.30313e-07,-6.25603e-05,-6.25736e-05,-1.32933e-08,0.402749,0.402749,-1.91373e-07,3.5852e-05,3.59304e-05,7.83798e-08,0.0182912,0.0182939,2.69338e-06,0.00440529,0.00460765,0.000202356,0.00124296,-0.0206958,-0.0219388,0.00443532,0.00320166,-0.00123366,0.0929634,0.108728,0.0157646,-0.0129134,-0.0133345,-0.000421108,-0.0474965,-0.0634222,-0.0159257,-0.000576339,-0.000397562,0.000178777,0.0374526,0.0364674,-0.000985202,6.23786e-06,0.00103638,0.00103014,0.154938,0.218085,0.0631468,
-0.118733,-0.118733,2.16181e-08,-0.14586,-0.14586,-1.22004e-07,0.061279,0.061279,1.94955e-08,-2.9779,-2.9779,1.05594e-07,-0.00403212,-0.00403217,-4.73632e-08,1.33107,1.33107,2.25004e-07,-6.37009e-05,-6.3713e-05,-1.20621e-08,0.402824,0.402824,-1.68611e-07,3.57854e-05,3.58645e-05,7.9141e-08,0.0185987,0.0186011,2.41667e-06,0.00439449,0.00458805,0.000193565,0.00130396,-0.02064,-0.0219439,0.00442557,0.00319514,-0.00123043,0.0929106,0.108688,0.0157777,-0.0128897,-0.013357,-0.000467288,-0.047609,-0.0637826,-0.0161736,-0.000570308,-0.00044114,0.000129168,0.0375369,0.0365977,-0.000939216,-3.33326e-05,0.00101584,0.00104917,0.153712,0.220554,0.0668424,
-0.118725,-0.118725,4.20633e-08,-0.145857,-0.145858,-1.14034e-07,0.0612878,0.0612878,2.97663e-08,-2.97772,-2.97772,1.08564e-07,-0.00405787,-0.0040579,-3.204e-08,1.33097,1.33097,5.93347e-07,-6.484e-05,-6.48415e-05,-1.48803e-09,0.4029,0.402899,-4.78626e-07,3.58188e-05,3.57187e-05,-1.00085e-07,0.0189082,0.0189061,-2.09738e-06,0.00437345,0.00459553,0.000222079,0.00136098,-0.0205828,-0.0219438,0.00441069,0.003196,-0.00121469,0.0928563,0.108642,0.0157853,-0.0128737,-0.0133436,-0.000469888,-0.0479057,-0.0640094,-0.0161037,-0.000569564,-0.000465762,0.000103802,0.0377762,0.03673,-0.00104623,1.671e-05,0.000789087,0.000772377,0.154743,0.219022,0.0642793,
-0.118716,-0.118716,2.73384e-08,-0.145855,-0.145855,-1.15444e-07,0.0612966,0.0612966,2.69378e-08,-2.97753,-2.97753,1.14512e-07,-0.00408355,-0.00408362,-6.41791e-08,1.33087,1.33088,3.54764e-07,-6.59681e-05,-6.59792e-05,-1.10729e-08,0.402976,0.402976,-3.68222e-07,3.59007e-05,3.58522e-05,-4.85087e-08,0.0192185,0.0192177,-8.42654e-07,0.00435978,0.00458708,0.000227293,0.0014187,-0.0205225,-0.0219412,0.00439722,0.00318624,-0.00121098,0.092799,0.108591,0.0157924,-0.0128416,-0.0133134,-0.00047182,-0.0480831,-0.0642266,-0.0161435,-0.000564027,-0.000465243,9.87842e-05,0.0379604,0.0369287,-0.00103166,4.09643e-05,0.000786243,0.000745279,0.155146,0.219394,0.0642481,
-0.118707,-0.118707,2.32255e-08,-0.145852,-0.145852,-1.1087e-07,0.0613054,0.0613054,2.26107e-08,-2.97735,-2.97735,1.08361e-07,-0.00410917,-0.00410924,-6.4326e-08,1.33078,1.33078,2.37977e-07,-6.70813e-05,-6.70961e-05,-1.4816e-08,0.403052,0.403052,-2.78131e-07,3.60039e-05,3.59826e-05,-2.12636e-08,0.0195288,0.0195288,-5.64687e-09,0.00434817,0.00457449,0.00022632,0.00147413,-0.0204653,-0.0219394,0.00438592,0.00317494,-0.00121097,0.0927448,0.108542,0.0157967,-0.0128094,-0.0132773,-0.00046789,-0.0482021,-0.0643412,-0.0161392,-0.000556619,-0.000457563,9.9056e-05,0.0380994,0.0370951,-0.00100433,5.15961e-05,0.000840029,0.000788433,0.15513,0.219996,0.0648667,
-0.118698,-0.118698,2.07113e-08,-0.145849,-0.145849,-1.04153e-07,0.0613141,0.0613141,1.97526e-08,-2.97716,-2.97716,9.87644e-08,-0.00413473,-0.00413479,-5.7983e-08,1.33068,1.33068,1.84876e-07,-6.81801e-05,-6.81946e-05,-1.44882e-08,0.403128,0.403128,-2.04301e-07,3.61085e-05,3.61071e-05,-1.36352e-09,0.0198385,0.0198391,6.34905e-07,0.00433782,0.00459492,0.000257103,0.00152621,-0.0203808,-0.0219071,0.00437604,0.00318118,-0.00119486,0.0926955,0.108527,0.0158316,-0.0127804,-0.013225,-0.000444555,-0.0482945,-0.063531,-0.0152365,-0.000549375,-0.00044598,0.000103395,0.0382016,0.0364437,-0.00175789,5.22779e-05,0.000804525,0.000752247,0.154793,0.214202,0.0594087,
-0.11869,-0.11869,1.8986e-08,-0.145845,-0.145846,-9.69352e-08,0.0613229,0.0613229,1.78074e-08,-2.97698,-2.97698,8.9544e-08,-0.00416024,-0.00416029,-5.24744e-08,1.33059,1.33059,1.63962e-07,-6.92659e-05,-6.92788e-05,-1.29038e-08,0.403205,0.403205,-1.46184e-07,3.61998e-05,3.6213e-05,1.32149e-08,0.0201469,0.0201481,1.11606e-06,0.00432832,0.00458585,0.000257531,0.00157468,-0.0203284,-0.0219031,0.00436714,0.00317321,-0.00119393,0.0926507,0.108488,0.0158374,-0.0127542,-0.013196,-0.000441757,-0.0483765,-0.0635778,-0.0152014,-0.000542923,-0.000435971,0.000106953,0.0382747,0.0365113,-0.00176334,4.56704e-05,0.000826043,0.000780372,0.154215,0.214044,0.0598288,
-0.118681,-0.118681,1.77834e-08,-0.145842,-0.145842,-9.00753e-08,0.0613316,0.0613316,1.64708e-08,-2.97679,-2.97679,8.19543e-08,-0.0041857,-0.00418575,-4.9065e-08,1.33049,1.33049,1.58549e-07,-7.03405e-05,-7.03518e-05,-1.12594e-08,0.403282,0.403282,-1.01422e-07,3.62672e-05,3.62911e-05,2.38956e-08,0.0204539,0.0204554,1.47457e-06,0.00431943,0.00457775,0.00025832,0.00161971,-0.0202794,-0.0218991,0.0043589,0.00316612,-0.00119278,0.0926097,0.108453,0.0158435,-0.0127297,-0.0131687,-0.000439042,-0.0484558,-0.0636202,-0.0151645,-0.000537294,-0.000426775,0.000110519,0.0383254,0.0365518,-0.00177356,3.37226e-05,0.000838922,0.000805199,0.153458,0.213697,0.060239,
-0.118673,-0.118673,1.69648e-08,-0.145839,-0.145839,-8.39676e-08,0.0613403,0.0613403,1.55709e-08,-2.97661,-2.97661,7.61643e-08,-0.00421111,-0.00421116,-4.73604e-08,1.33039,1.33039,1.59925e-07,-7.14052e-05,-7.14151e-05,-9.91775e-09,0.403358,0.403358,-6.73435e-08,3.6303e-05,3.63347e-05,3.16921e-08,0.0207591,0.0207608,1.74092e-06,0.00431095,0.00457255,0.000261602,0.0016617,-0.0202307,-0.0218924,0.00435111,0.00316079,-0.00119033,0.0925716,0.10842,0.0158481,-0.012706,-0.0131435,-0.000437532,-0.0485357,-0.0636401,-0.0151044,-0.000532335,-0.000429684,0.000102651,0.038359,0.0366221,-0.00173699,1.78765e-05,0.000836218,0.000818341,0.152567,0.215611,0.0630434,
-0.118664,-0.118664,1.64307e-08,-0.145835,-0.145836,-7.87425e-08,0.061349,0.061349,1.49885e-08,-2.97642,-2.97642,7.19349e-08,-0.00423648,-0.00423652,-4.6723e-08,1.33029,1.33029,1.6367e-07,-7.24609e-05,-7.24698e-05,-8.92278e-09,0.403435,0.403435,-4.15395e-08,3.63014e-05,3.63387e-05,3.73408e-08,0.0210623,0.0210642,1.9385e-06,0.00430273,0.00455662,0.000253889,0.00170107,-0.0201997,-0.0219008,0.00434362,0.00314961,-0.00119401,0.0925357,0.108396,0.0158601,-0.0126826,-0.0131112,-0.000428603,-0.0486176,-0.0637891,-0.0151715,-0.000527873,-0.000386848,0.000141025,0.0383798,0.0365067,-0.00187308,-7.93853e-07,0.000884657,0.00088545,0.151577,0.207024,0.0554469,
-0.118655,-0.118655,1.63668e-08,-0.145832,-0.145832,-7.39823e-08,0.0613576,0.0613577,1.47721e-08,-2.97624,-2.97624,6.86936e-08,-0.0042618,-0.00426184,-4.68797e-08,1.3302,1.3302,1.7135e-07,-7.35071e-05,-7.35167e-05,-9.60727e-09,0.403512,0.403512,-1.66471e-08,3.62594e-05,3.62998e-05,4.03943e-08,0.021363,0.0213654,2.39627e-06,0.00429455,0.00454901,0.000254464,0.00173806,-0.0201596,-0.0218977,0.00433623,0.00314333,-0.0011929,0.0925013,0.108369,0.0158672,-0.0126592,-0.0130846,-0.000425424,-0.0487032,-0.0638373,-0.0151341,-0.00052307,-0.000376864,0.000146206,0.0383881,0.0364926,-0.0018955,-2.0991e-05,0.000891463,0.000912454,0.150358,0.206162,0.0558041,
-0.118647,-0.118647,1.58815e-08,-0.145828,-0.145829,-7.09827e-08,0.0613663,0.0613663,1.44803e-08,-2.97605,-2.97605,6.70394e-08,-0.00428707,-0.00428711,-4.69792e-08,1.3301,1.3301,1.71812e-07,-7.45467e-05,-7.45532e-05,-6.52392e-09,0.403589,0.403589,-8.11869e-09,3.61733e-05,3.62174e-05,4.41274e-08,0.0216616,0.0216637,2.15936e-06,0.00428661,0.00454195,0.000255343,0.00177355,-0.0201178,-0.0218913,0.00432899,0.00313721,-0.00119179,0.0924678,0.108339,0.0158709,-0.0126357,-0.0130587,-0.00042301,-0.0487891,-0.0638676,-0.0150784,-0.000519808,-0.000382129,0.000137678,0.0383922,0.0365579,-0.00183435,-4.30547e-05,0.00091137,0.000954424,0.149256,0.208928,0.0596721,
-0.118638,-0.118638,1.55903e-08,-0.145825,-0.145825,-6.84459e-08,0.0613749,0.061375,1.42165e-08,-2.97587,-2.97587,6.56735e-08,-0.00431229,-0.00431234,-4.68824e-08,1.33,1.33,1.70468e-07,-7.55801e-05,-7.55863e-05,-6.15741e-09,0.403666,0.403666,-1.23723e-09,3.60403e-05,3.60872e-05,4.6945e-08,0.0219581,0.0219601,1.98602e-06,0.00427881,0.00453727,0.000258453,0.00180778,-0.0200929,-0.0219007,0.00432189,0.00313273,-0.00118916,0.092435,0.108321,0.0158856,-0.0126123,-0.013033,-0.000420778,-0.0488744,-0.0640309,-0.0151565,-0.000516729,-0.000353891,0.000162838,0.0383928,0.0363839,-0.00200893,-6.65272e-05,0.000827583,0.00089411,0.148241,0.198833,0.0505917,
-0.11863,-0.11863,1.50009e-08,-0.145821,-0.145821,-6.17553e-08,0.0613836,0.0613836,1.36846e-08,-2.97568,-2.97568,6.07451e-08,-0.00433747,-0.00433752,-4.8269e-08,1.3299,1.3299,1.95105e-07,-7.65937e-05,-7.66136e-05,-1.98595e-08,0.403742,0.403742,9.03975e-08,3.58326e-05,3.59072e-05,7.45798e-08,0.0222486,0.0222546,5.96887e-06,0.00427131,0.0045316,0.000260291,0.00183865,-0.020057,-0.0218956,0.00431504,0.00312778,-0.00118726,0.0924046,0.108297,0.0158925,-0.0125881,-0.0130071,-0.000418958,-0.0489719,-0.0640789,-0.015107,-0.000506799,-0.000344274,0.000162526,0.0383476,0.0363407,-0.00200696,-0.000103817,0.00081312,0.000916937,0.145234,0.198123,0.0528889,
-0.118621,-0.118621,1.63972e-08,-0.145817,-0.145817,-6.19404e-08,0.0613922,0.0613922,1.44064e-08,-2.9755,-2.9755,6.30953e-08,-0.0043626,-0.00436264,-4.83019e-08,1.32981,1.32981,2.06408e-07,-7.76021e-05,-7.76073e-05,-5.20545e-09,0.403819,0.403819,6.33577e-08,3.55633e-05,3.5625e-05,6.16867e-08,0.0225345,0.0225391,4.56988e-06,0.00426312,0.00452569,0.000262573,0.00186962,-0.0200236,-0.0218932,0.00430784,0.00312268,-0.00118516,0.0923731,0.108274,0.0159012,-0.012564,-0.0129801,-0.000416158,-0.0490751,-0.0641479,-0.0150728,-0.000504197,-0.000335767,0.00016843,0.0383159,0.0362629,-0.00205301,-0.00013466,0.000787699,0.000922359,0.142925,0.195764,0.0528385,
-0.118613,-0.118613,1.68521e-08,-0.145814,-0.145814,-6.23375e-08,0.0614008,0.0614008,1.5005e-08,-2.97531,-2.97531,6.49667e-08,-0.00438768,-0.00438772,-4.83766e-08,1.32971,1.32971,2.02786e-07,-7.86066e-05,-7.86105e-05,-3.91885e-09,0.403895,0.403895,4.21849e-08,3.5242e-05,3.5294e-05,5.20339e-08,0.0228169,0.0228204,3.48486e-06,0.00425469,0.00451944,0.000264749,0.00190079,-0.0199903,-0.0218911,0.00430034,0.00311719,-0.00118315,0.0923406,0.10825,0.0159096,-0.0125398,-0.0129531,-0.000413304,-0.0491765,-0.0642198,-0.0150433,-0.000502237,-0.000328363,0.000173874,0.0382948,0.0361977,-0.00209716,-0.000160677,0.000767694,0.000928371,0.141159,0.193892,0.0527326,
-0.118604,-0.118604,1.69625e-08,-0.14581,-0.14581,-6.25984e-08,0.0614094,0.0614094,1.52679e-08,-2.97513,-2.97513,6.5897e-08,-0.00441271,-0.00441275,-4.84971e-08,1.32961,1.32961,1.924e-07,-7.96068e-05,-7.96111e-05,-4.32282e-09,0.403972,0.403972,2.672e-08,3.48761e-05,3.49206e-05,4.44728e-08,0.0230966,0.0230992,2.64887e-06,0.00424621,0.00451337,0.000267157,0.00193209,-0.019959,-0.0218911,0.0042927,0.00311133,-0.00118138,0.0923076,0.108224,0.0159162,-0.0125155,-0.0129213,-0.000405765,-0.0492727,-0.0643109,-0.0150382,-0.000500076,-0.000324899,0.000175177,0.0382815,0.0361713,-0.00211024,-0.000182914,0.000758399,0.000941313,0.13981,0.192562,0.0527518,
-0.118596,-0.118596,1.68762e-08,-0.145806,-0.145806,-6.25797e-08,0.0614179,0.061418,1.53028e-08,-2.97494,-2.97494,6.58788e-08,-0.00443769,-0.00443774,-4.83785e-08,1.32951,1.32951,1.79832e-07,-8.06021e-05,-8.06069e-05,-4.83098e-09,0.404049,0.404049,1.6058e-08,3.44718e-05,3.45103e-05,3.84938e-08,0.0233742,0.0233762,2.00767e-06,0.00423777,0.00450727,0.000269499,0.00196338,-0.0199281,-0.0218915,0.00428505,0.00310538,-0.00117967,0.0922747,0.108197,0.0159223,-0.0124913,-0.0128898,-0.000398414,-0.0493626,-0.0644017,-0.015039,-0.00049766,-0.000322525,0.000175136,0.0382735,0.0361577,-0.00211572,-0.000202161,0.000751614,0.000953775,0.138781,0.191559,0.052778,
-0.118587,-0.118587,1.66546e-08,-0.145802,-0.145802,-6.21927e-08,0.0614265,0.0614265,1.51955e-08,-2.97476,-2.97476,6.5154e-08,-0.00446262,-0.00446267,-4.81983e-08,1.32941,1.32941,1.68082e-07,-8.15923e-05,-8.15974e-05,-5.08571e-09,0.404125,0.404125,8.28425e-09,3.40339e-05,3.40675e-05,3.35819e-08,0.0236502,0.0236517,1.51401e-06,0.00422944,0.00450127,0.000271829,0.00199448,-0.0199067,-0.0219012,0.00427745,0.00309946,-0.00117799,0.0922421,0.108164,0.0159219,-0.0124672,-0.0128711,-0.000403811,-0.0494467,-0.0646065,-0.0151599,-0.000495117,-0.000353926,0.000141192,0.0382693,0.0362992,-0.00197013,-0.000218952,0.000711925,0.000930877,0.137999,0.191679,0.0536799,
-0.118579,-0.118579,1.63748e-08,-0.145798,-0.145798,-6.15182e-08,0.061435,0.0614351,1.49967e-08,-2.97457,-2.97457,6.39558e-08,-0.00448751,-0.00448756,-4.77843e-08,1.32931,1.32931,1.57579e-07,-8.25774e-05,-8.25825e-05,-5.15703e-09,0.404202,0.404202,2.8551e-09,3.35662e-05,3.3596e-05,2.98418e-08,0.0239251,0.0239262,1.13387e-06,0.00422126,0.00449522,0.000273963,0.00202524,-0.0198827,-0.021908,0.00426996,0.00309362,-0.00117634,0.0922101,0.108133,0.0159234,-0.0124434,-0.0128505,-0.000407105,-0.0495255,-0.0647694,-0.015244,-0.000492539,-0.000375498,0.000117041,0.0382679,0.0363976,-0.00187025,-0.000233873,0.000682558,0.000916431,0.137407,0.191699,0.0542929,
-0.11857,-0.11857,1.60511e-08,-0.145794,-0.145794,-6.04254e-08,0.0614436,0.0614436,1.475e-08,-2.97439,-2.97439,6.26275e-08,-0.00451235,-0.0045124,-4.71507e-08,1.32921,1.32921,1.51014e-07,-8.3558e-05,-8.35625e-05,-4.4413e-09,0.404278,0.404278,-3.96975e-09,3.30708e-05,3.30984e-05,2.75956e-08,0.0241991,0.0241999,8.2339e-07,0.00421323,0.00448786,0.000274633,0.00205545,-0.0198559,-0.0219114,0.00426258,0.00308823,-0.00117435,0.0921788,0.108106,0.0159275,-0.0124198,-0.01285,-0.00043021,-0.049601,-0.0648943,-0.0152933,-0.000490318,-0.000395812,9.45065e-05,0.0382699,0.0364553,-0.0018146,-0.00024767,0.000625124,0.000872794,0.136969,0.191762,0.0547929,
-0.118562,-0.118562,1.57159e-08,-0.14579,-0.14579,-5.93134e-08,0.0614521,0.0614521,1.44695e-08,-2.97421,-2.97421,6.12214e-08,-0.00453714,-0.00453719,-4.65694e-08,1.32911,1.32911,1.43948e-07,-8.45344e-05,-8.45387e-05,-4.30138e-09,0.404355,0.404355,-8.51037e-09,3.25493e-05,3.25755e-05,2.61556e-08,0.0244724,0.024473,5.84715e-07,0.00420537,0.00448144,0.000276072,0.00208511,-0.0198253,-0.0219104,0.00425535,0.00308271,-0.00117264,0.0921482,0.108083,0.0159343,-0.0123965,-0.012829,-0.00043247,-0.0496729,-0.0649545,-0.0152816,-0.000488168,-0.000393555,9.4613e-05,0.0382741,0.0364396,-0.00183452,-0.000260748,0.000610899,0.000871647,0.13665,0.19137,0.0547194,
-0.118554,-0.118554,1.53893e-08,-0.145785,-0.145785,-5.81494e-08,0.0614606,0.0614606,1.41802e-08,-2.97402,-2.97402,5.97689e-08,-0.00456189,-0.00456194,-4.5881e-08,1.32901,1.32901,1.37526e-07,-8.55066e-05,-8.55107e-05,-4.07425e-09,0.404431,0.404431,-1.16452e-08,3.20022e-05,3.20278e-05,2.56042e-08,0.0247453,0.0247457,3.9889e-07,0.00419768,0.00447537,0.00027769,0.00211418,-0.019794,-0.0219082,0.00424826,0.00307724,-0.00117102,0.0921183,0.10806,0.0159418,-0.0123736,-0.0128027,-0.000429194,-0.0497417,-0.0649951,-0.0152534,-0.00048613,-0.000385208,0.000100922,0.03828,0.0364052,-0.00187475,-0.00027355,0.000608323,0.000881874,0.136424,0.190906,0.0544812,
-0.118545,-0.118545,1.50579e-08,-0.145781,-0.145781,-5.70175e-08,0.0614691,0.0614691,1.3897e-08,-2.97384,-2.97384,5.82894e-08,-0.00458659,-0.00458664,-4.54795e-08,1.32891,1.32891,1.31037e-07,-8.64748e-05,-8.64789e-05,-4.12632e-09,0.404508,0.404508,-1.26683e-08,3.143e-05,3.14551e-05,2.5134e-08,0.0250179,0.0250182,2.61734e-07,0.00419015,0.00446942,0.000279272,0.00214269,-0.0197634,-0.0219061,0.00424131,0.00307189,-0.00116941,0.0920892,0.108038,0.0159492,-0.0123508,-0.0127769,-0.00042607,-0.0498072,-0.0650334,-0.0152262,-0.000484067,-0.000377056,0.000107012,0.0382863,0.036373,-0.0019133,-0.000286117,0.000605619,0.000891737,0.136266,0.190505,0.0542382,
-0.118537,-0.118537,1.47483e-08,-0.145777,-0.145777,-5.59069e-08,0.0614775,0.0614775,1.36277e-08,-2.97365,-2.97365,5.67991e-08,-0.00461125,-0.00461129,-4.51835e-08,1.32881,1.32881,1.25027e-07,-8.74387e-05,-8.74429e-05,-4.18425e-09,0.404584,0.404584,-1.20891e-08,3.0833e-05,3.08577e-05,2.47225e-08,0.0252903,0.0252904,1.62404e-07,0.00418277,0.0044636,0.000280826,0.00217064,-0.0197334,-0.021904,0.00423449,0.00306666,-0.00116783,0.0920608,0.108017,0.0159566,-0.0123282,-0.0127512,-0.000422992,-0.0498697,-0.0650695,-0.0151997,-0.000481975,-0.000368998,0.000112977,0.0382923,0.0363417,-0.00195059,-0.000298478,0.000602924,0.000901402,0.136158,0.190148,0.0539899,
-0.118528,-0.118528,1.44656e-08,-0.145772,-0.145772,-5.48221e-08,0.061486,0.061486,1.33786e-08,-2.97347,-2.97347,5.53346e-08,-0.00463586,-0.0046359,-4.49329e-08,1.32871,1.32871,1.19697e-07,-8.83985e-05,-8.84027e-05,-4.21128e-09,0.404661,0.404661,-1.03475e-08,3.02117e-05,3.02361e-05,2.43565e-08,0.0255625,0.0255626,9.21481e-08,0.00417554,0.00445792,0.000282375,0.00219805,-0.019704,-0.0219021,0.0042278,0.00306153,-0.00116627,0.0920331,0.107997,0.0159638,-0.0123058,-0.0127255,-0.000419729,-0.0499296,-0.0651043,-0.0151747,-0.00047987,-0.000361164,0.000118706,0.0382975,0.0363118,-0.00198573,-0.000310657,0.000600499,0.000911156,0.136084,0.189825,0.0537406,
-0.11852,-0.11852,1.42097e-08,-0.145768,-0.145768,-5.37737e-08,0.0614944,0.0614944,1.31515e-08,-2.97329,-2.97329,5.39305e-08,-0.00466043,-0.00466047,-4.47117e-08,1.32861,1.32861,1.15074e-07,-8.9354e-05,-8.93582e-05,-4.20907e-09,0.404738,0.404738,-7.79986e-09,2.95664e-05,2.95904e-05,2.4025e-08,0.0258346,0.0258347,4.40087e-08,0.00416844,0.00445238,0.000283945,0.00222494,-0.0196754,-0.0219004,0.00422123,0.00305649,-0.00116474,0.0920061,0.107977,0.0159708,-0.0122834,-0.0126994,-0.000416027,-0.0499871,-0.0651397,-0.0151526,-0.000477765,-0.000353823,0.000123942,0.0383014,0.0362844,-0.00201705,-0.000322669,0.000598576,0.000921245,0.136034,0.189534,0.0534993,
-0.118512,-0.118512,1.39788e-08,-0.145763,-0.145763,-5.27734e-08,0.0615028,0.0615029,1.29458e-08,-2.9731,-2.9731,5.26122e-08,-0.00468495,-0.00468499,-4.45149e-08,1.32851,1.32851,1.11103e-07,-9.03053e-05,-9.03095e-05,-4.18562e-09,0.404814,0.404814,-4.72473e-09,2.88973e-05,2.8921e-05,2.37182e-08,0.0261067,0.0261067,1.25078e-08,0.00416145,0.00444896,0.000287517,0.00225133,-0.0196484,-0.0218997,0.00421476,0.00305264,-0.00116212,0.0919798,0.107957,0.0159771,-0.0122611,-0.0126754,-0.000414286,-0.0500427,-0.0651895,-0.0151469,-0.000475672,-0.000353757,0.000121915,0.0383038,0.0362763,-0.00202747,-0.000334528,0.000571717,0.000906245,0.136,0.189293,0.053293,
-0.118503,-0.118503,1.37706e-08,-0.145759,-0.145759,-5.18309e-08,0.0615113,0.0615113,1.27599e-08,-2.97292,-2.97292,5.13941e-08,-0.00470943,-0.00470947,-4.43387e-08,1.32841,1.32841,1.07701e-07,-9.12525e-05,-9.12567e-05,-4.14849e-09,0.404891,0.404891,-1.33446e-09,2.82048e-05,2.82283e-05,2.34276e-08,0.0263787,0.0263787,-6.63906e-09,0.00415456,0.00444392,0.00028936,0.00227724,-0.019622,-0.0218992,0.00420838,0.0030479,-0.00116048,0.0919541,0.107937,0.0159833,-0.012239,-0.0126505,-0.000411577,-0.0500965,-0.065236,-0.0151395,-0.000473598,-0.000350812,0.000122786,0.0383044,0.0362645,-0.00203991,-0.000346242,0.000563419,0.000909662,0.135974,0.189108,0.053134,
-0.118495,-0.118495,1.35823e-08,-0.145754,-0.145754,-5.09534e-08,0.0615197,0.0615197,1.25917e-08,-2.97273,-2.97273,5.02823e-08,-0.00473386,-0.0047339,-4.41783e-08,1.32831,1.32831,1.04778e-07,-9.21956e-05,-9.21997e-05,-4.10355e-09,0.404967,0.404967,2.21267e-09,2.74892e-05,2.75123e-05,2.31466e-08,0.0266507,0.0266506,-1.67622e-08,0.00414777,0.00442852,0.000280745,0.00230272,-0.0195899,-0.0218927,0.00420208,0.00303756,-0.00116452,0.091929,0.107913,0.0159839,-0.0122169,-0.0126297,-0.000412772,-0.0501489,-0.0653789,-0.01523,-0.000471546,-0.000352279,0.000119268,0.0383033,0.0364172,-0.00188613,-0.000357815,0.000672903,0.00103072,0.135953,0.193773,0.0578195,
-0.118487,-0.118487,1.34113e-08,-0.145749,-0.14575,-5.01453e-08,0.0615281,0.0615281,1.24388e-08,-2.97255,-2.97255,4.92763e-08,-0.00475825,-0.00475829,-4.40285e-08,1.32821,1.32821,1.02251e-07,-9.31347e-05,-9.31387e-05,-4.0549e-09,0.405044,0.405044,5.80176e-09,2.67507e-05,2.67736e-05,2.28698e-08,0.0269226,0.0269226,-2.04303e-08,0.00414106,0.00442336,0.000282291,0.00232779,-0.0195649,-0.0218927,0.00419586,0.00303285,-0.00116301,0.0919044,0.107894,0.0159899,-0.0121949,-0.0126063,-0.00041146,-0.0502,-0.0654282,-0.0152281,-0.000469519,-0.000350855,0.000118663,0.0383004,0.0364084,-0.00189207,-0.00036925,0.000664035,0.00103329,0.135934,0.193614,0.0576797,
